; generated by Slic3r 0.9.7 on 2012-12-15 at 16:20:03

; p9.02 I0.59 D 34.38

; layer_height = 0.3
; perimeters = 2
; top_solid_layers = 2
; bottom_solid_layers = 2
; fill_density = 0.2
; perimeter_speed = 50
; infill_speed = 70
; travel_speed = 170
; scale = 1
; nozzle_diameter = 0.4
; filament_diameter = 1.74
; extrusion_multiplier = .95
; perimeters extrusion width = 0.42mm
; infill extrusion width = 0.42mm
; first layer extrusion width = 0.42mm

G28 ; home all axes
G90 ; use absolute coordinates
G21 ; set units to millimeters
G92 E0
M82 ; use absolute distances for extrusion
G1 F1200.000 E-1.00000
G92 E0
G1 Z0.300 F10200.000
G1 X76.217 Y72.720
G1 F1200.000 E1.00000
G1 X76.657 Y72.300 F1200.000 E1.03054
G1 X76.897 Y72.100 E1.04622
G1 X79.067 Y70.520 E1.18099
G1 X79.597 Y70.210 E1.21181
G1 X80.147 Y69.940 E1.24257
G1 X80.727 Y69.730 E1.27354
G1 X82.697 Y69.090 E1.37753
G1 X83.357 Y68.910 E1.41188
G1 X83.687 Y68.840 E1.42881
G1 X84.027 Y68.800 E1.44600
G1 X86.057 Y68.670 E1.54813
G1 X100.827 Y68.670 E2.28965
G1 X101.367 Y68.690 E2.31678
G1 X101.897 Y68.760 E2.34362
G1 X102.427 Y68.860 E2.37070
G1 X103.197 Y69.090 E2.41104
G1 X103.687 Y69.300 E2.43781
G1 X104.167 Y69.540 E2.46475
G1 X104.627 Y69.820 E2.49179
G1 X105.267 Y70.310 E2.53225
G1 X105.667 Y70.670 E2.55927
G1 X106.027 Y71.070 E2.58629
G1 X106.517 Y71.710 E2.62676
G1 X106.797 Y72.170 E2.65379
G1 X107.037 Y72.650 E2.68073
G1 X107.247 Y73.140 E2.70750
G1 X107.407 Y73.650 E2.73433
G1 X107.537 Y74.180 E2.76173
G1 X107.617 Y74.710 E2.78864
G1 X107.647 Y74.970 E2.80178
G1 X107.667 Y75.510 E2.82891
G1 X107.667 Y108.480 E4.48416
G1 X107.647 Y109.020 E4.51129
G1 X107.537 Y109.810 E4.55133
G1 X107.407 Y110.340 E4.57873
G1 X107.247 Y110.850 E4.60557
G1 X107.147 Y111.100 E4.61909
G1 X106.797 Y111.820 E4.65928
G1 X106.517 Y112.280 E4.68631
G1 X106.027 Y112.920 E4.72678
G1 X105.667 Y113.320 E4.75380
G1 X105.267 Y113.680 E4.78082
G1 X104.627 Y114.170 E4.82128
G1 X104.167 Y114.450 E4.84832
G1 X103.687 Y114.690 E4.87526
G1 X103.197 Y114.900 E4.90203
G1 X102.427 Y115.130 E4.94237
G1 X102.157 Y115.190 E4.95626
G1 X101.367 Y115.300 E4.99630
G1 X100.827 Y115.320 E5.02343
G1 X86.057 Y115.320 E5.76496
G1 X84.027 Y115.190 E5.86708
G1 X83.687 Y115.150 E5.88427
G1 X83.357 Y115.080 E5.90120
G1 X82.697 Y114.900 E5.93555
G1 X80.437 Y114.160 E6.05494
G1 X80.147 Y114.050 E6.07051
G1 X79.597 Y113.780 E6.10127
G1 X79.067 Y113.470 E6.13210
G1 X76.897 Y111.890 E6.26686
G1 X76.657 Y111.690 E6.28254
G1 X76.217 Y111.270 E6.31308
G1 X75.807 Y110.800 E6.34440
G1 X75.627 Y110.560 E6.35946
G1 X74.227 Y108.620 E6.47957
G1 X73.917 Y108.100 E6.50996
G1 X73.647 Y107.540 E6.54117
G1 X73.427 Y106.960 E6.57232
G1 X72.787 Y104.980 E6.67679
G1 X72.627 Y104.390 E6.70748
G1 X72.517 Y103.790 E6.73810
G1 X72.457 Y102.880 E6.78389
G1 X72.457 Y81.110 E7.87684
G1 X72.517 Y80.200 E7.92263
G1 X72.627 Y79.600 E7.95325
G1 X72.787 Y79.010 E7.98395
G1 X73.427 Y77.030 E8.08841
G1 X73.647 Y76.450 E8.11956
G1 X73.917 Y75.890 E8.15077
G1 X74.227 Y75.370 E8.18116
G1 X75.627 Y73.430 E8.30127
G1 X75.807 Y73.190 E8.31634
G1 X76.175 Y72.766 E8.34449
G1 X76.217 Y72.720 E8.34765
G1 X76.617 Y72.910 F10200.000
G1 X77.117 Y72.460 F1200.000 E8.38142
G1 X79.067 Y71.040 E8.50253
G1 X79.627 Y70.670 E8.53622
G1 X80.227 Y70.370 E8.56990
G1 X80.857 Y70.130 E8.60375
G1 X83.127 Y69.390 E8.72362
G1 X84.077 Y69.210 E8.77216
G1 X85.647 Y69.100 E8.85117
G1 X100.827 Y69.090 E9.61328
G1 X101.357 Y69.110 E9.63991
G1 X101.617 Y69.140 E9.65305
G1 X102.147 Y69.230 E9.68004
G1 X102.657 Y69.360 E9.70646
G1 X103.407 Y69.630 E9.74648
G1 X103.887 Y69.860 E9.77320
G1 X104.557 Y70.290 E9.81317
G1 X104.977 Y70.610 E9.83968
G1 X105.367 Y70.970 E9.86633
G1 X105.897 Y71.570 E9.90652
G1 X106.197 Y72.000 E9.93284
G1 X106.477 Y72.450 E9.95945
G1 X106.707 Y72.930 E9.98617
G1 X106.897 Y73.430 E10.01303
G1 X107.047 Y73.930 E10.03923
G1 X107.157 Y74.450 E10.06592
G1 X107.227 Y74.980 E10.09276
G1 X107.247 Y75.510 E10.11939
G1 X107.247 Y108.480 E11.77464
G1 X107.227 Y109.010 E11.80126
G1 X107.157 Y109.540 E11.82810
G1 X107.047 Y110.060 E11.85479
G1 X106.807 Y110.810 E11.89432
G1 X106.597 Y111.300 E11.92109
G1 X106.337 Y111.770 E11.94805
G1 X105.897 Y112.420 E11.98746
G1 X105.547 Y112.830 E12.01452
G1 X105.177 Y113.200 E12.04079
G1 X104.767 Y113.550 E12.06786
G1 X104.117 Y113.990 E12.10727
G1 X103.647 Y114.250 E12.13423
G1 X103.157 Y114.460 E12.16100
G1 X102.407 Y114.700 E12.20053
G1 X101.887 Y114.810 E12.22721
G1 X101.357 Y114.880 E12.25405
G1 X100.827 Y114.900 E12.28068
G1 X86.057 Y114.900 E13.02221
G1 X84.397 Y114.810 E13.10567
G1 X83.757 Y114.730 E13.13805
G1 X83.127 Y114.600 E13.17035
G1 X80.537 Y113.750 E13.30720
G1 X79.927 Y113.480 E13.34069
G1 X79.627 Y113.320 E13.35776
G1 X79.067 Y112.950 E13.39146
G1 X77.117 Y111.530 E13.51256
G1 X76.617 Y111.080 E13.54633
G1 X76.167 Y110.580 E13.58011
G1 X75.967 Y110.310 E13.59698
G1 X74.557 Y108.350 E13.71819
G1 X74.377 Y108.070 E13.73491
G1 X74.067 Y107.460 E13.76926
G1 X73.827 Y106.830 E13.80310
G1 X73.187 Y104.850 E13.90757
G1 X73.017 Y104.210 E13.94082
G1 X72.917 Y103.550 E13.97433
G1 X72.877 Y102.880 E14.00803
G1 X72.877 Y81.110 E15.10099
G1 X72.887 Y80.780 E15.11756
G1 X72.957 Y80.110 E15.15138
G1 X73.097 Y79.460 E15.18476
G1 X73.827 Y77.160 E15.30591
G1 X74.067 Y76.530 E15.33976
G1 X74.377 Y75.920 E15.37411
G1 X74.747 Y75.360 E15.40781
G1 X76.167 Y73.410 E15.52891
G1 X76.575 Y72.956 E15.55953
G1 X76.617 Y72.910 E15.56269
G1 F1200.000 E14.56269
G92 E0
G1 X79.718 Y100.878 F10200.000
G1 F1200.000 E1.00000
G1 X80.319 Y99.030 F1200.000 E1.09756
G1 X81.461 Y97.458 E1.19513
G1 X83.033 Y96.316 E1.29269
G1 X84.881 Y95.715 E1.39025
G1 X86.484 Y95.715 E1.47071
G1 X86.484 Y95.631 E1.47494
G1 X100.414 Y95.631 E2.17428
G1 X100.414 Y98.719 E2.32932
G1 X89.899 Y98.719 E2.85721
G1 X89.189 Y97.874 E2.91261
G1 X87.628 Y96.972 E3.00312
G1 X85.853 Y96.659 E3.09362
G1 X84.078 Y96.972 E3.18412
G1 X82.517 Y97.874 E3.27463
G1 X81.358 Y99.255 E3.36513
G1 X80.741 Y100.949 E3.45563
G1 X80.741 Y102.751 E3.54614
G1 X81.358 Y104.445 E3.63664
G1 X82.517 Y105.826 E3.72714
G1 X84.078 Y106.728 E3.81765
G1 X85.853 Y107.041 E3.90815
G1 X87.628 Y106.728 E3.99866
G1 X89.189 Y105.826 E4.08916
G1 X89.899 Y104.981 E4.14456
G1 X100.414 Y104.981 E4.67245
G1 X100.414 Y108.069 E4.82749
G1 X86.484 Y108.069 E5.52683
G1 X86.484 Y107.985 E5.53106
G1 X84.881 Y107.985 E5.61152
G1 X83.033 Y107.384 E5.70908
G1 X81.461 Y106.242 E5.80665
G1 X80.319 Y104.670 E5.90421
G1 X79.718 Y102.822 E6.00177
G1 X79.718 Y100.941 E6.09618
G1 X79.718 Y100.878 E6.09934
G1 X79.299 Y100.812 F10200.000
G1 X79.941 Y98.838 F1200.000 E6.20356
G1 X81.161 Y97.158 E6.30778
G1 X82.841 Y95.938 E6.41201
G1 X84.815 Y95.296 E6.51623
G1 X86.065 Y95.296 E6.57899
G1 X86.065 Y95.212 E6.58322
G1 X100.832 Y95.212 E7.32462
G1 X100.832 Y99.138 E7.52172
G1 X89.703 Y99.138 E8.08045
G1 X88.916 Y98.200 E8.14195
G1 X87.483 Y97.372 E8.22504
G1 X85.853 Y97.085 E8.30812
G1 X84.223 Y97.372 E8.39121
G1 X82.790 Y98.200 E8.47430
G1 X81.726 Y99.467 E8.55739
G1 X81.160 Y101.023 E8.64047
G1 X81.160 Y102.677 E8.72356
G1 X81.726 Y104.233 E8.80665
G1 X82.790 Y105.500 E8.88973
G1 X84.223 Y106.328 E8.97282
G1 X85.853 Y106.615 E9.05591
G1 X87.483 Y106.328 E9.13900
G1 X88.916 Y105.500 E9.22208
G1 X89.703 Y104.562 E9.28358
G1 X100.832 Y104.562 E9.84231
G1 X100.832 Y108.488 E10.03941
G1 X86.065 Y108.488 E10.78081
G1 X86.065 Y108.404 E10.78504
G1 X84.815 Y108.404 E10.84780
G1 X82.841 Y107.762 E10.95202
G1 X81.161 Y106.542 E11.05625
G1 X79.941 Y104.862 E11.16047
G1 X79.299 Y102.888 E11.26470
G1 X79.299 Y100.875 E11.36577
G1 X79.299 Y100.812 E11.36892
G1 X79.509 Y100.448 F10200.000
G1 F1200.000 E10.36892
G92 E0
G1 X85.377 Y107.814 F10200.000
G1 F1200.000 E1.00000
G1 X85.188 Y107.487 F1680.000 E1.01901
G1 X85.585 Y107.333 E1.04042
G1 X85.862 Y107.814 E1.06836
G1 X86.347 Y107.814 E1.09279
G1 X86.025 Y107.256 E1.12524
G1 X86.466 Y107.178 E1.14776
G1 X86.833 Y107.814 E1.18472
G1 X87.318 Y107.814 E1.20915
G1 X86.906 Y107.100 E1.25063
G1 X87.346 Y107.023 E1.27315
G1 X87.803 Y107.814 E1.31914
G1 X88.288 Y107.814 E1.34357
G1 X87.768 Y106.913 E1.39596
G1 X88.132 Y106.703 E1.41712
G1 X88.773 Y107.814 E1.48172
G1 X89.259 Y107.814 E1.50616
G1 X88.496 Y106.493 E1.58298
G1 X88.860 Y106.282 E1.60414
G1 X89.744 Y107.814 E1.69318
G1 X90.229 Y107.814 E1.71761
G1 X89.224 Y106.072 E1.81887
G1 X89.542 Y105.783 F10200.000
G1 X90.714 Y107.814 F1680.000 E1.93698
G1 X91.199 Y107.814 E1.96141
G1 X89.829 Y105.440 E2.09944
G1 X90.197 Y105.236 E2.12060
G1 X91.685 Y107.814 E2.27047
G1 X92.170 Y107.814 E2.29491
G1 X90.682 Y105.236 E2.44478
G1 X91.167 Y105.236 E2.46921
G1 X92.655 Y107.814 E2.61908
G1 X93.140 Y107.814 E2.64351
G1 X91.652 Y105.236 E2.79338
G1 X92.137 Y105.236 E2.81782
G1 X93.625 Y107.814 E2.96769
G1 X94.110 Y107.814 E2.99212
G1 X92.623 Y105.236 E3.14199
G1 X93.108 Y105.236 E3.16643
G1 X94.596 Y107.814 E3.31630
G1 X95.081 Y107.814 E3.34073
G1 X93.593 Y105.236 E3.49060
G1 X94.078 Y105.236 E3.51503
G1 X95.566 Y107.814 E3.66490
G1 X96.051 Y107.814 E3.68933
G1 X94.563 Y105.236 E3.83919
G1 X95.048 Y105.236 E3.86363
G1 X96.536 Y107.814 E4.01349
G1 X97.022 Y107.814 E4.03793
G1 X95.534 Y105.236 E4.18779
G1 X96.019 Y105.236 E4.21223
G1 X97.507 Y107.814 E4.36209
G1 X97.992 Y107.814 E4.38653
G1 X96.504 Y105.236 E4.53639
G1 X96.989 Y105.236 E4.56083
G1 X98.477 Y107.814 E4.71070
G1 X98.962 Y107.814 E4.73513
G1 X97.474 Y105.236 E4.88500
G1 X97.960 Y105.236 E4.90942
G1 X99.447 Y107.814 E5.05929
G1 X99.933 Y107.814 E5.08373
G1 X98.445 Y105.236 E5.23360
G1 X98.930 Y105.236 E5.25803
G1 X100.089 Y107.244 E5.37478
G1 X100.089 Y106.404 E5.41710
G1 X99.415 Y105.236 E5.48497
G1 X99.900 Y105.236 E5.50941
G1 X100.089 Y105.563 E5.52841
G1 F1200.000 E4.52841
G92 E0
G1 X85.203 Y107.369 F10200.000
G1 F1200.000 E1.00000
G1 X85.089 Y107.172 F480.000 E1.00688
G1 X84.843 Y107.603 F10200.000
G1 X84.580 Y107.147 F480.000 E1.04386
G1 X83.174 Y106.967 F10200.000
G1 X82.910 Y106.511 F480.000 E1.08085
G1 X81.833 Y105.904 F10200.000
G1 X81.569 Y105.447 F480.000 E1.11787
G1 X80.359 Y103.302 F10200.000
G1 X80.170 Y102.974 F480.000 E1.13742
G1 X80.414 Y102.535 E1.16339
G1 X80.045 Y101.896 E1.20152
G1 X80.414 Y101.673 E1.22381
G1 X80.045 Y101.034 E1.26194
G1 X80.465 Y100.898 E1.28473
G1 X80.174 Y100.394 E1.31482
G1 X80.469 Y100.042 E1.33854
G1 X80.657 Y100.369 E1.35803
G1 X81.833 Y98.253 F10200.000
G1 X81.569 Y97.797 F480.000 E1.39501
G1 X83.174 Y97.189 F10200.000
G1 X82.910 Y96.733 F480.000 E1.43198
G1 X84.843 Y96.553 F10200.000
G1 X84.580 Y96.097 F480.000 E1.46895
G1 X85.200 Y96.563 F10200.000
G1 X85.086 Y96.366 F480.000 E1.47583
G1 X85.370 Y96.296 F10200.000
G1 X85.181 Y95.969 F1680.000 E1.49511
G1 X85.626 Y95.886 E1.51821
G1 X85.918 Y96.392 E1.54805
G1 X86.118 Y95.886 E1.57585
G1 X86.466 Y96.489 E1.61138
G1 X87.014 Y96.585 E1.63982
G1 X86.610 Y95.886 E1.68106
G1 X87.103 Y95.886 E1.70620
G1 X87.562 Y96.682 E1.75314
G1 X88.194 Y96.924 E1.78772
G1 X87.595 Y95.886 E1.84895
G1 X88.087 Y95.886 E1.87410
G1 X88.932 Y97.351 E1.96048
G1 X89.800 Y98.001 E2.01587
G1 X88.579 Y95.886 E2.14059
G1 X89.071 Y95.886 E2.16574
G1 X90.559 Y98.464 E2.31778
G1 X91.052 Y98.464 E2.34293
G1 X89.564 Y95.886 E2.49497
G1 X90.056 Y95.886 E2.52012
G1 X91.544 Y98.464 E2.67216
G1 X92.036 Y98.464 E2.69731
G1 X90.548 Y95.886 E2.84935
G1 X91.040 Y95.886 E2.87450
G1 X92.528 Y98.464 E3.02654
G1 X93.020 Y98.464 E3.05168
G1 X91.533 Y95.886 E3.20372
G1 X92.025 Y95.886 E3.22887
G1 X93.513 Y98.464 E3.38091
G1 X94.005 Y98.464 E3.40606
G1 X92.517 Y95.886 E3.55810
G1 X93.009 Y95.886 E3.58325
G1 X94.497 Y98.464 E3.73529
G1 X94.989 Y98.464 E3.76044
G1 X93.501 Y95.886 E3.91248
G1 X93.994 Y95.886 E3.93763
G1 X95.482 Y98.464 E4.08967
G1 X95.974 Y98.464 E4.11482
G1 X94.486 Y95.886 E4.26686
G1 X94.978 Y95.886 E4.29200
G1 X96.466 Y98.464 E4.44404
G1 X96.958 Y98.464 E4.46919
G1 X95.470 Y95.886 E4.62123
G1 X95.963 Y95.886 E4.64638
G1 X97.450 Y98.464 E4.79842
G1 X97.943 Y98.464 E4.82357
G1 X96.455 Y95.886 E4.97561
G1 X96.947 Y95.886 E5.00076
G1 X98.435 Y98.464 E5.15280
G1 X98.927 Y98.464 E5.17795
G1 X97.439 Y95.886 E5.32999
G1 X97.931 Y95.886 E5.35514
G1 X99.419 Y98.464 E5.50718
G1 X99.912 Y98.464 E5.53233
G1 X98.424 Y95.886 E5.68437
G1 X98.916 Y95.886 E5.70952
G1 X100.089 Y97.918 E5.82939
G1 X100.089 Y97.066 E5.87295
G1 X99.408 Y95.886 E5.94252
G1 X99.900 Y95.886 E5.96767
G1 X100.089 Y96.213 E5.98695
G1 F1200.000 E4.98695
G92 E0
G1 X100.414 Y75.931 F10200.000
G1 F1200.000 E1.00000
G1 X100.414 Y79.019 F1200.000 E1.15504
G1 X89.899 Y79.019 E1.68293
G1 X89.189 Y78.174 E1.73834
G1 X87.628 Y77.272 E1.82884
G1 X85.853 Y76.959 E1.91934
G1 X84.078 Y77.272 E2.00985
G1 X82.517 Y78.174 E2.10035
G1 X81.358 Y79.555 E2.19085
G1 X80.741 Y81.249 E2.28136
G1 X80.741 Y83.051 E2.37186
G1 X81.358 Y84.745 E2.46236
G1 X82.517 Y86.126 E2.55287
G1 X84.078 Y87.028 E2.64337
G1 X85.853 Y87.341 E2.73387
G1 X87.628 Y87.028 E2.82438
G1 X89.189 Y86.126 E2.91488
G1 X89.899 Y85.281 E2.97028
G1 X100.414 Y85.281 E3.49817
G1 X100.414 Y88.369 E3.65322
G1 X86.484 Y88.369 E4.35255
G1 X86.484 Y88.285 E4.35679
G1 X84.881 Y88.285 E4.43724
G1 X83.033 Y87.684 E4.53480
G1 X81.461 Y86.542 E4.63237
G1 X80.319 Y84.970 E4.72993
G1 X79.718 Y83.122 E4.82749
G1 X79.718 Y81.178 E4.92506
G1 X80.319 Y79.330 E5.02262
G1 X81.461 Y77.758 E5.12018
G1 X83.033 Y76.616 E5.21775
G1 X84.881 Y76.015 E5.31531
G1 X86.484 Y76.015 E5.39577
G1 X86.484 Y75.931 E5.40000
G1 X100.351 Y75.931 E6.09618
G1 X100.414 Y75.931 E6.09934
G1 X100.832 Y75.512 F10200.000
G1 X100.832 Y79.438 F1200.000 E6.29644
G1 X89.703 Y79.438 E6.85516
G1 X88.916 Y78.500 E6.91666
G1 X87.483 Y77.672 E6.99975
G1 X85.853 Y77.385 E7.08284
G1 X84.223 Y77.672 E7.16593
G1 X82.790 Y78.500 E7.24901
G1 X81.726 Y79.767 E7.33210
G1 X81.160 Y81.323 E7.41519
G1 X81.160 Y82.977 E7.49828
G1 X81.726 Y84.533 E7.58136
G1 X82.790 Y85.800 E7.66445
G1 X84.223 Y86.628 E7.74754
G1 X85.853 Y86.915 E7.83062
G1 X87.483 Y86.628 E7.91371
G1 X88.916 Y85.800 E7.99680
G1 X89.703 Y84.862 E8.05830
G1 X100.832 Y84.862 E8.61703
G1 X100.832 Y88.788 E8.81413
G1 X86.065 Y88.788 E9.55552
G1 X86.065 Y88.704 E9.55976
G1 X84.815 Y88.704 E9.62251
G1 X82.841 Y88.062 E9.72674
G1 X81.161 Y86.842 E9.83096
G1 X79.941 Y85.162 E9.93519
G1 X79.299 Y83.188 E10.03941
G1 X79.299 Y81.112 E10.14364
G1 X79.941 Y79.138 E10.24786
G1 X81.161 Y77.458 E10.35209
G1 X82.841 Y76.238 E10.45631
G1 X84.815 Y75.596 E10.56054
G1 X86.065 Y75.596 E10.62329
G1 X86.065 Y75.512 E10.62753
G1 X100.770 Y75.512 E11.36577
G1 X100.832 Y75.512 E11.36892
G1 X101.196 Y75.722 F10200.000
G1 F1200.000 E10.36892
G92 E0
G1 X89.542 Y86.083 F10200.000
G1 F1200.000 E1.00000
G1 X90.714 Y88.114 F1680.000 E1.11811
G1 X91.199 Y88.114 E1.14254
G1 X89.829 Y85.740 E1.28057
G1 X90.197 Y85.536 E1.30173
G1 X91.685 Y88.114 E1.45160
G1 X92.170 Y88.114 E1.47604
G1 X90.682 Y85.536 E1.62591
G1 X91.167 Y85.536 E1.65034
G1 X92.655 Y88.114 E1.80021
G1 X93.140 Y88.114 E1.82464
G1 X91.652 Y85.536 E1.97451
G1 X92.137 Y85.536 E1.99895
G1 X93.625 Y88.114 E2.14882
G1 X94.110 Y88.114 E2.17326
G1 X92.623 Y85.536 E2.32313
G1 X93.108 Y85.536 E2.34756
G1 X94.596 Y88.114 E2.49743
G1 X95.081 Y88.114 E2.52186
G1 X93.593 Y85.536 E2.67173
G1 X94.078 Y85.536 E2.69616
G1 X95.566 Y88.114 E2.84603
G1 X96.051 Y88.114 E2.87046
G1 X94.563 Y85.536 E3.02032
G1 X95.048 Y85.536 E3.04476
G1 X96.536 Y88.114 E3.19463
G1 X97.022 Y88.114 E3.21906
G1 X95.534 Y85.536 E3.36893
G1 X96.019 Y85.536 E3.39336
G1 X97.507 Y88.114 E3.54323
G1 X97.992 Y88.114 E3.56766
G1 X96.504 Y85.536 E3.71753
G1 X96.989 Y85.536 E3.74196
G1 X98.477 Y88.114 E3.89183
