; generated by Slic3r 0.9.7 on 2012-12-15 at 16:51:19

; p9.02 I0.59 D 34.38

; layer_height = 0.3
; perimeters = 2
; top_solid_layers = 2
; bottom_solid_layers = 2
; fill_density = 0.2
; perimeter_speed = 50
; infill_speed = 70
; travel_speed = 170
; scale = 1
; nozzle_diameter = 0.4
; filament_diameter = 1.74
; extrusion_multiplier = .95
; perimeters extrusion width = 0.42mm
; infill extrusion width = 0.42mm
; first layer extrusion width = 0.42mm

G28 ; home all axes
G90 ; use absolute coordinates
G21 ; set units to millimeters
G92 E0
M82 ; use absolute distances for extrusion
G1 F1200.000 E-1.00000
G92 E0
G1 Z0.300 F10200.000
G1 X45.331 Y32.260
G1 F1200.000 E1.00000
G1 X45.681 Y31.820 F1200.000 E1.02823
G1 X46.061 Y31.400 E1.05666
G1 X46.471 Y31.020 E1.08473
G1 X46.911 Y30.670 E1.11295
G1 X61.941 Y19.850 E2.04272
G1 X62.421 Y19.560 E2.07088
G1 X62.931 Y19.310 E2.09939
G1 X63.461 Y19.100 E2.12801
G1 X63.741 Y19.010 E2.14278
G1 X64.011 Y18.930 E2.15692
G1 X64.571 Y18.820 E2.18557
G1 X65.131 Y18.750 E2.21390
G1 X65.701 Y18.720 E2.24256
G1 X117.951 Y18.720 E4.86576
G1 X118.521 Y18.750 E4.89442
G1 X119.361 Y18.870 E4.93702
G1 X119.641 Y18.930 E4.95139
G1 X120.191 Y19.100 E4.98029
G1 X120.721 Y19.310 E5.00892
G1 X121.231 Y19.560 E5.03743
G1 X121.951 Y20.010 E5.08006
G1 X136.741 Y30.670 E5.99536
G1 X137.391 Y31.210 E6.03778
G1 X137.971 Y31.810 E6.07968
G1 X138.471 Y32.490 E6.12205
G1 X138.761 Y32.970 E6.15021
G1 X139.001 Y33.470 E6.17805
G1 X139.211 Y34.000 E6.20667
G1 X139.371 Y34.530 E6.23447
G1 X139.481 Y35.080 E6.26263
G1 X139.551 Y35.640 E6.29096
G1 X139.581 Y36.200 E6.31911
G1 X139.921 Y141.000 E11.58060
G1 X139.921 Y147.770 E11.92049
G1 X139.871 Y148.610 E11.96274
G1 X139.831 Y148.890 E11.97694
G1 X139.641 Y149.710 E12.01920
G1 X139.351 Y150.500 E12.06144
G1 X138.961 Y151.260 E12.10433
G1 X138.661 Y151.730 E12.13232
G1 X138.131 Y152.380 E12.17443
G1 X137.521 Y152.970 E12.21704
G1 X137.081 Y153.320 E12.24526
G1 X122.291 Y163.980 E13.16056
G1 X121.571 Y164.430 E13.20319
G1 X121.061 Y164.680 E13.23170
G1 X120.531 Y164.890 E13.26032
G1 X119.981 Y165.060 E13.28923
G1 X119.421 Y165.170 E13.31788
G1 X118.861 Y165.240 E13.34621
G1 X118.291 Y165.270 E13.37487
G1 X66.591 Y165.270 E15.97045
G1 X66.021 Y165.240 E15.99911
G1 X65.181 Y165.120 E16.04171
G1 X64.901 Y165.060 E16.05609
G1 X64.351 Y164.890 E16.08499
G1 X63.821 Y164.680 E16.11361
G1 X63.311 Y164.430 E16.14213
G1 X62.591 Y163.980 E16.18475
G1 X47.801 Y153.320 E17.10005
G1 X47.371 Y152.980 E17.12757
G1 X46.971 Y152.610 E17.15493
G1 X46.421 Y151.990 E17.19654
G1 X46.101 Y151.550 E17.22385
G1 X45.821 Y151.080 E17.25132
G1 X45.461 Y150.340 E17.29263
G1 X45.281 Y149.830 E17.31978
G1 X45.131 Y149.300 E17.34744
G1 X45.031 Y148.760 E17.37501
G1 X44.961 Y147.940 E17.41633
G1 X44.071 Y112.140 E19.21421
G1 X44.071 Y36.220 E23.02576
G1 X44.121 Y35.380 E23.06801
G1 X44.161 Y35.100 E23.08221
G1 X44.351 Y34.280 E23.12447
G1 X44.641 Y33.490 E23.16672
G1 X44.761 Y33.230 E23.18109
G1 X45.031 Y32.730 E23.20962
G1 X45.297 Y32.313 E23.23446
G1 X45.331 Y32.260 E23.23761
G1 X45.621 Y32.580 F10200.000
G1 X45.951 Y32.140 F1200.000 E23.26523
G1 X46.321 Y31.730 E23.29295
G1 X46.721 Y31.350 E23.32065
G1 X47.161 Y31.010 E23.34857
G1 X62.181 Y20.190 E24.27793
G1 X62.931 Y19.770 E24.32109
G1 X63.191 Y19.650 E24.33546
G1 X63.731 Y19.450 E24.36437
G1 X64.561 Y19.240 E24.40736
G1 X65.131 Y19.170 E24.43619
G1 X65.701 Y19.140 E24.46484
G1 X117.951 Y19.140 E27.08804
G1 X118.521 Y19.170 E27.11670
G1 X119.091 Y19.240 E27.14553
G1 X119.921 Y19.450 E27.18852
G1 X120.461 Y19.650 E27.21743
G1 X121.221 Y20.040 E27.26031
G1 X121.701 Y20.350 E27.28900
G1 X136.491 Y31.010 E28.20430
G1 X136.931 Y31.350 E28.23221
G1 X137.331 Y31.730 E28.25991
G1 X137.861 Y32.350 E28.30086
G1 X138.181 Y32.810 E28.32900
G1 X138.451 Y33.290 E28.35664
G1 X138.681 Y33.790 E28.38428
G1 X138.871 Y34.300 E28.41160
G1 X139.011 Y34.830 E28.43912
G1 X139.061 Y35.100 E28.45291
G1 X139.131 Y35.650 E28.48074
G1 X139.161 Y36.200 E28.50840
G1 X139.501 Y141.000 E33.76988
G1 X139.501 Y147.770 E34.10977
G1 X139.481 Y148.320 E34.13740
G1 X139.451 Y148.600 E34.15154
G1 X139.291 Y149.410 E34.19299
G1 X139.121 Y149.940 E34.22094
G1 X138.911 Y150.450 E34.24863
G1 X138.521 Y151.180 E34.29018
G1 X138.211 Y151.630 E34.31761
G1 X137.861 Y152.060 E34.34545
G1 X137.271 Y152.640 E34.38698
G1 X136.831 Y152.980 E34.41490
G1 X121.811 Y163.800 E35.34426
G1 X121.061 Y164.220 E35.38742
G1 X120.801 Y164.340 E35.40179
G1 X120.261 Y164.540 E35.43070
G1 X119.431 Y164.750 E35.47369
G1 X118.861 Y164.820 E35.50252
G1 X118.291 Y164.850 E35.53118
G1 X66.591 Y164.850 E38.12676
G1 X66.021 Y164.820 E38.15542
G1 X65.451 Y164.750 E38.18425
G1 X64.621 Y164.540 E38.22723
G1 X64.081 Y164.340 E38.25614
G1 X63.321 Y163.950 E38.29903
G1 X62.841 Y163.640 E38.32772
G1 X47.831 Y152.820 E39.25667
G1 X47.421 Y152.470 E39.28374
G1 X47.231 Y152.280 E39.29723
G1 X46.701 Y151.670 E39.33780
G1 X46.391 Y151.230 E39.36482
G1 X46.121 Y150.770 E39.39160
G1 X45.891 Y150.280 E39.41877
G1 X45.701 Y149.780 E39.44563
G1 X45.621 Y149.520 E39.45928
G1 X45.451 Y148.730 E39.49985
G1 X45.381 Y147.930 E39.54017
G1 X44.491 Y112.130 E41.33806
G1 X44.491 Y36.220 E45.14910
G1 X44.511 Y35.670 E45.17673
G1 X44.541 Y35.390 E45.19087
G1 X44.701 Y34.580 E45.23232
G1 X44.871 Y34.050 E45.26027
G1 X45.081 Y33.540 E45.28796
G1 X45.331 Y33.050 E45.31557
G1 X45.586 Y32.633 E45.34015
G1 X45.621 Y32.580 E45.34330
G1 F1200.000 E44.34330
G92 E0
G1 X82.137 Y72.056 F10200.000
G1 F1200.000 E1.00000
G1 X84.349 Y71.551 F1200.000 E1.11391
G1 X86.123 Y72.965 E1.22783
G1 X86.123 Y75.235 E1.34175
G1 X84.349 Y76.649 E1.45567
G1 X82.137 Y76.144 E1.56959
G1 X81.152 Y74.100 E1.68351
G1 X82.110 Y72.112 E1.79427
G1 X82.137 Y72.056 E1.79743
G1 X82.427 Y72.419 F10200.000
G1 X84.246 Y72.004 F1200.000 E1.89109
G1 X85.704 Y73.167 E1.98475
G1 X85.704 Y75.033 E2.07842
G1 X84.246 Y76.196 E2.17208
G1 X82.427 Y75.781 E2.26574
G1 X81.617 Y74.100 E2.35941
G1 X82.400 Y72.476 E2.44992
G1 X82.427 Y72.419 E2.45307
G1 F1200.000 E1.45307
G92 E0
G1 X76.047 Y71.319 F10200.000
G1 F1200.000 E1.00000
G1 X76.047 Y76.481 F1200.000 E1.25915
G1 X63.487 Y76.481 E1.88973
G1 X63.487 Y71.319 E2.14887
G1 X64.949 Y71.319 E2.22228
G1 X66.263 Y71.455 E2.28860
G1 X68.044 Y71.566 E2.37817
G1 X69.767 Y71.602 E2.46471
G1 X71.491 Y71.566 E2.55125
G1 X73.271 Y71.455 E2.64082
G1 X74.585 Y71.319 E2.70714
G1 X75.985 Y71.319 E2.77739
G1 X76.047 Y71.319 E2.78054
G1 X75.628 Y71.738 F10200.000
G1 X75.628 Y76.062 F1200.000 E2.99763
G1 X63.906 Y76.062 E3.58615
G1 X63.906 Y71.738 E3.80324
G1 X64.928 Y71.738 E3.85454
G1 X66.229 Y71.872 E3.92020
G1 X68.026 Y71.985 E4.01063
G1 X69.767 Y72.021 E4.09804
G1 X71.508 Y71.985 E4.18546
G1 X73.306 Y71.872 E4.27589
G1 X74.607 Y71.738 E4.34155
G1 X75.566 Y71.738 E4.38969
G1 X75.628 Y71.738 E4.39285
G1 F1200.000 E3.39285
G92 E0
G1 X58.123 Y72.965 F10200.000
G1 F1200.000 E1.00000
G1 X58.123 Y75.235 F1200.000 E1.11392
G1 X56.349 Y76.649 E1.22784
G1 X54.137 Y76.144 E1.34175
G1 X53.152 Y74.100 E1.45567
G1 X54.137 Y72.056 E1.56959
G1 X56.349 Y71.551 E1.68351
G1 X58.074 Y72.926 E1.79427
G1 X58.123 Y72.965 E1.79743
G1 X57.704 Y73.167 F10200.000
G1 X57.704 Y75.033 F1200.000 E1.89109
G1 X56.246 Y76.196 E1.98476
G1 X54.427 Y75.781 E2.07842
G1 X53.617 Y74.100 E2.17208
G1 X54.427 Y72.419 E2.26575
G1 X56.246 Y72.004 E2.35941
G1 X57.655 Y73.128 E2.44992
G1 X57.704 Y73.167 E2.45307
G1 F1200.000 E1.45307
G92 E0
G1 X51.336 Y77.236 F10200.000
G1 F1200.000 E1.00000
G1 X51.336 Y70.964 F1200.000 E1.31486
G1 X56.936 Y67.731 E1.63952
G1 X60.398 Y67.731 E1.81332
G1 X60.398 Y65.963 E1.90209
G1 X65.880 Y60.481 E2.29130
G1 X73.654 Y60.481 E2.68162
G1 X79.136 Y65.963 E3.07083
G1 X79.136 Y67.731 E3.15960
G1 X82.598 Y67.731 E3.33340
G1 X88.199 Y70.964 E3.65806
G1 X88.199 Y77.236 E3.97292
G1 X82.598 Y80.469 E4.29758
G1 X79.136 Y80.469 E4.47138
G1 X79.136 Y82.237 E4.56015
G1 X73.654 Y87.719 E4.94937
G1 X65.880 Y87.719 E5.33968
G1 X60.398 Y82.237 E5.72890
G1 X60.398 Y80.469 E5.81766
G1 X56.936 Y80.469 E5.99146
G1 X51.390 Y77.267 E6.31297
G1 X51.336 Y77.236 E6.31613
G1 X50.917 Y77.478 F10200.000
G1 X50.917 Y70.722 F1200.000 E6.65527
G1 X56.824 Y67.312 E6.99770
G1 X59.979 Y67.312 E7.15611
G1 X59.979 Y65.789 E7.23256
G1 X65.707 Y60.062 E7.63920
G1 X73.828 Y60.062 E8.04693
G1 X79.555 Y65.789 E8.45357
G1 X79.555 Y67.312 E8.53002
G1 X82.710 Y67.312 E8.68842
G1 X88.617 Y70.722 E9.03086
G1 X88.617 Y77.478 E9.37000
G1 X82.710 Y80.888 E9.71244
G1 X79.555 Y80.888 E9.87085
G1 X79.555 Y82.411 E9.94730
G1 X73.828 Y88.138 E10.35393
G1 X65.707 Y88.138 E10.76167
G1 X59.979 Y82.411 E11.16831
G1 X59.979 Y80.888 E11.24475
G1 X56.824 Y80.888 E11.40316
G1 X50.971 Y77.509 E11.74244
G1 X50.917 Y77.478 E11.74560
G1 X51.849 Y77.157 F10200.000
G1 X51.660 Y76.831 F1680.000 E11.76463
G1 X51.660 Y75.989 E11.80710
G1 X52.578 Y77.578 E11.89970
G1 X53.307 Y77.999 E11.94216
G1 X51.660 Y75.147 E12.10831
G1 X51.660 Y74.305 E12.15077
G1 X54.036 Y78.420 E12.39047
G1 X54.765 Y78.841 E12.43293
G1 X51.660 Y73.463 E12.74618
G1 X51.660 Y72.622 E12.78864
G1 X53.655 Y76.076 E12.98984
G1 X53.819 Y76.359 F10200.000
G1 X55.494 Y79.262 F1680.000 E13.15890
G1 X56.223 Y79.683 E13.20137
G1 X54.378 Y76.487 E13.38750
G1 X54.938 Y76.615 E13.41646
G1 X56.952 Y80.104 E13.61967
G1 X57.502 Y80.214 E13.64794
G1 X55.498 Y76.743 E13.85011
G1 X56.058 Y76.871 E13.87908
G1 X57.988 Y80.214 E14.07381
G1 X58.474 Y80.214 E14.09833
G1 X56.512 Y76.816 E14.29622
G1 X56.845 Y76.551 E14.31769
G1 X58.960 Y80.214 E14.53103
G1 X59.446 Y80.214 E14.55555
G1 X57.178 Y76.286 E14.78436
G1 X57.511 Y76.020 E14.80583
G1 X59.932 Y80.214 E15.05009
G1 X60.418 Y80.214 E15.07461
G1 X57.843 Y75.755 E15.33433
G1 X58.176 Y75.489 E15.35581
G1 X60.904 Y80.214 E15.63099
G1 X60.723 Y79.900 F10200.000
G1 X63.644 Y84.960 F1680.000 E15.92574
G1 X62.494 Y83.810 E16.00777
G1 X60.723 Y80.742 E16.18650
G1 X60.723 Y81.583 E16.22897
G1 X61.344 Y82.660 E16.29168
G1 X64.794 Y86.110 F10200.000
G1 X58.448 Y75.118 F1680.000 E16.93198
G1 X58.448 Y74.276 E16.97444
G1 X65.944 Y87.260 E17.73075
G1 X66.548 Y87.464 E17.76289
G1 X58.448 Y73.434 E18.58011
G1 X57.744 Y72.216 F10200.000
G1 X55.715 Y68.702 F1680.000 E18.78481
G1 X55.351 Y68.912 E18.80604
G1 X56.844 Y71.498 E18.95664
G1 X56.259 Y71.327 F10200.000
G1 X54.986 Y69.123 F1680.000 E19.08502
G1 X54.622 Y69.333 E19.10625
G1 X55.829 Y71.425 E19.22808
G1 X55.400 Y71.523 E19.25030
G1 X54.257 Y69.544 E19.36558
G1 X53.893 Y69.754 E19.38681
G1 X54.971 Y71.621 E19.49554
G1 X54.541 Y71.719 E19.51776
G1 X53.528 Y69.964 E19.61994
G1 X53.164 Y70.175 E19.64117
G1 X54.112 Y71.817 E19.73680
G1 X53.808 Y72.132 F10200.000
G1 X52.799 Y70.385 F1680.000 E19.83857
G1 X52.435 Y70.596 E19.85980
G1 X53.587 Y72.591 E19.97605
G1 X53.366 Y73.050 E20.00175
G1 X52.070 Y70.806 E20.13247
G1 X51.706 Y71.017 E20.15370
G1 X53.145 Y73.509 E20.29890
G1 X52.924 Y73.968 E20.32460
G1 X51.660 Y71.780 E20.45208
G1 X56.080 Y68.491 F10200.000
G1 X67.034 Y87.464 F1680.000 E21.55722
G1 X67.520 Y87.464 E21.58174
G1 X56.444 Y68.281 E22.69913
G1 X56.809 Y68.070 E22.72037
G1 X68.006 Y87.464 E23.85002
G1 X68.492 Y87.464 E23.87454
G1 X57.247 Y67.986 E25.00909
G1 X57.733 Y67.986 E25.03360
G1 X68.978 Y87.464 E26.16815
G1 X69.464 Y87.464 E26.19267
G1 X63.270 Y76.736 E26.81753
G1 X63.163 Y76.550 F10200.000
G1 X58.219 Y67.986 F1680.000 E27.31636
G1 X58.705 Y67.986 E27.34088
G1 X63.163 Y75.708 E27.79067
G1 X63.163 Y74.866 E27.83314
G1 X59.191 Y67.986 E28.23389
G1 X59.676 Y67.986 E28.25841
G1 X63.163 Y74.025 E28.61013
G1 X63.163 Y73.183 E28.65260
G1 X60.162 Y67.986 E28.95529
G1 X60.649 Y67.986 E28.97981
G1 X63.163 Y72.341 E29.23346
G1 X63.163 Y71.499 E29.27593
G1 X60.723 Y67.273 E29.52210
G1 X60.723 Y66.431 E29.56456
G1 X63.397 Y71.064 E29.83439
G1 X63.883 Y71.064 E29.85891
G1 X60.863 Y65.833 E30.16362
G1 X61.171 Y65.524 E30.18560
G1 X64.369 Y71.064 E30.50825
G1 X64.855 Y71.064 E30.53277
G1 X61.479 Y65.216 E30.87337
G1 X61.787 Y64.908 E30.89535
G1 X65.359 Y71.094 E31.25566
G1 X65.875 Y71.147 E31.28187
G1 X62.096 Y64.600 E31.66324
G1 X62.404 Y64.292 E31.68522
G1 X66.392 Y71.201 E32.08764
G1 X66.896 Y71.232 E32.11313
G1 X62.712 Y63.984 E32.53534
G1 X63.020 Y63.676 E32.55732
G1 X67.401 Y71.264 E32.99931
G1 X67.905 Y71.295 E33.02480
G1 X63.328 Y63.368 E33.48657
G1 X63.636 Y63.060 E33.50856
G1 X68.403 Y71.316 E33.98950
G1 X68.895 Y71.326 E34.01432
G1 X63.944 Y62.751 E34.51381
G1 X64.252 Y62.443 E34.53579
G1 X69.387 Y71.337 E35.05383
G1 X69.878 Y71.346 E35.07863
G1 X64.560 Y62.135 E35.61518
G1 X64.869 Y61.827 E35.63716
G1 X70.359 Y71.336 E36.19107
G1 X70.839 Y71.326 E36.21530
G1 X65.177 Y61.519 E36.78657
G1 X65.485 Y61.211 E36.80855
G1 X71.319 Y71.316 E37.39718
G1 X71.794 Y71.297 E37.42116
G1 X65.793 Y60.903 E38.02661
G1 X66.183 Y60.736 E38.04800
G1 X72.263 Y71.267 E38.66143
G1 X72.732 Y71.238 E38.68514
G1 X66.669 Y60.736 E39.29686
G1 X67.155 Y60.736 E39.32137
G1 X73.201 Y71.209 E39.93138
G1 X73.663 Y71.166 E39.95477
G1 X67.641 Y60.736 E40.56231
G1 X68.127 Y60.736 E40.58683
G1 X74.121 Y71.119 E41.19161
G1 X74.580 Y71.072 E41.21487
G1 X68.613 Y60.736 E41.81690
G1 X69.099 Y60.736 E41.84141
G1 X75.061 Y71.064 E42.44297
G1 X75.547 Y71.064 E42.46749
G1 X69.585 Y60.736 E43.06905
G1 X70.071 Y60.736 E43.09356
G1 X76.033 Y71.064 E43.69513
G1 X76.372 Y70.808 E43.71652
G1 X81.802 Y80.214 E44.26438
G1 X81.316 Y80.214 E44.28890
G1 X76.372 Y71.650 E44.78773
G1 X76.519 Y71.064 E44.81824
G1 X70.557 Y60.736 E45.41980
G1 X71.043 Y60.736 E45.44431
G1 X82.288 Y80.214 E46.57886
G1 X82.726 Y80.130 E46.60134
G1 X71.529 Y60.736 E47.73100
G1 X72.015 Y60.736 E47.75552
G1 X83.090 Y79.919 E48.87292
G1 X83.455 Y79.709 E48.89416
G1 X72.501 Y60.736 E49.99930
G1 X72.987 Y60.736 E50.02382
G1 X80.789 Y74.249 E50.81094
G1 X81.010 Y73.790 E50.83664
G1 X73.591 Y60.940 E51.58516
G1 X74.741 Y62.090 E51.66720
G1 X81.231 Y73.331 E52.32200
G1 X81.452 Y72.872 E52.34770
G1 X78.631 Y67.986 E52.63231
G1 X78.812 Y68.300 F10200.000
G1 X75.890 Y63.240 F1680.000 E52.92705
G1 X77.040 Y64.390 E53.00909
G1 X78.812 Y67.458 E53.18782
G1 X79.117 Y67.986 F10200.000
G1 X81.673 Y72.413 F1680.000 E53.44570
G1 X81.894 Y71.955 E53.47139
G1 X79.603 Y67.986 E53.70254
G1 X80.089 Y67.986 E53.72705
G1 X82.278 Y71.779 E53.94795
G1 X82.708 Y71.681 E53.97017
G1 X80.575 Y67.986 E54.18536
G1 X81.061 Y67.986 E54.20988
G1 X83.137 Y71.583 E54.41936
G1 X83.566 Y71.485 E54.44157
G1 X81.547 Y67.986 E54.64534
G1 X82.033 Y67.986 E54.66985
G1 X83.996 Y71.387 E54.86792
G1 X84.425 Y71.289 E54.89014
G1 X82.582 Y68.096 E55.07608
G1 X83.311 Y68.517 E55.11854
G1 X85.193 Y71.776 E55.30836
G1 X86.093 Y72.494 E55.36647
G1 X84.040 Y68.938 E55.57360
G1 X84.769 Y69.359 E55.61606
G1 X87.874 Y74.737 E55.92930
G1 X87.874 Y75.578 E55.97177
G1 X86.448 Y73.108 E56.11567
G1 X86.448 Y73.950 E56.15814
G1 X87.874 Y76.420 E56.30205
G1 X87.829 Y77.183 E56.34062
G1 X86.448 Y74.791 E56.47995
G1 X86.305 Y75.387 F10200.000
G1 X87.464 Y77.394 F1680.000 E56.59687
G1 X87.100 Y77.604 E56.61810
G1 X85.972 Y75.652 E56.73183
G1 X85.640 Y75.917 E56.75330
G1 X86.735 Y77.815 E56.86382
G1 X86.371 Y78.025 E56.88506
G1 X85.307 Y76.183 E56.99238
G1 X84.974 Y76.448 E57.01385
G1 X86.006 Y78.236 E57.11798
G1 X85.642 Y78.446 E57.13921
G1 X84.641 Y76.713 E57.24014
G1 X84.275 Y76.920 F10200.000
G1 X85.277 Y78.657 F1680.000 E57.34129
G1 X84.913 Y78.867 E57.36252
G1 X83.715 Y76.792 E57.48337
G1 X83.155 Y76.665 E57.51234
G1 X84.548 Y79.077 E57.65289
G1 X84.184 Y79.288 E57.67412
G1 X82.595 Y76.537 E57.83437
G1 X82.036 Y76.409 E57.86334
G1 X83.819 Y79.498 E58.04329
G1 X80.830 Y80.214 F10200.000
