; generated by Slic3r 0.9.6-dev on 2012-11-17 at 09:57:10

; layer_height = 0.33
; perimeters = 3
; top_solid_layers = 3
; bottom_solid_layers = 3
; fill_density = 0.20
; perimeter_speed = 50
; infill_speed = 75
; travel_speed = 170
; scale = 1
; nozzle_diameter = 0.35
; filament_diameter = 1.74
; extrusion_multiplier = 1
; perimeters extrusion width = 0.37mm
; infill extrusion width = 0.37mm
; first layer extrusion width = 0.37mm

G28 ; home all axes
G90 ; use absolute coordinates
G21 ; set units to millimeters
G92 E0
M82 ; use absolute distances for extrusion
G1 F1200.000 E-1.00000
G92 E0
G1 Z0.330 F10200.000
G1 X29.927 Y53.487
G1 F1200.000 E1.00000
G1 X30.257 Y53.407 F900.000 E1.01714
G1 X30.597 Y53.337 E1.03466
G1 X30.927 Y53.287 E1.05151
G1 X31.267 Y53.257 E1.06874
G1 X63.287 Y51.167 E2.68856
G1 X63.677 Y51.157 E2.70826
G1 X122.897 Y50.737 E5.69777
G1 X123.837 Y50.797 E5.74532
G1 X125.787 Y51.057 E5.84463
G1 X126.057 Y51.097 E5.85841
G1 X126.327 Y51.147 E5.87227
G1 X126.597 Y51.217 E5.88635
G1 X126.857 Y51.287 E5.89994
G1 X127.117 Y51.377 E5.91383
G1 X128.977 Y52.027 E6.01329
G1 X129.217 Y52.107 E6.02606
G1 X129.677 Y52.307 E6.05138
G1 X130.117 Y52.547 E6.07668
G1 X157.327 Y68.247 E7.66250
G1 X157.567 Y68.387 E7.67653
G1 X157.787 Y68.537 E7.68997
G1 X158.227 Y68.857 E7.71743
G1 X158.627 Y69.217 E7.74460
G1 X159.007 Y69.617 E7.77245
G1 X159.177 Y69.817 E7.78570
G1 X159.347 Y70.037 E7.79974
G1 X159.507 Y70.257 E7.81347
G1 X159.657 Y70.477 E7.82691
G1 X159.797 Y70.707 E7.84050
G1 X159.927 Y70.947 E7.85428
G1 X160.047 Y71.187 E7.86782
G1 X160.157 Y71.437 E7.88161
G1 X160.257 Y71.687 E7.89520
G1 X160.437 Y72.207 E7.92298
G1 X160.507 Y72.467 E7.93657
G1 X160.567 Y72.727 E7.95004
G1 X160.647 Y73.267 E7.97760
G1 X160.677 Y73.537 E7.99131
G1 X160.697 Y73.807 E8.00498
G1 X160.697 Y87.407 E8.69151
G1 X160.687 Y87.717 E8.70717
G1 X160.667 Y88.017 E8.72235
G1 X160.637 Y88.327 E8.73807
G1 X160.587 Y88.627 E8.75342
G1 X160.527 Y88.927 E8.76887
G1 X160.447 Y89.227 E8.78454
G1 X160.357 Y89.517 E8.79987
G1 X153.817 Y109.287 E9.85105
G1 X153.737 Y109.527 E9.86382
G1 X153.647 Y109.757 E9.87629
G1 X153.547 Y109.977 E9.88849
G1 X153.327 Y110.417 E9.91332
G1 X142.837 Y129.497 E11.01246
G1 X142.697 Y129.737 E11.02648
G1 X142.397 Y130.197 E11.05421
G1 X142.227 Y130.417 E11.06824
G1 X142.057 Y130.627 E11.08188
G1 X141.877 Y130.837 E11.09584
G1 X141.677 Y131.037 E11.11012
G1 X141.487 Y131.217 E11.12333
G1 X141.277 Y131.407 E11.13763
G1 X141.057 Y131.577 E11.15166
G1 X140.617 Y131.897 E11.17913
G1 X140.137 Y132.177 E11.20718
G1 X139.897 Y132.307 E11.22096
G1 X139.397 Y132.527 E11.24853
G1 X138.877 Y132.707 E11.27631
G1 X138.607 Y132.777 E11.29039
G1 X138.337 Y132.837 E11.30435
G1 X137.797 Y132.937 E11.33208
G1 X137.527 Y132.967 E11.34579
G1 X136.977 Y132.987 E11.37357
G1 X91.527 Y133.257 E13.66794
G1 X91.017 Y133.237 E13.69371
G1 X50.107 Y130.387 E15.76386
G1 X49.787 Y130.357 E15.78009
G1 X49.457 Y130.317 E15.79687
G1 X49.137 Y130.257 E15.81330
G1 X48.817 Y130.177 E15.82995
G1 X46.527 Y129.437 E15.95144
G1 X46.237 Y129.337 E15.96692
G1 X45.957 Y129.227 E15.98211
G1 X45.677 Y129.107 E15.99749
G1 X45.407 Y128.967 E16.01284
G1 X45.147 Y128.817 E16.02799
G1 X44.887 Y128.657 E16.04340
G1 X44.637 Y128.477 E16.05896
G1 X42.947 Y127.247 E16.16447
G1 X42.707 Y127.067 E16.17961
G1 X42.467 Y126.867 E16.19538
G1 X42.247 Y126.667 E16.21039
G1 X42.027 Y126.447 E16.22610
G1 X41.827 Y126.227 E16.24111
G1 X41.447 Y125.747 E16.27201
G1 X40.227 Y124.057 E16.37723
G1 X40.067 Y123.827 E16.39137
G1 X39.917 Y123.587 E16.40566
G1 X39.777 Y123.337 E16.42013
G1 X39.647 Y123.087 E16.43435
G1 X39.527 Y122.827 E16.44881
G1 X28.667 Y98.167 E17.80902
G1 X28.417 Y97.517 E17.84417
G1 X27.777 Y95.527 E17.94970
G1 X27.757 Y95.457 E17.95337
G1 X19.737 Y69.597 E19.32013
G1 X19.647 Y69.277 E19.33691
G1 X19.567 Y68.947 E19.35405
G1 X19.507 Y68.617 E19.37098
G1 X19.467 Y68.277 E19.38826
G1 X19.447 Y67.947 E19.40495
G1 X19.437 Y67.607 E19.42212
G1 X19.437 Y65.517 E19.52763
G1 X19.447 Y65.217 E19.54278
G1 X19.467 Y64.917 E19.55796
G1 X19.497 Y64.617 E19.57318
G1 X19.547 Y64.317 E19.58853
G1 X19.607 Y64.027 E19.60348
G1 X19.677 Y63.737 E19.61854
G1 X19.767 Y63.447 E19.63387
G1 X20.407 Y61.467 E19.73891
G1 X20.507 Y61.177 E19.75440
G1 X20.617 Y60.897 E19.76958
G1 X20.737 Y60.617 E19.78496
G1 X20.877 Y60.347 E19.80031
G1 X21.027 Y60.087 E19.81547
G1 X21.187 Y59.827 E19.83088
G1 X21.367 Y59.577 E19.84643
G1 X22.597 Y57.887 E19.95194
G1 X22.777 Y57.647 E19.96709
G1 X22.977 Y57.407 E19.98286
G1 X23.177 Y57.187 E19.99787
G1 X23.397 Y56.967 E20.01357
G1 X23.617 Y56.767 E20.02858
G1 X24.097 Y56.387 E20.05948
G1 X25.787 Y55.167 E20.16470
G1 X26.077 Y54.977 E20.18220
G1 X26.367 Y54.797 E20.19943
G1 X26.667 Y54.627 E20.21684
G1 X26.987 Y54.477 E20.23468
G1 X27.307 Y54.347 E20.25212
G1 X27.627 Y54.227 E20.26937
G1 X29.607 Y53.577 E20.37457
G1 X29.927 Y53.487 E20.39135
G1 X30.027 Y53.837 F10200.000
G1 X30.337 Y53.757 F900.000 E20.40751
G1 X30.657 Y53.697 E20.42395
G1 X30.967 Y53.657 E20.43972
G1 X31.287 Y53.627 E20.45595
G1 X32.507 Y53.547 E20.51767
G1 X32.517 Y53.547 E20.51817
G1 X63.317 Y51.537 E22.07627
G1 X63.677 Y51.517 E22.09447
G1 X122.897 Y51.097 E25.08399
G1 X123.787 Y51.157 E25.12902
G1 X125.737 Y51.417 E25.22833
G1 X125.997 Y51.457 E25.24161
G1 X126.247 Y51.507 E25.25448
G1 X126.497 Y51.567 E25.26746
G1 X126.747 Y51.637 E25.28056
G1 X126.997 Y51.717 E25.29381
G1 X128.857 Y52.367 E25.39327
G1 X129.077 Y52.447 E25.40509
G1 X129.297 Y52.537 E25.41709
G1 X129.517 Y52.637 E25.42929
G1 X129.727 Y52.747 E25.44126
G1 X129.937 Y52.867 E25.45347
G1 X157.147 Y68.567 E27.03928
G1 X157.377 Y68.697 E27.05262
G1 X157.597 Y68.847 E27.06606
G1 X157.817 Y69.007 E27.07979
G1 X158.027 Y69.167 E27.09312
G1 X158.227 Y69.347 E27.10670
G1 X158.417 Y69.527 E27.11991
G1 X158.607 Y69.717 E27.13348
G1 X158.787 Y69.917 E27.14706
G1 X158.957 Y70.127 E27.16070
G1 X159.117 Y70.337 E27.17403
G1 X159.267 Y70.557 E27.18747
G1 X159.407 Y70.777 E27.20063
G1 X159.547 Y71.007 E27.21423
G1 X159.787 Y71.487 E27.24132
G1 X159.887 Y71.737 E27.25491
G1 X159.977 Y71.987 E27.26832
G1 X160.057 Y72.237 E27.28157
G1 X160.137 Y72.497 E27.29530
G1 X160.197 Y72.757 E27.30877
G1 X160.247 Y73.017 E27.32214
G1 X160.287 Y73.277 E27.33542
G1 X160.307 Y73.547 E27.34909
G1 X160.327 Y73.807 E27.36225
G1 X160.337 Y74.077 E27.37589
G1 X160.337 Y87.407 E28.04879
G1 X160.327 Y87.697 E28.06344
G1 X160.307 Y87.987 E28.07811
G1 X160.277 Y88.277 E28.09283
G1 X160.227 Y88.567 E28.10769
G1 X160.167 Y88.847 E28.12214
G1 X160.097 Y89.127 E28.13671
G1 X160.007 Y89.407 E28.15156
G1 X153.467 Y109.177 E29.20274
G1 X153.397 Y109.397 E29.21440
G1 X153.307 Y109.617 E29.22639
G1 X153.217 Y109.827 E29.23793
G1 X153.117 Y110.037 E29.24967
G1 X153.007 Y110.247 E29.26164
G1 X142.517 Y129.327 E30.36077
G1 X142.237 Y129.787 E30.38795
G1 X141.917 Y130.227 E30.41542
G1 X141.747 Y130.427 E30.42867
G1 X141.367 Y130.827 E30.45652
G1 X141.177 Y131.007 E30.46973
G1 X140.967 Y131.187 E30.48370
G1 X140.757 Y131.347 E30.49702
G1 X140.537 Y131.507 E30.51075
G1 X140.307 Y131.657 E30.52462
G1 X140.077 Y131.797 E30.53821
G1 X139.837 Y131.927 E30.55199
G1 X139.597 Y132.037 E30.56531
G1 X139.347 Y132.147 E30.57910
G1 X139.097 Y132.247 E30.59269
G1 X138.577 Y132.407 E30.62016
G1 X138.317 Y132.467 E30.63363
G1 X138.047 Y132.527 E30.64759
G1 X137.787 Y132.567 E30.66087
G1 X137.517 Y132.597 E30.67458
G1 X137.247 Y132.617 E30.68825
G1 X136.977 Y132.627 E30.70189
G1 X91.527 Y132.897 E32.99626
G1 X91.047 Y132.877 E33.02051
G1 X50.137 Y130.027 E35.09066
G1 X49.827 Y129.997 E35.10639
G1 X49.517 Y129.957 E35.12217
G1 X49.217 Y129.897 E35.13761
G1 X48.917 Y129.827 E35.15316
G1 X48.617 Y129.737 E35.16897
G1 X46.637 Y129.097 E35.27401
G1 X46.327 Y128.987 E35.29062
G1 X46.017 Y128.857 E35.30759
G1 X45.707 Y128.707 E35.32497
G1 X45.417 Y128.547 E35.34169
G1 X45.127 Y128.377 E35.35866
G1 X44.847 Y128.187 E35.37574
G1 X43.157 Y126.957 E35.48126
G1 X42.897 Y126.747 E35.49813
G1 X42.637 Y126.527 E35.51532
G1 X42.397 Y126.297 E35.53210
G1 X42.167 Y126.057 E35.54888
G1 X41.947 Y125.797 E35.56608
G1 X41.747 Y125.537 E35.58263
G1 X40.527 Y123.847 E35.68785
G1 X40.377 Y123.627 E35.70129
G1 X40.227 Y123.397 E35.71516
G1 X40.097 Y123.167 E35.72849
G1 X39.857 Y122.687 E35.75558
G1 X28.997 Y98.027 E37.11580
G1 X28.767 Y97.407 E37.14918
G1 X28.127 Y95.417 E37.25470
G1 X28.107 Y95.357 E37.25789
G1 X20.087 Y69.497 E38.62465
G1 X19.997 Y69.187 E38.64095
G1 X19.927 Y68.877 E38.65699
G1 X19.877 Y68.557 E38.67334
G1 X19.837 Y68.247 E38.68912
G1 X19.807 Y67.927 E38.70534
G1 X19.797 Y67.607 E38.72150
G1 X19.797 Y65.517 E38.82701
G1 X19.807 Y65.187 E38.84367
G1 X19.837 Y64.857 E38.86040
G1 X19.877 Y64.527 E38.87718
G1 X19.937 Y64.197 E38.89411
G1 X20.017 Y63.877 E38.91076
G1 X20.107 Y63.557 E38.92754
G1 X20.747 Y61.577 E39.03259
G1 X20.857 Y61.267 E39.04919
G1 X20.987 Y60.957 E39.06616
G1 X21.137 Y60.647 E39.08355
G1 X21.297 Y60.357 E39.10027
G1 X21.467 Y60.067 E39.11723
G1 X21.657 Y59.787 E39.13432
G1 X22.887 Y58.097 E39.23983
G1 X23.097 Y57.837 E39.25670
G1 X23.317 Y57.577 E39.27390
G1 X23.547 Y57.337 E39.29068
G1 X23.787 Y57.107 E39.30746
G1 X24.047 Y56.887 E39.32465
G1 X24.307 Y56.687 E39.34121
G1 X25.997 Y55.467 E39.44643
G1 X26.267 Y55.277 E39.46309
G1 X26.547 Y55.107 E39.47963
G1 X26.837 Y54.957 E39.49611
G1 X27.127 Y54.817 E39.51237
G1 X27.437 Y54.687 E39.52933
G1 X27.737 Y54.577 E39.54546
G1 X29.717 Y53.927 E39.65066
G1 X30.027 Y53.837 E39.66696
G1 F1200.000 E38.66696
G92 E0
G1 X119.239 Y114.323 F10200.000
G1 F1200.000 E1.00000
G1 X121.001 Y113.750 F900.000 E1.09356
G1 X122.843 Y113.750 E1.18652
G1 X122.843 Y113.665 E1.19078
G1 X136.213 Y113.665 E1.86571
G1 X136.213 Y116.185 E1.99292
G1 X126.106 Y116.185 E2.50311
G1 X125.450 Y115.403 E2.55466
G1 X123.802 Y114.452 E2.65074
G1 X121.928 Y114.121 E2.74678
G1 X120.054 Y114.452 E2.84284
G1 X118.406 Y115.403 E2.93889
G1 X117.183 Y116.861 E3.03496
G1 X116.532 Y118.649 E3.13101
G1 X116.532 Y120.552 E3.22707
G1 X117.183 Y122.340 E3.32312
G1 X118.406 Y123.798 E3.41919
G1 X120.054 Y124.749 E3.51523
G1 X121.928 Y125.080 E3.61130
G1 X123.802 Y124.749 E3.70736
G1 X125.450 Y123.798 E3.80341
G1 X126.106 Y123.015 E3.85496
G1 X136.213 Y123.015 E4.36516
G1 X136.213 Y125.535 E4.49237
G1 X122.843 Y125.535 E5.16730
G1 X122.843 Y125.451 E5.17156
G1 X121.001 Y125.451 E5.26452
G1 X119.239 Y124.878 E5.35808
G1 X117.739 Y123.789 E5.45163
G1 X116.650 Y122.290 E5.54519
G1 X116.077 Y120.527 E5.63875
G1 X116.077 Y118.674 E5.73230
G1 X116.650 Y116.911 E5.82586
G1 X117.739 Y115.412 E5.91941
G1 X119.239 Y114.323 E6.01297
G1 X119.071 Y113.993 F10200.000
G1 X120.943 Y113.384 F900.000 E6.11237
G1 X122.477 Y113.384 E6.18980
G1 X122.477 Y113.300 E6.19406
G1 X136.579 Y113.300 E6.90590
G1 X136.579 Y116.551 E7.07003
G1 X125.936 Y116.551 E7.60729
G1 X125.211 Y115.688 E7.66419
G1 X123.675 Y114.801 E7.75375
G1 X121.928 Y114.493 E7.84329
G1 X120.181 Y114.801 E7.93284
G1 X118.645 Y115.688 E8.02238
G1 X117.504 Y117.047 E8.11193
G1 X116.898 Y118.714 E8.20148
G1 X116.898 Y120.487 E8.29103
G1 X117.504 Y122.154 E8.38057
G1 X118.645 Y123.513 E8.47013
G1 X120.181 Y124.400 E8.55967
G1 X121.928 Y124.708 E8.64922
G1 X123.675 Y124.400 E8.73877
G1 X125.211 Y123.513 E8.82832
G1 X125.936 Y122.650 E8.88522
G1 X136.579 Y122.650 E9.42248
G1 X136.579 Y125.901 E9.58661
G1 X122.477 Y125.901 E10.29845
G1 X122.477 Y125.817 E10.30270
G1 X120.943 Y125.817 E10.38014
G1 X119.071 Y125.208 E10.47954
G1 X117.478 Y124.051 E10.57894
G1 X116.320 Y122.458 E10.67834
G1 X115.712 Y120.585 E10.77775
G1 X115.712 Y118.616 E10.87715
G1 X116.320 Y116.743 E10.97655
G1 X117.478 Y115.150 E11.07595
G1 X119.071 Y113.993 E11.17536
G1 X118.903 Y113.663 F10200.000
G1 X120.886 Y113.019 F900.000 E11.28060
G1 X122.112 Y113.019 E11.34250
G1 X122.112 Y112.934 E11.34676
G1 X136.944 Y112.934 E12.09552
G1 X136.944 Y116.917 E12.29655
G1 X125.765 Y116.917 E12.86088
G1 X124.973 Y115.972 E12.92313
G1 X123.548 Y115.149 E13.00617
G1 X121.928 Y114.864 E13.08921
G1 X120.308 Y115.150 E13.17225
G1 X118.883 Y115.972 E13.25529
G1 X117.826 Y117.232 E13.33833
G1 X117.263 Y118.778 E13.42137
G1 X117.263 Y120.423 E13.50441
G1 X117.826 Y121.969 E13.58745
G1 X118.883 Y123.229 E13.67049
G1 X120.308 Y124.051 E13.75353
G1 X121.928 Y124.337 E13.83657
G1 X123.548 Y124.051 E13.91961
G1 X124.973 Y123.229 E14.00265
G1 X125.765 Y122.284 E14.06490
G1 X136.944 Y122.284 E14.62922
G1 X136.944 Y126.267 E14.83026
G1 X122.112 Y126.267 E15.57902
G1 X122.112 Y126.182 E15.58327
G1 X120.886 Y126.182 E15.64517
G1 X118.903 Y125.538 E15.75042
G1 X117.216 Y124.313 E15.85567
G1 X115.990 Y122.626 E15.96092
G1 X115.346 Y120.643 E16.06617
G1 X115.346 Y118.558 E16.17142
G1 X115.990 Y116.575 E16.27667
G1 X117.216 Y114.888 E16.38192
G1 X118.903 Y113.663 E16.48716
G1 X119.266 Y113.625 F10200.000
G1 F1200.000 E15.48716
G92 E0
G1 X124.289 Y125.312 F10200.000
G1 F1200.000 E1.00000
G1 X124.124 Y125.027 F1350.000 E1.01665
G1 X124.340 Y124.670 E1.03772
G1 X124.711 Y125.312 E1.07517
G1 X125.133 Y125.312 E1.09651
G1 X124.657 Y124.487 E1.14463
G1 X124.974 Y124.305 E1.16311
G1 X125.556 Y125.312 E1.22190
G1 X125.978 Y125.312 E1.24324
G1 X125.291 Y124.122 E1.31270
G1 X125.607 Y123.938 E1.33118
G1 X126.401 Y125.312 E1.41134
G1 X126.823 Y125.312 E1.43267
G1 X125.858 Y123.640 E1.53023
G1 X126.108 Y123.342 E1.54989
G1 X127.246 Y125.312 E1.66484
G1 X127.668 Y125.312 E1.68618
G1 X126.471 Y123.238 E1.80715
G1 X126.893 Y123.239 E1.82848
G1 X128.091 Y125.312 E1.94944
G1 X128.513 Y125.312 E1.97079
G1 X127.316 Y123.238 E2.09175
G1 X127.738 Y123.238 E2.11309
G1 X128.936 Y125.312 E2.23406
G1 X129.358 Y125.312 E2.25539
G1 X128.161 Y123.239 E2.37635
G1 X128.583 Y123.238 E2.39769
G1 X129.781 Y125.312 E2.51866
G1 X130.203 Y125.312 E2.53999
G1 X129.006 Y123.239 E2.66095
G1 X129.428 Y123.239 E2.68229
G1 X130.626 Y125.312 E2.80325
G1 X131.048 Y125.312 E2.82459
G1 X129.851 Y123.238 E2.94556
G1 X130.273 Y123.239 E2.96690
G1 X131.471 Y125.312 E3.08786
G1 X131.893 Y125.312 E3.10919
G1 X130.696 Y123.239 E3.23015
G1 X131.118 Y123.238 E3.25149
G1 X132.315 Y125.312 E3.37246
G1 X132.738 Y125.312 E3.39380
G1 X131.541 Y123.239 E3.51476
G1 X131.963 Y123.239 E3.53609
G1 X133.160 Y125.312 E3.65705
G1 X133.583 Y125.312 E3.67840
G1 X132.385 Y123.238 E3.79936
G1 X132.808 Y123.239 E3.82070
G1 X134.005 Y125.312 E3.94166
G1 X134.428 Y125.312 E3.96300
G1 X133.230 Y123.239 E4.08396
G1 X133.653 Y123.238 E4.10530
G1 X134.850 Y125.312 E4.22626
G1 X135.273 Y125.312 E4.24760
G1 X134.075 Y123.239 E4.36856
G1 X134.498 Y123.239 E4.38990
G1 X135.695 Y125.312 E4.51086
G1 X135.930 Y124.987 E4.53112
G1 X134.920 Y123.238 E4.63311
G1 X135.343 Y123.239 E4.65445
G1 X135.930 Y124.255 E4.71376
G1 X135.930 Y123.524 E4.75072
G1 X135.765 Y123.239 E4.76736
G1 F1200.000 E3.76736
G92 E0
G1 X123.615 Y125.311 F10200.000
G1 F1200.000 E1.00000
G1 X123.450 Y125.026 F1350.000 E1.01662
G1 X123.006 Y125.255 F10200.000
G1 X122.915 Y125.098 F1350.000 E1.02215
G1 F1200.000 E0.02215
G92 E0
G1 X124.235 Y114.375 F10200.000
G1 F1200.000 E1.00000
G1 X124.070 Y114.089 F1350.000 E1.01716
G1 X124.392 Y113.888 E1.03691
G1 X124.891 Y114.753 E1.08893
G1 X125.547 Y115.132 E1.12840
G1 X124.829 Y113.889 E1.20322
G1 X125.266 Y113.888 E1.22601
G1 X126.464 Y115.962 E1.35077
G1 X126.901 Y115.962 E1.37355
G1 X125.704 Y113.889 E1.49831
G1 X126.141 Y113.888 E1.52110
G1 X127.339 Y115.962 E1.64585
G1 X127.776 Y115.962 E1.66864
G1 X126.579 Y113.888 E1.79340
G1 X127.016 Y113.889 E1.81618
G1 X128.214 Y115.962 E1.94094
G1 X128.651 Y115.962 E1.96373
G1 X127.454 Y113.888 E2.08848
