; generated by Slic3r 0.9.5 on 2012-11-27 at 19:13:46

; layer_height = 0.3
; perimeters = 3
; top_solid_layers = 3
; bottom_solid_layers = 3
; fill_density = 0.26
; perimeter_speed = 50
; infill_speed = 85
; travel_speed = 180
; scale = 1
; nozzle_diameter = 0.35
; filament_diameter = 1.73
; extrusion_multiplier = .98
; perimeters extrusion width = 0.37mm
; infill extrusion width = 0.37mm
; first layer extrusion width = 0.60mm

G28 ; home all axes
G90 ; use absolute coordinates
G21 ; set units to millimeters
G92 E0
M82 ; use absolute distances for extrusion
G1 F1800.000 E-0.80000
G92 E0
G1 Z0.300 F10800.000
G1 X33.280 Y54.159
G1 F1800.000 E0.80000
G1 X33.370 Y53.979 F1200.000 E0.81375
G1 X33.460 Y53.819 E0.82630
G1 X33.570 Y53.649 E0.84013
G1 X33.810 Y53.349 E0.86639
G1 X33.950 Y53.209 E0.87992
G1 X34.090 Y53.079 E0.89297
G1 X34.240 Y52.959 E0.90610
G1 X34.400 Y52.849 E0.91937
G1 X34.560 Y52.749 E0.93226
G1 X34.730 Y52.659 E0.94540
G1 X35.530 Y52.259 E1.00652
G1 X35.710 Y52.189 E1.01972
G1 X35.890 Y52.139 E1.03249
G1 X36.080 Y52.089 E1.04591
G1 X36.270 Y52.049 E1.05918
G1 X37.280 Y51.889 E1.12906
G1 X37.770 Y51.849 E1.16265
G1 X107.720 Y51.849 E5.94260
G1 X107.910 Y51.859 E5.95561
G1 X135.920 Y53.509 E7.87295
G1 X135.940 Y53.509 E7.87432
G1 X136.530 Y53.549 E7.91473
G1 X137.070 Y53.629 E7.95203
G1 X137.640 Y53.769 E7.99214
G1 X138.100 Y53.919 E8.02520
G1 X138.630 Y54.139 E8.06442
G1 X139.040 Y54.349 E8.09590
G1 X139.540 Y54.649 E8.13574
G1 X139.980 Y54.969 E8.17292
G1 X140.420 Y55.349 E8.21265
G1 X140.740 Y55.669 E8.24357
G1 X141.120 Y56.108 E8.28330
G1 X141.440 Y56.549 E8.32048
G1 X141.740 Y57.049 E8.36032
G1 X141.950 Y57.459 E8.39180
G1 X142.170 Y57.989 E8.43101
G1 X142.320 Y58.449 E8.46407
G1 X142.460 Y59.019 E8.50418
G1 X142.540 Y59.499 E8.53743
G1 X142.590 Y60.089 E8.57790
G1 X142.600 Y60.359 E8.59636
G1 X142.600 Y92.969 E10.82473
G1 X142.590 Y93.189 E10.83977
G1 X142.570 Y93.398 E10.85419
G1 X142.530 Y93.619 E10.86947
G1 X142.480 Y93.828 E10.88422
G1 X142.410 Y94.029 E10.89870
G1 X142.330 Y94.228 E10.91342
G1 X142.240 Y94.429 E10.92841
G1 X142.130 Y94.619 E10.94341
G1 X142.010 Y94.799 E10.95819
G1 X128.070 Y114.328 E12.59784
G1 X127.730 Y114.719 E12.63320
G1 X126.250 Y116.199 E12.77622
G1 X126.100 Y116.328 E12.78979
G1 X125.940 Y116.439 E12.80305
G1 X125.770 Y116.548 E12.81689
G1 X125.600 Y116.638 E12.83003
G1 X123.910 Y117.499 E12.95961
G1 X123.730 Y117.589 E12.97336
G1 X123.540 Y117.659 E12.98720
G1 X123.350 Y117.719 E13.00082
G1 X123.160 Y117.769 E13.01424
G1 X122.960 Y117.809 E13.02818
G1 X121.100 Y118.099 E13.15681
G1 X120.940 Y118.119 E13.16783
G1 X120.780 Y118.129 E13.17879
G1 X120.610 Y118.138 E13.19042
G1 X120.450 Y118.129 E13.20138
G1 X120.280 Y118.119 E13.21302
G1 X67.510 Y112.449 E16.83975
G1 X67.150 Y112.388 E16.86469
G1 X66.280 Y112.189 E16.92569
G1 X66.060 Y112.129 E16.94127
G1 X65.950 Y112.089 E16.94927
G1 X65.850 Y112.059 E16.95640
G1 X65.740 Y112.009 E16.96466
G1 X64.920 Y111.659 E17.02559
G1 X64.530 Y111.459 E17.05554
G1 X63.770 Y110.999 E17.11624
G1 X63.340 Y110.689 E17.15246
G1 X62.660 Y110.099 E17.21398
G1 X62.340 Y109.779 E17.24491
G1 X61.750 Y109.099 E17.30643
G1 X61.440 Y108.668 E17.34265
G1 X33.450 Y62.549 E21.02919
G1 X33.350 Y62.369 E21.04326
G1 X33.250 Y62.169 E21.05854
G1 X33.170 Y61.969 E21.07326
G1 X33.110 Y61.769 E21.08753
G1 X33.060 Y61.559 E21.10228
G1 X33.020 Y61.349 E21.11689
G1 X33.000 Y61.129 E21.13199
G1 X32.990 Y60.919 E21.14635
G1 X32.990 Y55.469 E21.51877
G1 X33.000 Y55.279 E21.53177
G1 X33.020 Y55.079 E21.54551
G1 X33.050 Y54.889 E21.55865
G1 X33.090 Y54.699 E21.57192
G1 X33.140 Y54.519 E21.58469
G1 X33.280 Y54.159 E21.61108
G1 X33.790 Y54.429 F10800.000
G1 X33.860 Y54.269 F1200.000 E21.62302
G1 X33.950 Y54.119 E21.63497
G1 X34.050 Y53.969 E21.64729
G1 X34.160 Y53.829 E21.65946
G1 X34.400 Y53.569 E21.68363
G1 X34.680 Y53.349 E21.70797
G1 X34.830 Y53.249 E21.72029
G1 X35.750 Y52.789 E21.79057
G1 X36.050 Y52.689 E21.81218
G1 X36.200 Y52.649 E21.82279
G1 X36.360 Y52.619 E21.83392
G1 X37.370 Y52.459 E21.90379
G1 X37.770 Y52.429 E21.93120
G1 X107.870 Y52.429 E26.72141
G1 X135.880 Y54.079 E28.63875
G1 X135.900 Y54.079 E28.64012
G1 X136.490 Y54.119 E28.68053
G1 X136.930 Y54.189 E28.71098
G1 X137.500 Y54.329 E28.75108
G1 X137.880 Y54.449 E28.77831
G1 X138.410 Y54.669 E28.81753
G1 X138.740 Y54.839 E28.84289
G1 X139.240 Y55.139 E28.88274
G1 X139.600 Y55.399 E28.91308
G1 X140.040 Y55.779 E28.95281
G1 X140.310 Y56.049 E28.97890
G1 X140.690 Y56.489 E29.01863
G1 X140.950 Y56.849 E29.04898
G1 X141.250 Y57.349 E29.08882
G1 X141.420 Y57.679 E29.11419
G1 X141.640 Y58.209 E29.15340
G1 X141.760 Y58.589 E29.18063
G1 X141.900 Y59.159 E29.22074
G1 X141.960 Y59.549 E29.24771
G1 X142.010 Y60.139 E29.28817
G1 X142.020 Y60.359 E29.30322
G1 X142.020 Y93.168 E31.54525
G1 X141.990 Y93.369 E31.55907
G1 X141.950 Y93.559 E31.57234
G1 X141.900 Y93.749 E31.58576
G1 X141.830 Y93.939 E31.59960
G1 X141.750 Y94.119 E31.61306
G1 X141.650 Y94.299 E31.62713
G1 X141.540 Y94.459 E31.64040
G1 X127.600 Y113.989 E33.28005
G1 X127.330 Y114.319 E33.30918
G1 X125.990 Y115.659 E33.43868
G1 X125.870 Y115.769 E33.44980
G1 X125.750 Y115.869 E33.46048
G1 X125.620 Y115.969 E33.47168
G1 X125.480 Y116.059 E33.48306
G1 X125.340 Y116.129 E33.49375
G1 X123.650 Y116.989 E33.62333
G1 X123.500 Y117.059 E33.63464
G1 X123.350 Y117.119 E33.64568
G1 X123.190 Y117.168 E33.65714
G1 X123.040 Y117.209 E33.66774
G1 X122.880 Y117.239 E33.67887
G1 X121.020 Y117.529 E33.80750
G1 X120.880 Y117.548 E33.81717
G1 X120.750 Y117.559 E33.82608
G1 X120.480 Y117.559 E33.84453
G1 X120.350 Y117.548 E33.85344
G1 X67.580 Y111.879 E37.48017
G1 X67.270 Y111.828 E37.50163
G1 X66.400 Y111.629 E37.56263
G1 X66.310 Y111.608 E37.56893
G1 X66.230 Y111.578 E37.57477
G1 X66.050 Y111.519 E37.58773
G1 X65.970 Y111.489 E37.59357
G1 X65.150 Y111.138 E37.65449
G1 X64.830 Y110.969 E37.67926
G1 X64.070 Y110.509 E37.73996
G1 X63.710 Y110.249 E37.77031
G1 X63.030 Y109.659 E37.83183
G1 X62.780 Y109.409 E37.85599
G1 X62.190 Y108.729 E37.91751
G1 X61.930 Y108.369 E37.94785
G1 X61.470 Y107.619 E38.00797
G1 X33.940 Y62.259 E41.63381
G1 X33.840 Y62.079 E41.64788
G1 X33.760 Y61.898 E41.66134
G1 X33.690 Y61.709 E41.67518
G1 X33.640 Y61.519 E41.68860
G1 X33.600 Y61.319 E41.70254
G1 X33.570 Y61.119 E41.71636
G1 X33.570 Y55.289 E42.11475
G1 X33.590 Y55.119 E42.12644
G1 X33.620 Y54.939 E42.13891
G1 X33.660 Y54.769 E42.15085
G1 X33.720 Y54.599 E42.16317
G1 X33.790 Y54.429 E42.17573
G1 F1800.000 E41.37573
G92 E0
G1 X86.587 Y66.389 F10800.000
G1 F1800.000 E0.80000
G1 X86.758 Y65.752 F1200.000 E0.84506
G1 X86.994 Y65.136 E0.89012
G1 X87.294 Y64.548 E0.93519
G1 X87.653 Y63.995 E0.98026
G1 X88.068 Y63.483 E1.02532
G1 X88.534 Y63.016 E1.07039
G1 X89.047 Y62.601 E1.11545
G1 X89.600 Y62.242 E1.16051
G1 X90.187 Y61.943 E1.20558
G1 X90.803 Y61.706 E1.25064
G1 X91.440 Y61.536 E1.29571
G1 X92.091 Y61.433 E1.34077
G1 X92.742 Y61.398 E1.38530
G1 X102.658 Y61.398 E2.06287
G1 X100.668 Y65.221 E2.35733
G1 X100.787 Y65.287 E2.36665
G1 X100.049 Y66.734 E2.47770
G1 X99.941 Y67.076 E2.50219
G1 X95.582 Y77.599 E3.28047
G1 X86.450 Y77.599 E3.90452
G1 X86.450 Y67.691 E4.58156
G1 X86.484 Y67.040 E4.62609
G1 X86.587 Y66.389 E4.67116
G1 X86.948 Y65.943 F10800.000
G1 F1800.000 E3.87116
G92 E0
G1 X91.968 Y92.170 F10800.000
G1 F1800.000 E0.80000
G1 X95.027 Y92.170 F1200.000 E1.00904
G1 X96.492 Y92.461 E1.11112
G1 X97.759 Y93.308 E1.21526
G1 X98.506 Y94.426 E1.30711
G1 X98.571 Y94.402 E1.31187
G1 X98.903 Y96.070 E1.42806
G1 X98.606 Y97.565 E1.53221
G1 X97.759 Y98.832 E1.63634
G1 X96.492 Y99.678 E1.74049
G1 X95.027 Y99.970 E1.84256
G1 X91.968 Y99.970 E2.05160
G1 X90.502 Y99.678 E2.15369
G1 X89.235 Y98.832 E2.25783
G1 X88.389 Y97.565 E2.36197
G1 X88.091 Y96.070 E2.46611
G1 X88.389 Y94.575 E2.57025
G1 X89.235 Y93.308 E2.67439
G1 X90.502 Y92.461 E2.77853
G1 X91.968 Y92.170 E2.88061
G1 F1800.000 E2.08061
G92 E0
G1 X110.216 Y63.836 F10800.000
G1 F1800.000 E0.80000
G1 X108.021 Y63.399 F1200.000 E0.95292
G1 X104.736 Y63.399 E1.17738
G1 X102.930 Y63.759 E1.30325
G1 X102.807 Y63.595 E1.31724
G1 X104.547 Y60.252 E1.57475
G1 X92.712 Y60.252 E2.38347
G1 X91.971 Y60.291 E2.43415
G1 X91.201 Y60.413 E2.48743
G1 X90.448 Y60.615 E2.54070
G1 X89.721 Y60.894 E2.59398
G1 X89.026 Y61.248 E2.64725
G1 X88.372 Y61.673 E2.70053
G1 X87.766 Y62.163 E2.75380
G1 X87.215 Y62.715 E2.80708
G1 X86.724 Y63.320 E2.86035
G1 X86.300 Y63.974 E2.91363
G1 X85.946 Y64.669 E2.96691
G1 X85.666 Y65.397 E3.02018
G1 X85.464 Y66.150 E3.07345
G1 X85.342 Y66.920 E3.12673
G1 X85.304 Y67.661 E3.17741
G1 X85.304 Y78.745 E3.93484
G1 X96.348 Y78.745 E4.68957
G1 X99.882 Y70.215 E5.32051
G1 X100.063 Y70.197 E5.33292
G1 X101.290 Y72.034 E5.48391
G1 X102.937 Y73.134 E5.61921
G1 X104.736 Y73.492 E5.74459
G1 X106.534 Y73.492 E5.86742
G1 X106.624 Y73.749 E5.88603
G1 X104.728 Y75.261 E6.05173
G1 X103.197 Y76.755 E6.19786
G1 X101.823 Y78.392 E6.34395
G1 X100.618 Y80.159 E6.49006
G1 X99.596 Y82.036 E6.63614
G1 X98.765 Y84.007 E6.78229
G1 X98.135 Y86.050 E6.92840
G1 X97.711 Y88.146 E7.07451
G1 X97.499 Y90.274 E7.22063
G1 X97.499 Y91.563 E7.30873
G1 X97.339 Y91.648 E7.32114
G1 X96.939 Y91.382 E7.35396
G1 X95.140 Y91.024 E7.47933
G1 X91.855 Y91.024 E7.70381
G1 X90.055 Y91.382 E7.82919
G1 X88.409 Y92.482 E7.96448
G1 X87.309 Y94.128 E8.09980
G1 X86.923 Y96.070 E8.23509
G1 X87.309 Y98.012 E8.37040
G1 X88.409 Y99.658 E8.50570
G1 X90.055 Y100.758 E8.64101
G1 X91.855 Y101.116 E8.76639
G1 X95.140 Y101.116 E8.99086
G1 X96.939 Y100.758 E9.11623
G1 X98.586 Y99.658 E9.25154
G1 X99.686 Y98.012 E9.38684
G1 X99.794 Y97.467 E9.42479
G1 X99.964 Y97.414 E9.43699
G1 X101.702 Y99.110 E9.60288
G1 X103.374 Y100.443 E9.74901
G1 X105.170 Y101.604 E9.89515
G1 X107.072 Y102.578 E10.04121
G1 X109.063 Y103.360 E10.18733
G1 X111.122 Y103.939 E10.33351
G1 X113.227 Y104.310 E10.47958
G1 X115.359 Y104.470 E10.62567
G1 X116.889 Y104.432 E10.73027
G1 X116.983 Y104.728 E10.75151
G1 X116.033 Y105.363 E10.82960
G1 X114.933 Y107.009 E10.96490
G1 X114.547 Y108.951 E11.10020
G1 X114.933 Y110.893 E11.23551
G1 X115.961 Y112.431 E11.36192
G1 X115.798 Y112.649 E11.38046
G1 X112.814 Y111.707 E11.59428
G1 X104.173 Y109.792 E12.19906
G1 X95.399 Y108.637 E12.80379
G1 X88.187 Y108.322 E13.29707
G1 X88.187 Y108.252 E13.30185
G1 X68.807 Y108.252 E14.62619
G1 X68.038 Y108.192 E14.67887
G1 X67.344 Y108.025 E14.72765
G1 X66.685 Y107.752 E14.77643
G1 X66.076 Y107.379 E14.82521
G1 X65.533 Y106.915 E14.87399
G1 X65.070 Y106.372 E14.92277
G1 X64.697 Y105.764 E14.97155
G1 X64.423 Y105.104 E15.02033
G1 X64.257 Y104.410 E15.06911
G1 X64.196 Y103.642 E15.12178
G1 X64.196 Y97.805 E15.52065
G1 X64.415 Y97.714 E15.53680
G1 X64.947 Y98.247 E15.58826
G1 X65.992 Y99.093 E15.68016
G1 X67.120 Y99.825 E15.77206
G1 X68.319 Y100.436 E15.86396
G1 X69.574 Y100.918 E15.95586
G1 X70.873 Y101.266 E16.04775
G1 X72.202 Y101.477 E16.13966
G1 X73.544 Y101.547 E16.23156
G1 X74.887 Y101.477 E16.32345
G1 X76.216 Y101.266 E16.41536
G1 X77.515 Y100.918 E16.50726
G1 X78.770 Y100.436 E16.59915
G1 X79.969 Y99.826 E16.69105
G1 X81.097 Y99.093 E16.78296
G1 X82.142 Y98.247 E16.87485
G1 X83.093 Y97.296 E16.96676
G1 X83.939 Y96.251 E17.05865
G1 X84.672 Y95.123 E17.15056
G1 X85.282 Y93.924 E17.24245
G1 X85.764 Y92.669 E17.33435
G1 X86.112 Y91.370 E17.42625
G1 X86.322 Y90.041 E17.51815
G1 X86.393 Y88.698 E17.61005
G1 X86.322 Y87.356 E17.70195
G1 X86.112 Y86.027 E17.79385
G1 X85.764 Y84.728 E17.88575
G1 X85.282 Y83.473 E17.97765
G1 X84.672 Y82.274 E18.06954
G1 X83.939 Y81.146 E18.16145
G1 X83.093 Y80.101 E18.25334
G1 X82.142 Y79.150 E18.34525
G1 X81.097 Y78.304 E18.43714
G1 X79.969 Y77.571 E18.52905
G1 X78.770 Y76.961 E18.62095
G1 X77.515 Y76.479 E18.71284
G1 X76.216 Y76.131 E18.80474
G1 X74.887 Y75.920 E18.89665
G1 X73.544 Y75.850 E18.98854
G1 X72.202 Y75.920 E19.08044
G1 X70.873 Y76.131 E19.17235
G1 X69.574 Y76.479 E19.26424
G1 X68.319 Y76.961 E19.35614
G1 X67.120 Y77.571 E19.44804
G1 X65.992 Y78.304 E19.53994
G1 X64.947 Y79.150 E19.63184
G1 X64.415 Y79.683 E19.68330
G1 X64.196 Y79.592 E19.69945
G1 X64.196 Y67.661 E20.51479
G1 X64.158 Y66.920 E20.56548
G1 X64.036 Y66.150 E20.61875
G1 X63.834 Y65.397 E20.67203
G1 X63.554 Y64.669 E20.72530
G1 X63.200 Y63.974 E20.77858
G1 X62.776 Y63.320 E20.83185
G1 X62.285 Y62.715 E20.88513
G1 X61.734 Y62.163 E20.93840
G1 X61.128 Y61.673 E20.99168
G1 X60.474 Y61.248 E21.04495
G1 X59.780 Y60.894 E21.09823
G1 X59.052 Y60.615 E21.15150
G1 X58.299 Y60.413 E21.20478
G1 X57.529 Y60.291 E21.25805
G1 X56.788 Y60.252 E21.30874
G1 X37.864 Y60.252 E22.60189
G1 X37.295 Y60.162 E22.64125
G1 X37.295 Y56.235 E22.90960
G1 X37.864 Y56.145 E22.94896
G1 X107.636 Y56.145 E27.71677
G1 X108.379 Y56.263 E27.76817
G1 X108.516 Y56.332 E27.77866
G1 X108.516 Y56.332 E27.77867
G1 X108.946 Y56.552 E27.81169
G1 X109.397 Y57.002 E27.85520
G1 X109.483 Y57.171 E27.86815
G1 X109.483 Y57.171 E27.86817
G1 X109.686 Y57.569 E27.89873
G1 X109.864 Y58.691 E27.97634
G1 X110.025 Y62.386 E28.22906
G1 X110.216 Y63.836 E28.32899
G1 X109.597 Y64.297 F10800.000
G1 X107.965 Y63.973 F1200.000 E28.44271
G1 X104.793 Y63.973 E28.65947
G1 X103.160 Y64.297 E28.77320
G1 X101.627 Y65.322 E28.89922
G1 X101.378 Y65.099 E28.92207
G1 X103.602 Y60.825 E29.25128
G1 X92.727 Y60.825 E29.99442
G1 X92.031 Y60.862 E30.04203
G1 X91.321 Y60.974 E30.09120
G1 X90.626 Y61.161 E30.14037
G1 X89.954 Y61.418 E30.18954
G1 X89.313 Y61.745 E30.23871
G1 X88.709 Y62.137 E30.28788
G1 X88.150 Y62.590 E30.33705
G1 X87.641 Y63.099 E30.38622
G1 X87.189 Y63.658 E30.43539
G1 X86.797 Y64.261 E30.48456
G1 X86.470 Y64.903 E30.53373
G1 X86.212 Y65.574 E30.58290
G1 X86.026 Y66.269 E30.63206
G1 X85.913 Y66.980 E30.68124
G1 X85.877 Y67.676 E30.72884
G1 X85.877 Y78.172 E31.44608
G1 X95.965 Y78.172 E32.13547
G1 X100.062 Y68.283 E32.86687
G1 X100.362 Y68.313 E32.88749
G1 X100.730 Y70.164 E33.01647
G1 X101.703 Y71.621 E33.13620
G1 X103.160 Y72.594 E33.25592
G1 X104.793 Y72.919 E33.36965
G1 X108.248 Y72.919 E33.60580
G1 X108.329 Y73.256 E33.62947
G1 X107.766 Y73.543 E33.67267
G1 X107.844 Y73.677 E33.68328
G1 X106.735 Y74.394 E33.77354
G1 X105.107 Y75.691 E33.91575
G1 X103.618 Y77.145 E34.05797
G1 X102.280 Y78.739 E34.20016
G1 X101.108 Y80.458 E34.34235
G1 X100.113 Y82.285 E34.48453
G1 X99.305 Y84.203 E34.62678
G1 X98.691 Y86.192 E34.76897
G1 X98.278 Y88.231 E34.91117
G1 X98.072 Y90.302 E35.05337
G1 X98.072 Y92.635 E35.21280
G1 X97.912 Y92.721 E35.22520
G1 X96.715 Y91.921 E35.32351
G1 X95.083 Y91.597 E35.43723
G1 X91.911 Y91.597 E35.65399
G1 X90.279 Y91.921 E35.76772
G1 X88.822 Y92.895 E35.88744
G1 X87.849 Y94.352 E36.00717
G1 X87.507 Y96.070 E36.12689
G1 X87.849 Y97.788 E36.24661
G1 X88.822 Y99.245 E36.36633
G1 X90.279 Y100.218 E36.48605
G1 X91.911 Y100.543 E36.59979
G1 X95.083 Y100.543 E36.81654
G1 X96.715 Y100.218 E36.93027
G1 X98.172 Y99.245 E37.05000
G1 X99.146 Y97.788 E37.16971
G1 X99.467 Y96.173 E37.28226
G1 X99.665 Y96.122 E37.29625
G1 X100.592 Y97.226 E37.39475
G1 X102.081 Y98.680 E37.53697
G1 X103.709 Y99.977 E37.67918
G1 X105.457 Y101.107 E37.82141
G1 X107.308 Y102.055 E37.96357
G1 X109.245 Y102.816 E38.10578
G1 X111.250 Y103.380 E38.24803
G1 X113.298 Y103.741 E38.39020
G1 X115.373 Y103.896 E38.53238
G1 X117.454 Y103.844 E38.67464
G1 X118.768 Y103.680 E38.76512
G1 X118.777 Y103.732 E38.76876
G1 X118.813 Y103.725 E38.77125
G1 X118.822 Y103.770 E38.77440
G1 X120.621 Y103.486 E38.89887
G1 X122.310 Y103.753 E39.01571
G1 X123.071 Y104.141 E39.07412
G1 X122.990 Y104.478 E39.09779
G1 X119.535 Y104.478 E39.33389
G1 X117.903 Y104.803 E39.44761
G1 X116.446 Y105.776 E39.56733
