; generated by Slic3r 0.9.6-dev on 2012-11-30 at 13:16:42

; p9.02 I0.59 D 34.38

; layer_height = 0.33
; perimeters = 3
; top_solid_layers = 2
; bottom_solid_layers = 2
; fill_density = 0.2
; perimeter_speed = 50
; infill_speed = 70
; travel_speed = 170
; scale = 1
; nozzle_diameter = 0.4
; filament_diameter = 1.74
; extrusion_multiplier = .95
; perimeters extrusion width = 0.42mm
; infill extrusion width = 0.42mm
; first layer extrusion width = 0.42mm

G28 ; home all axes
G90 ; use absolute coordinates
G21 ; set units to millimeters
G92 E0
M82 ; use absolute distances for extrusion
G1 F1200.000 E-1.00000
G92 E0
G1 Z0.330 F10200.000
G1 X34.670 Y59.758
G1 F1200.000 E1.00000
G1 X34.780 Y59.498 F1200.000 E1.01547
G1 X34.910 Y59.248 E1.03092
G1 X35.040 Y59.008 E1.04588
G1 X35.190 Y58.768 E1.06139
G1 X35.350 Y58.538 E1.07674
G1 X35.510 Y58.318 E1.09165
G1 X35.690 Y58.098 E1.10723
G1 X35.870 Y57.888 E1.12239
G1 X36.060 Y57.678 E1.13791
G1 X36.260 Y57.488 E1.15303
G1 X36.470 Y57.298 E1.16855
G1 X36.680 Y57.118 E1.18371
G1 X36.900 Y56.948 E1.19895
G1 X37.130 Y56.788 E1.21430
G1 X37.370 Y56.638 E1.22982
G1 X37.610 Y56.498 E1.24504
G1 X37.850 Y56.368 E1.26000
G1 X38.640 Y55.968 E1.30854
G1 X38.920 Y55.838 E1.32545
G1 X39.200 Y55.718 E1.34215
G1 X39.490 Y55.608 E1.35915
G1 X39.780 Y55.518 E1.37579
G1 X40.080 Y55.438 E1.39281
G1 X40.380 Y55.368 E1.40969
G1 X40.680 Y55.318 E1.42636
G1 X41.710 Y55.158 E1.48349
G1 X42.760 Y55.068 E1.54125
G1 X112.730 Y55.068 E5.37611
G1 X113.130 Y55.088 E5.39806
G1 X141.140 Y56.738 E6.93587
G1 X141.190 Y56.738 E6.93861
G1 X141.790 Y56.778 E6.97157
G1 X142.940 Y56.958 E7.03536
G1 X143.520 Y57.098 E7.06806
G1 X144.560 Y57.428 E7.12786
G1 X145.110 Y57.658 E7.16054
G1 X146.070 Y58.158 E7.21986
G1 X146.570 Y58.468 E7.25210
G1 X147.450 Y59.108 E7.31174
G1 X147.900 Y59.498 E7.34438
G1 X148.590 Y60.188 E7.39786
G1 X148.980 Y60.638 E7.43049
G1 X149.620 Y61.518 E7.49013
G1 X149.930 Y62.018 E7.52237
G1 X150.430 Y62.978 E7.58170
G1 X150.660 Y63.528 E7.61437
G1 X150.990 Y64.568 E7.67417
G1 X151.130 Y65.148 E7.70687
G1 X151.300 Y66.178 E7.76409
G1 X151.350 Y66.778 E7.79709
G1 X151.380 Y67.348 E7.82837
G1 X151.380 Y101.168 E9.68195
G1 X151.370 Y101.468 E9.69840
G1 X151.350 Y101.758 E9.71433
G1 X151.320 Y102.058 E9.73086
G1 X151.220 Y102.638 E9.76311
G1 X151.150 Y102.928 E9.77946
G1 X150.970 Y103.488 E9.81170
G1 X150.860 Y103.768 E9.82819
G1 X150.750 Y104.038 E9.84417
G1 X150.620 Y104.298 E9.86010
G1 X150.320 Y104.818 E9.89300
G1 X150.160 Y105.058 E9.90881
G1 X149.980 Y105.298 E9.92525
G1 X136.020 Y123.688 E11.19066
G1 X135.400 Y124.408 E11.24274
G1 X134.040 Y125.758 E11.34776
G1 X133.820 Y125.968 E11.36443
G1 X133.590 Y126.168 E11.38114
G1 X133.350 Y126.358 E11.39791
G1 X133.100 Y126.538 E11.41480
G1 X132.850 Y126.698 E11.43107
G1 X132.590 Y126.858 E11.44780
G1 X132.320 Y126.998 E11.46447
G1 X130.610 Y127.868 E11.56962
G1 X130.340 Y127.998 E11.58604
G1 X130.060 Y128.118 E11.60274
G1 X129.780 Y128.228 E11.61923
G1 X129.490 Y128.318 E11.63587
G1 X129.210 Y128.398 E11.65183
G1 X128.910 Y128.468 E11.66871
G1 X128.620 Y128.528 E11.68494
G1 X126.730 Y128.838 E11.78991
G1 X126.420 Y128.878 E11.80704
G1 X126.120 Y128.908 E11.82357
G1 X125.810 Y128.918 E11.84057
G1 X125.500 Y128.918 E11.85756
G1 X125.190 Y128.908 E11.87456
G1 X124.890 Y128.888 E11.89104
G1 X72.110 Y123.208 E14.80046
G1 X71.250 Y123.058 E14.84831
G1 X70.370 Y122.848 E14.89789
G1 X69.330 Y122.508 E14.95786
G1 X68.490 Y122.158 E15.00773
G1 X67.590 Y121.698 E15.06313
G1 X66.810 Y121.228 E15.11304
G1 X65.900 Y120.578 E15.17433
G1 X65.210 Y119.988 E15.22409
G1 X64.450 Y119.228 E15.28300
G1 X63.860 Y118.538 E15.33275
G1 X63.210 Y117.628 E15.39404
G1 X62.760 Y116.878 E15.44198
G1 X62.750 Y116.878 E15.44253
G1 X35.100 Y71.478 E18.35592
G1 X34.960 Y71.228 E18.37163
G1 X34.820 Y70.968 E18.38781
G1 X34.700 Y70.708 E18.40351
G1 X34.590 Y70.448 E18.41898
G1 X34.490 Y70.178 E18.43476
G1 X34.400 Y69.898 E18.45088
G1 X34.320 Y69.628 E18.46631
G1 X34.200 Y69.068 E18.49770
G1 X34.160 Y68.778 E18.51375
G1 X34.130 Y68.488 E18.52972
G1 X34.110 Y68.208 E18.54511
G1 X34.100 Y67.918 E18.56101
G1 X34.100 Y62.468 E18.85971
G1 X34.110 Y62.188 E18.87507
G1 X34.130 Y61.908 E18.89045
G1 X34.160 Y61.638 E18.90534
G1 X34.200 Y61.358 E18.92084
G1 X34.250 Y61.078 E18.93643
G1 X34.310 Y60.808 E18.95159
G1 X34.380 Y60.538 E18.96688
G1 X34.470 Y60.278 E18.98196
G1 X34.560 Y60.008 E18.99756
G1 X34.670 Y59.758 E19.01253
G1 X35.090 Y59.828 F10200.000
G1 X35.210 Y59.578 F1200.000 E19.02772
G1 X35.330 Y59.338 E19.04243
G1 X35.470 Y59.108 E19.05719
G1 X35.620 Y58.878 E19.07224
G1 X35.940 Y58.438 E19.10206
G1 X36.120 Y58.238 E19.11680
G1 X36.300 Y58.028 E19.13196
G1 X36.490 Y57.838 E19.14669
G1 X36.690 Y57.658 E19.16144
G1 X36.900 Y57.478 E19.17659
G1 X37.340 Y57.158 E19.20641
G1 X37.570 Y57.008 E19.22146
G1 X37.800 Y56.868 E19.23622
G1 X38.040 Y56.738 E19.25118
G1 X38.830 Y56.338 E19.29971
G1 X39.130 Y56.198 E19.31785
G1 X39.450 Y56.068 E19.33679
G1 X39.760 Y55.958 E19.35481
G1 X40.090 Y55.868 E19.37356
G1 X40.410 Y55.788 E19.39164
G1 X40.740 Y55.728 E19.41002
G1 X41.770 Y55.568 E19.46715
G1 X42.760 Y55.488 E19.52159
G1 X112.730 Y55.488 E23.35644
G1 X113.110 Y55.498 E23.37728
G1 X141.120 Y57.148 E24.91509
G1 X141.170 Y57.158 E24.91788
G1 X141.770 Y57.198 E24.95084
G1 X142.850 Y57.358 E25.01068
G1 X143.430 Y57.498 E25.04338
G1 X144.400 Y57.818 E25.09936
G1 X144.950 Y58.048 E25.13203
G1 X145.850 Y58.518 E25.18768
G1 X146.350 Y58.828 E25.21993
G1 X147.170 Y59.428 E25.27561
G1 X147.620 Y59.818 E25.30825
G1 X148.270 Y60.468 E25.35863
G1 X148.660 Y60.918 E25.39127
G1 X149.260 Y61.738 E25.44696
G1 X149.570 Y62.238 E25.47920
G1 X150.040 Y63.138 E25.53485
G1 X150.270 Y63.688 E25.56752
G1 X150.590 Y64.658 E25.62350
G1 X150.730 Y65.238 E25.65620
G1 X150.890 Y66.218 E25.71062
G1 X150.940 Y66.818 E25.74362
G1 X150.960 Y67.348 E25.77269
G1 X150.960 Y101.168 E27.62627
G1 X150.950 Y101.448 E27.64163
G1 X150.930 Y101.718 E27.65646
G1 X150.900 Y101.998 E27.67190
G1 X150.860 Y102.278 E27.68740
G1 X150.810 Y102.548 E27.70245
G1 X150.670 Y103.088 E27.73302
G1 X150.580 Y103.348 E27.74810
G1 X150.480 Y103.608 E27.76337
G1 X150.370 Y103.858 E27.77834
G1 X150.110 Y104.358 E27.80923
G1 X149.970 Y104.588 E27.82399
G1 X149.810 Y104.828 E27.83979
G1 X149.650 Y105.048 E27.85470
G1 X135.690 Y123.438 E29.12011
G1 X135.100 Y124.108 E29.16904
G1 X133.740 Y125.458 E29.27407
G1 X133.500 Y125.688 E29.29229
G1 X133.250 Y125.908 E29.31054
G1 X132.980 Y126.108 E29.32895
G1 X132.710 Y126.298 E29.34705
G1 X132.420 Y126.468 E29.36547
G1 X132.130 Y126.628 E29.38362
G1 X130.420 Y127.498 E29.48878
G1 X130.120 Y127.638 E29.50692
G1 X129.820 Y127.768 E29.52484
G1 X129.510 Y127.878 E29.54287
G1 X129.190 Y127.968 E29.56109
G1 X128.870 Y128.048 E29.57917
G1 X128.550 Y128.108 E29.59701
G1 X126.660 Y128.418 E29.70198
G1 X126.320 Y128.468 E29.72081
G1 X125.970 Y128.498 E29.74007
G1 X125.620 Y128.508 E29.75926
G1 X125.280 Y128.498 E29.77790
G1 X124.930 Y128.468 E29.79715
G1 X72.150 Y122.788 E32.70658
G1 X71.350 Y122.648 E32.75109
G1 X70.470 Y122.438 E32.80068
G1 X69.490 Y122.118 E32.85718
G1 X68.650 Y121.768 E32.90705
G1 X67.810 Y121.348 E32.95852
G1 X67.030 Y120.878 E33.00843
G1 X66.170 Y120.258 E33.06654
G1 X65.480 Y119.668 E33.11630
G1 X64.770 Y118.958 E33.17133
G1 X64.180 Y118.268 E33.22109
G1 X63.560 Y117.408 E33.27919
G1 X63.110 Y116.658 E33.32713
G1 X35.460 Y71.258 E36.24052
G1 X35.310 Y71.008 E36.25650
G1 X35.180 Y70.748 E36.27243
G1 X35.050 Y70.478 E36.28886
G1 X34.940 Y70.208 E36.30484
G1 X34.760 Y69.648 E36.33707
G1 X34.690 Y69.368 E36.35289
G1 X34.630 Y69.078 E36.36912
G1 X34.580 Y68.788 E36.38525
G1 X34.550 Y68.498 E36.40123
G1 X34.530 Y68.208 E36.41716
G1 X34.520 Y67.918 E36.43307
G1 X34.520 Y62.468 E36.73177
G1 X34.530 Y62.198 E36.74657
G1 X34.570 Y61.658 E36.77625
G1 X34.610 Y61.388 E36.79121
G1 X34.670 Y61.118 E36.80637
G1 X34.730 Y60.858 E36.82099
G1 X34.800 Y60.588 E36.83628
G1 X34.890 Y60.338 E36.85084
G1 X34.980 Y60.078 E36.86592
G1 X35.090 Y59.828 E36.88089
G1 F1200.000 E35.88089
G92 E0
G1 X91.266 Y73.320 F10200.000
G1 F1200.000 E1.00000
G1 X91.446 Y72.650 F1200.000 E1.03803
G1 X91.694 Y72.002 E1.07605
G1 X92.009 Y71.384 E1.11408
G1 X92.387 Y70.802 E1.15211
G1 X92.824 Y70.263 E1.19013
G1 X93.314 Y69.772 E1.22816
G1 X93.854 Y69.336 E1.26620
G1 X94.436 Y68.958 E1.30422
G1 X95.054 Y68.643 E1.34224
G1 X95.702 Y68.394 E1.38027
G1 X96.372 Y68.215 E1.41830
G1 X97.057 Y68.106 E1.45633
G1 X97.734 Y68.071 E1.49346
G1 X108.198 Y68.071 E2.06698
G1 X106.106 Y72.089 E2.31525
G1 X106.223 Y72.153 E2.32254
G1 X105.353 Y73.859 E2.42748
G1 X105.250 Y74.188 E2.44641
G1 X100.802 Y84.926 E3.08342
G1 X91.122 Y84.926 E3.61392
G1 X91.122 Y74.682 E4.17538
G1 X91.158 Y74.006 E4.21251
G1 X91.266 Y73.320 E4.25054
G1 X91.675 Y73.407 F10200.000
G1 X91.844 Y72.779 F1200.000 E4.28616
G1 X92.077 Y72.173 E4.32179
G1 X92.372 Y71.593 E4.35741
G1 X92.726 Y71.048 E4.39304
G1 X93.135 Y70.543 E4.42867
G1 X93.594 Y70.083 E4.46430
G1 X94.100 Y69.674 E4.49993
G1 X94.645 Y69.320 E4.53555
G1 X95.224 Y69.025 E4.57118
G1 X95.831 Y68.792 E4.60681
G1 X96.459 Y68.624 E4.64243
G1 X97.101 Y68.522 E4.67806
G1 X97.745 Y68.488 E4.71339
G1 X107.509 Y68.488 E5.24858
G1 X105.548 Y72.257 E5.48142
G1 X105.667 Y72.323 E5.48890
G1 X104.965 Y73.700 E5.57362
G1 X104.857 Y74.045 E5.59345
G1 X100.522 Y84.508 E6.21416
G1 X91.540 Y84.508 E6.70646
G1 X91.540 Y74.693 E7.24442
G1 X91.574 Y74.049 E7.27974
G1 X91.675 Y73.407 E7.31537
G1 X91.938 Y73.083 F10200.000
G1 F1200.000 E6.31537
G92 E0
G1 X96.977 Y99.260 F10200.000
G1 F1200.000 E1.00000
G1 X100.018 Y99.260 F1200.000 E1.16669
G1 X101.457 Y99.546 E1.24709
G1 X102.694 Y100.373 E1.32866
G1 X103.521 Y101.610 E1.41022
G1 X103.811 Y103.070 E1.49178
G1 X103.521 Y104.530 E1.57335
G1 X102.694 Y105.767 E1.65491
G1 X101.457 Y106.594 E1.73648
G1 X100.018 Y106.880 E1.81688
G1 X96.977 Y106.880 E1.98357
G1 X95.538 Y106.594 E2.06398
G1 X94.300 Y105.767 E2.14554
G1 X93.473 Y104.530 E2.22711
G1 X93.183 Y103.070 E2.30867
G1 X93.473 Y101.610 E2.39023
G1 X94.300 Y100.373 E2.47180
G1 X95.538 Y99.546 E2.55336
G1 X96.977 Y99.260 E2.63377
G1 F1200.000 E1.63377
G92 E0
G1 X113.504 Y62.877 F10200.000
G1 F1200.000 E1.00000
G1 X113.741 Y62.997 F1200.000 E1.01457
G1 X113.741 Y62.997 E1.01458
G1 X114.185 Y63.223 E1.04186
G1 X114.725 Y63.763 E1.08372
G1 X114.804 Y63.919 E1.09327
G1 X114.804 Y63.919 E1.09329
G1 X115.072 Y64.444 E1.12558
G1 X115.263 Y65.651 E1.19255
G1 X115.424 Y69.351 E1.39552
G1 X115.730 Y71.674 E1.52393
G1 X115.596 Y71.757 E1.53260
G1 X114.664 Y71.135 E1.59402
G1 X112.982 Y70.800 E1.68805
G1 X109.776 Y70.800 E1.86376
G1 X108.093 Y71.135 E1.95779
G1 X106.939 Y71.906 E2.03385
G1 X106.757 Y71.743 E2.04721
G1 X108.887 Y67.653 E2.29994
G1 X97.723 Y67.653 E2.91180
G1 X97.013 Y67.690 E2.95073
G1 X96.285 Y67.805 E2.99116
G1 X95.572 Y67.996 E3.03159
G1 X94.884 Y68.261 E3.07202
G1 X94.226 Y68.596 E3.11245
G1 X93.608 Y68.997 E3.15286
G1 X93.034 Y69.461 E3.19330
G1 X92.513 Y69.983 E3.23373
G1 X92.049 Y70.556 E3.27415
G1 X91.647 Y71.175 E3.31459
G1 X91.312 Y71.832 E3.35502
G1 X91.048 Y72.521 E3.39544
G1 X90.857 Y73.233 E3.43587
G1 X90.741 Y73.962 E3.47629
G1 X90.704 Y74.671 E3.51522
G1 X90.704 Y85.344 E4.10018
G1 X101.081 Y85.344 E4.66888
G1 X105.057 Y75.745 E5.23837
G1 X105.276 Y75.766 E5.25042
G1 X105.568 Y77.231 E5.33230
G1 X106.579 Y78.745 E5.43209
G1 X108.093 Y79.757 E5.53187
G1 X109.776 Y80.091 E5.62590
G1 X112.731 Y80.091 E5.78787
G1 X112.790 Y80.337 E5.80171
G1 X112.543 Y80.463 E5.81689
G1 X112.627 Y80.612 E5.82627
G1 X111.634 Y81.253 E5.89105
G1 X109.993 Y82.562 E6.00606
G1 X108.491 Y84.027 E6.12107
G1 X107.142 Y85.634 E6.23605
G1 X105.961 Y87.368 E6.35104
G1 X104.958 Y89.210 E6.46602
G1 X104.142 Y91.144 E6.58105
G1 X103.523 Y93.149 E6.69604
G1 X103.108 Y95.206 E6.81104
G1 X102.899 Y97.293 E6.92604
G1 X102.899 Y99.364 E7.03954
G1 X102.783 Y99.427 E7.04680
G1 X101.783 Y98.759 E7.11270
G1 X100.100 Y98.424 E7.20672
G1 X96.894 Y98.424 E7.38243
G1 X95.211 Y98.759 E7.47647
G1 X93.698 Y99.770 E7.57625
G1 X92.686 Y101.284 E7.67604
G1 X92.331 Y103.070 E7.77582
G1 X92.686 Y104.856 E7.87560
G1 X93.698 Y106.369 E7.97539
G1 X95.211 Y107.381 E8.07517
G1 X96.894 Y107.716 E8.16921
G1 X100.100 Y107.716 E8.34492
G1 X101.783 Y107.381 E8.43894
G1 X103.297 Y106.369 E8.53873
G1 X104.308 Y104.856 E8.63851
G1 X104.579 Y103.496 E8.71447
G1 X104.723 Y103.459 E8.72265
G1 X105.465 Y104.344 E8.78592
G1 X106.967 Y105.809 E8.90094
G1 X108.608 Y107.118 E9.01594
G1 X110.371 Y108.256 E9.13096
G1 X112.237 Y109.213 E9.24593
G1 X114.190 Y109.980 E9.36093
G1 X116.211 Y110.548 E9.47597
G1 X118.277 Y110.912 E9.59093
G1 X120.369 Y111.069 E9.70592
G1 X122.467 Y111.017 E9.82096
G1 X123.626 Y110.871 E9.88499
G1 X123.641 Y110.954 E9.88960
G1 X123.679 Y110.946 E9.89174
G1 X123.683 Y110.967 E9.89290
G1 X125.621 Y110.660 E10.00042
G1 X127.454 Y110.951 E10.10214
G1 X127.426 Y111.306 E10.12164
G1 X124.518 Y111.306 E10.28099
G1 X122.836 Y111.640 E10.37502
G1 X121.322 Y112.652 E10.47481
G1 X120.310 Y114.166 E10.57459
G1 X119.955 Y115.951 E10.67437
G1 X120.310 Y117.737 E10.77416
G1 X121.322 Y119.251 E10.87394
G1 X122.836 Y120.262 E10.97373
G1 X124.518 Y120.597 E11.06776
G1 X127.428 Y120.597 E11.22724
G1 X127.456 Y120.952 E11.24675
G1 X125.621 Y121.243 E11.34859
G1 X123.407 Y120.892 E11.47145
G1 X117.710 Y119.094 E11.79886
G1 X109.104 Y117.187 E12.28200
G1 X100.364 Y116.037 E12.76511
G1 X92.787 Y115.706 E13.18081
G1 X92.787 Y115.653 E13.18370
G1 X73.791 Y115.653 E14.22479
G1 X72.975 Y115.589 E14.26963
G1 X72.220 Y115.407 E14.31221
G1 X71.502 Y115.110 E14.35480
G1 X70.840 Y114.704 E14.39737
G1 X70.249 Y114.199 E14.43996
G1 X69.745 Y113.609 E14.48253
G1 X69.339 Y112.946 E14.52512
G1 X69.041 Y112.228 E14.56770
G1 X68.860 Y111.473 E14.61028
G1 X68.796 Y110.657 E14.65511
G1 X68.796 Y103.706 E15.03610
G1 X68.981 Y103.640 E15.04688
G1 X69.294 Y104.027 E15.07417
G1 X70.216 Y104.949 E15.14558
G1 X71.228 Y105.768 E15.21698
G1 X72.321 Y106.478 E15.28839
G1 X73.482 Y107.069 E15.35979
G1 X74.698 Y107.536 E15.43120
G1 X75.957 Y107.874 E15.50261
G1 X77.243 Y108.078 E15.57402
G1 X78.545 Y108.146 E15.64542
G1 X79.846 Y108.078 E15.71682
G1 X81.132 Y107.874 E15.78824
G1 X82.391 Y107.536 E15.85964
G1 X83.607 Y107.070 E15.93104
G1 X84.768 Y106.478 E16.00245
G1 X85.861 Y105.768 E16.07386
G1 X86.873 Y104.949 E16.14526
G1 X87.795 Y104.027 E16.21667
G1 X88.614 Y103.015 E16.28808
G1 X89.324 Y101.922 E16.35949
G1 X89.916 Y100.761 E16.43089
G1 X90.382 Y99.545 E16.50229
G1 X90.720 Y98.286 E16.57370
G1 X90.923 Y97.000 E16.64511
G1 X90.992 Y95.699 E16.71652
G1 X90.923 Y94.397 E16.78792
G1 X90.720 Y93.111 E16.85933
G1 X90.382 Y91.852 E16.93074
G1 X89.916 Y90.636 E17.00214
G1 X89.324 Y89.475 E17.07355
G1 X88.614 Y88.382 E17.14496
G1 X87.795 Y87.370 E17.21636
G1 X86.873 Y86.448 E17.28777
G1 X85.861 Y85.629 E17.35917
G1 X84.768 Y84.919 E17.43058
G1 X83.607 Y84.327 E17.50199
G1 X82.391 Y83.861 E17.57339
G1 X81.132 Y83.523 E17.64480
G1 X79.846 Y83.319 E17.71621
G1 X78.544 Y83.251 E17.78761
G1 X77.243 Y83.319 E17.85902
G1 X75.957 Y83.523 E17.93043
G1 X74.698 Y83.861 E18.00184
G1 X73.482 Y84.327 E18.07324
G1 X72.321 Y84.919 E18.14464
G1 X71.228 Y85.629 E18.21605
G1 X70.216 Y86.448 E18.28746
G1 X69.294 Y87.370 E18.35886
G1 X68.981 Y87.757 E18.38615
G1 X68.796 Y87.691 E18.39693
G1 X68.796 Y74.671 E19.11052
G1 X68.759 Y73.962 E19.14944
G1 X68.643 Y73.233 E19.18987
G1 X68.452 Y72.521 E19.23030
G1 X68.188 Y71.832 E19.27072
G1 X67.853 Y71.175 E19.31115
G1 X67.451 Y70.556 E19.35158
G1 X66.987 Y69.983 E19.39201
