; generated by Slic3r 0.9.5 on 2012-11-27 at 13:05:33

; layer_height = 0.3
; perimeters = 3
; top_solid_layers = 3
; bottom_solid_layers = 3
; fill_density = 0.3
; perimeter_speed = 50
; infill_speed = 85
; travel_speed = 180
; scale = 1
; nozzle_diameter = 0.35
; filament_diameter = 1.73
; extrusion_multiplier = .98
; perimeters extrusion width = 0.37mm
; infill extrusion width = 0.37mm
; first layer extrusion width = 0.60mm

G28 ; home all axes
G90 ; use absolute coordinates
G21 ; set units to millimeters
G92 E0
M82 ; use absolute distances for extrusion
G1 F1800.000 E-0.80000
G92 E0
G1 Z0.300 F10800.000
G1 X33.280 Y54.159
G1 F1800.000 E0.80000
G1 X33.370 Y53.979 F1200.000 E0.81375
G1 X33.460 Y53.819 E0.82630
G1 X33.570 Y53.649 E0.84013
G1 X33.810 Y53.349 E0.86639
G1 X33.950 Y53.209 E0.87992
G1 X34.090 Y53.079 E0.89297
G1 X34.240 Y52.959 E0.90610
G1 X34.400 Y52.849 E0.91937
G1 X34.560 Y52.749 E0.93226
G1 X34.730 Y52.659 E0.94540
G1 X35.530 Y52.259 E1.00652
G1 X35.710 Y52.189 E1.01972
G1 X35.890 Y52.139 E1.03249
G1 X36.080 Y52.089 E1.04591
G1 X36.270 Y52.049 E1.05918
G1 X37.280 Y51.889 E1.12906
G1 X37.770 Y51.849 E1.16265
G1 X107.720 Y51.849 E5.94260
G1 X107.910 Y51.859 E5.95561
G1 X135.920 Y53.509 E7.87295
G1 X135.940 Y53.509 E7.87432
G1 X136.530 Y53.549 E7.91473
G1 X137.070 Y53.629 E7.95203
G1 X137.640 Y53.769 E7.99214
G1 X138.100 Y53.919 E8.02520
G1 X138.630 Y54.139 E8.06442
G1 X139.040 Y54.349 E8.09590
G1 X139.540 Y54.649 E8.13574
G1 X139.980 Y54.969 E8.17292
G1 X140.420 Y55.349 E8.21265
G1 X140.740 Y55.669 E8.24357
G1 X141.120 Y56.108 E8.28330
G1 X141.440 Y56.549 E8.32048
G1 X141.740 Y57.049 E8.36032
G1 X141.950 Y57.459 E8.39180
G1 X142.170 Y57.989 E8.43101
G1 X142.320 Y58.449 E8.46407
G1 X142.460 Y59.019 E8.50418
G1 X142.540 Y59.499 E8.53743
G1 X142.590 Y60.089 E8.57790
G1 X142.600 Y60.359 E8.59636
G1 X142.600 Y92.969 E10.82473
G1 X142.590 Y93.189 E10.83977
G1 X142.570 Y93.398 E10.85419
G1 X142.530 Y93.619 E10.86947
G1 X142.480 Y93.828 E10.88422
G1 X142.410 Y94.029 E10.89870
G1 X142.330 Y94.228 E10.91342
G1 X142.240 Y94.429 E10.92841
G1 X142.130 Y94.619 E10.94341
G1 X142.010 Y94.799 E10.95819
G1 X128.070 Y114.328 E12.59784
G1 X127.730 Y114.719 E12.63320
G1 X126.250 Y116.199 E12.77622
G1 X126.100 Y116.328 E12.78979
G1 X125.940 Y116.439 E12.80305
G1 X125.770 Y116.548 E12.81689
G1 X125.600 Y116.638 E12.83003
G1 X123.910 Y117.499 E12.95961
G1 X123.730 Y117.589 E12.97336
G1 X123.540 Y117.659 E12.98720
G1 X123.350 Y117.719 E13.00082
G1 X123.160 Y117.769 E13.01424
G1 X122.960 Y117.809 E13.02818
G1 X121.100 Y118.099 E13.15681
G1 X120.940 Y118.119 E13.16783
G1 X120.780 Y118.129 E13.17879
G1 X120.610 Y118.138 E13.19042
G1 X120.450 Y118.129 E13.20138
G1 X120.280 Y118.119 E13.21302
G1 X67.510 Y112.449 E16.83975
G1 X67.150 Y112.388 E16.86469
G1 X44.630 Y107.269 E18.44284
G1 X44.510 Y107.239 E18.45129
G1 X44.390 Y107.199 E18.45993
G1 X44.280 Y107.168 E18.46772
G1 X44.160 Y107.119 E18.47661
G1 X44.050 Y107.069 E18.48486
G1 X41.940 Y106.129 E18.64271
G1 X41.820 Y106.078 E18.65159
G1 X41.710 Y106.019 E18.66016
G1 X41.590 Y105.949 E18.66965
G1 X41.490 Y105.879 E18.67799
G1 X41.380 Y105.809 E18.68690
G1 X39.510 Y104.459 E18.84450
G1 X39.400 Y104.379 E18.85380
G1 X39.100 Y104.108 E18.88138
G1 X39.010 Y104.009 E18.89057
G1 X37.470 Y102.289 E19.04833
G1 X37.380 Y102.189 E19.05753
G1 X37.300 Y102.089 E19.06628
G1 X37.230 Y101.989 E19.07462
G1 X37.090 Y101.769 E19.09244
G1 X35.930 Y99.769 E19.25043
G1 X35.860 Y99.648 E19.25992
G1 X35.800 Y99.529 E19.26909
G1 X35.750 Y99.409 E19.27797
G1 X35.700 Y99.279 E19.28749
G1 X35.660 Y99.159 E19.29613
G1 X34.950 Y96.959 E19.45410
G1 X34.910 Y96.828 E19.46340
G1 X34.880 Y96.698 E19.47252
G1 X34.850 Y96.578 E19.48097
G1 X34.810 Y96.319 E19.49894
G1 X34.570 Y94.019 E19.65696
G1 X34.560 Y93.839 E19.66928
G1 X33.000 Y61.069 E21.91112
G1 X32.990 Y60.919 E21.92139
G1 X32.990 Y55.469 E22.29381
G1 X33.000 Y55.279 E22.30681
G1 X33.020 Y55.079 E22.32055
G1 X33.050 Y54.889 E22.33369
G1 X33.090 Y54.699 E22.34696
G1 X33.140 Y54.519 E22.35973
G1 X33.280 Y54.159 E22.38612
G1 X33.790 Y54.429 F10800.000
G1 X33.860 Y54.269 F1200.000 E22.39806
G1 X33.950 Y54.119 E22.41001
G1 X34.050 Y53.969 E22.42233
G1 X34.160 Y53.829 E22.43449
G1 X34.400 Y53.569 E22.45867
G1 X34.680 Y53.349 E22.48301
G1 X34.830 Y53.249 E22.49533
G1 X35.750 Y52.789 E22.56561
G1 X36.050 Y52.689 E22.58722
G1 X36.200 Y52.649 E22.59783
G1 X36.360 Y52.619 E22.60895
G1 X37.370 Y52.459 E22.67883
G1 X37.770 Y52.429 E22.70624
G1 X107.870 Y52.429 E27.49644
G1 X135.880 Y54.079 E29.41379
G1 X135.900 Y54.079 E29.41516
G1 X136.490 Y54.119 E29.45557
G1 X136.930 Y54.189 E29.48601
G1 X137.500 Y54.329 E29.52612
G1 X137.880 Y54.449 E29.55335
G1 X138.410 Y54.669 E29.59257
G1 X138.740 Y54.839 E29.61793
G1 X139.240 Y55.139 E29.65778
G1 X139.600 Y55.399 E29.68812
G1 X140.040 Y55.779 E29.72785
G1 X140.310 Y56.049 E29.75394
G1 X140.690 Y56.489 E29.79367
G1 X140.950 Y56.849 E29.82402
G1 X141.250 Y57.349 E29.86386
G1 X141.420 Y57.679 E29.88923
G1 X141.640 Y58.209 E29.92844
G1 X141.760 Y58.589 E29.95567
G1 X141.900 Y59.159 E29.99578
G1 X141.960 Y59.549 E30.02274
G1 X142.010 Y60.139 E30.06321
G1 X142.020 Y60.359 E30.07825
G1 X142.020 Y93.168 E32.32029
G1 X141.990 Y93.369 E32.33411
G1 X141.950 Y93.559 E32.34738
G1 X141.900 Y93.749 E32.36080
G1 X141.830 Y93.939 E32.37464
G1 X141.750 Y94.119 E32.38810
G1 X141.650 Y94.299 E32.40217
G1 X141.540 Y94.459 E32.41544
G1 X127.600 Y113.989 E34.05508
G1 X127.330 Y114.319 E34.08422
G1 X125.990 Y115.659 E34.21372
G1 X125.870 Y115.769 E34.22484
G1 X125.750 Y115.869 E34.23551
G1 X125.620 Y115.969 E34.24672
G1 X125.480 Y116.059 E34.25810
G1 X125.340 Y116.129 E34.26879
G1 X123.650 Y116.989 E34.39837
G1 X123.500 Y117.059 E34.40968
G1 X123.350 Y117.119 E34.42072
G1 X123.190 Y117.168 E34.43217
G1 X123.040 Y117.209 E34.44278
G1 X122.880 Y117.239 E34.45391
G1 X121.020 Y117.529 E34.58254
G1 X120.880 Y117.548 E34.59221
G1 X120.750 Y117.559 E34.60112
G1 X120.480 Y117.559 E34.61957
G1 X120.350 Y117.548 E34.62848
G1 X67.580 Y111.879 E38.25521
G1 X67.280 Y111.828 E38.27599
G1 X44.760 Y106.709 E39.85414
G1 X44.660 Y106.679 E39.86127
G1 X44.570 Y106.659 E39.86757
G1 X44.470 Y106.629 E39.87471
G1 X44.380 Y106.589 E39.88144
G1 X44.280 Y106.548 E39.88880
G1 X42.080 Y105.569 E40.05337
G1 X41.980 Y105.519 E40.06101
G1 X41.890 Y105.459 E40.06841
G1 X41.800 Y105.409 E40.07544
G1 X41.710 Y105.349 E40.08283
G1 X39.840 Y103.999 E40.24044
G1 X39.760 Y103.929 E40.24770
G1 X39.670 Y103.858 E40.25549
G1 X39.590 Y103.779 E40.26322
G1 X39.510 Y103.709 E40.27049
G1 X39.430 Y103.629 E40.27822
G1 X37.890 Y101.909 E40.43598
G1 X37.820 Y101.828 E40.44324
G1 X37.760 Y101.739 E40.45063
G1 X37.700 Y101.659 E40.45747
G1 X37.580 Y101.479 E40.47225
G1 X36.420 Y99.478 E40.63024
G1 X36.370 Y99.379 E40.63788
G1 X36.320 Y99.288 E40.64492
G1 X36.280 Y99.189 E40.65228
G1 X36.240 Y99.078 E40.66028
G1 X36.200 Y98.978 E40.66764
G1 X35.490 Y96.779 E40.82560
G1 X35.460 Y96.679 E40.83274
G1 X35.430 Y96.569 E40.84053
G1 X35.410 Y96.469 E40.84750
G1 X35.390 Y96.358 E40.85514
G1 X35.380 Y96.258 E40.86201
G1 X35.140 Y93.959 E41.02003
G1 X35.130 Y93.809 E41.03030
G1 X33.570 Y61.038 E43.27214
G1 X33.570 Y55.289 E43.66506
G1 X33.590 Y55.119 E43.67675
G1 X33.620 Y54.939 E43.68922
G1 X33.660 Y54.769 E43.70116
G1 X33.720 Y54.599 E43.71348
G1 X33.790 Y54.429 E43.72604
G1 F1800.000 E42.92604
G92 E0
G1 X86.587 Y66.389 F10800.000
G1 F1800.000 E0.80000
G1 X86.758 Y65.752 F1200.000 E0.84506
G1 X86.994 Y65.136 E0.89012
G1 X87.294 Y64.548 E0.93519
G1 X87.653 Y63.995 E0.98026
G1 X88.068 Y63.483 E1.02532
G1 X88.534 Y63.016 E1.07039
G1 X89.047 Y62.601 E1.11545
G1 X89.600 Y62.242 E1.16051
G1 X90.187 Y61.943 E1.20558
G1 X90.803 Y61.706 E1.25064
G1 X91.440 Y61.536 E1.29571
G1 X92.091 Y61.433 E1.34077
G1 X92.742 Y61.398 E1.38530
G1 X102.658 Y61.398 E2.06287
G1 X100.668 Y65.221 E2.35733
G1 X100.787 Y65.287 E2.36665
G1 X100.049 Y66.734 E2.47770
G1 X99.941 Y67.076 E2.50219
G1 X95.582 Y77.599 E3.28047
G1 X86.450 Y77.599 E3.90452
G1 X86.450 Y67.691 E4.58156
G1 X86.484 Y67.040 E4.62609
G1 X86.587 Y66.389 E4.67116
G1 X86.948 Y65.943 F10800.000
G1 F1800.000 E3.87116
G92 E0
G1 X91.968 Y92.170 F10800.000
G1 F1800.000 E0.80000
G1 X95.027 Y92.170 F1200.000 E1.00904
G1 X96.492 Y92.461 E1.11112
G1 X97.759 Y93.308 E1.21526
G1 X98.506 Y94.426 E1.30711
G1 X98.571 Y94.402 E1.31187
G1 X98.903 Y96.070 E1.42806
G1 X98.606 Y97.565 E1.53221
G1 X97.759 Y98.832 E1.63634
G1 X96.492 Y99.678 E1.74049
G1 X95.027 Y99.970 E1.84256
G1 X91.968 Y99.970 E2.05160
G1 X90.502 Y99.678 E2.15369
G1 X89.235 Y98.832 E2.25783
G1 X88.389 Y97.565 E2.36197
G1 X88.091 Y96.070 E2.46611
G1 X88.389 Y94.575 E2.57025
G1 X89.235 Y93.308 E2.67439
G1 X90.502 Y92.461 E2.77853
G1 X91.968 Y92.170 E2.88061
G1 F1800.000 E2.08061
G92 E0
G1 X37.295 Y56.235 F10800.000
G1 F1800.000 E0.80000
G1 X37.864 Y56.145 F1200.000 E0.83936
G1 X107.636 Y56.145 E5.60717
G1 X108.379 Y56.263 E5.65857
G1 X108.516 Y56.332 E5.66906
G1 X108.516 Y56.332 E5.66906
G1 X108.946 Y56.552 E5.70209
G1 X109.397 Y57.002 E5.74560
G1 X109.483 Y57.171 E5.75855
G1 X109.483 Y57.171 E5.75857
G1 X109.686 Y57.569 E5.78912
G1 X109.864 Y58.691 E5.86673
G1 X110.025 Y62.386 E6.11946
G1 X110.216 Y63.836 E6.21939
G1 X108.021 Y63.399 E6.37231
G1 X104.736 Y63.399 E6.59677
G1 X102.930 Y63.759 E6.72264
G1 X102.807 Y63.595 E6.73663
G1 X104.547 Y60.252 E6.99414
G1 X92.712 Y60.252 E7.80286
G1 X91.971 Y60.291 E7.85354
G1 X91.201 Y60.413 E7.90682
G1 X90.448 Y60.615 E7.96009
G1 X89.721 Y60.894 E8.01336
G1 X89.026 Y61.248 E8.06664
G1 X88.372 Y61.673 E8.11991
G1 X87.766 Y62.163 E8.17319
G1 X87.215 Y62.715 E8.22647
G1 X86.724 Y63.320 E8.27974
G1 X86.300 Y63.974 E8.33302
G1 X85.946 Y64.669 E8.38630
G1 X85.666 Y65.397 E8.43957
G1 X85.464 Y66.150 E8.49284
G1 X85.342 Y66.920 E8.54612
G1 X85.304 Y67.661 E8.59680
G1 X85.304 Y78.745 E9.35423
G1 X96.348 Y78.745 E10.10896
G1 X99.882 Y70.215 E10.73990
G1 X100.063 Y70.197 E10.75230
G1 X101.290 Y72.034 E10.90330
G1 X102.937 Y73.134 E11.03860
G1 X104.736 Y73.492 E11.16398
G1 X106.534 Y73.492 E11.28681
G1 X106.624 Y73.749 E11.30542
G1 X104.728 Y75.261 E11.47112
G1 X103.197 Y76.755 E11.61724
G1 X101.823 Y78.392 E11.76333
G1 X100.618 Y80.159 E11.90944
G1 X99.596 Y82.036 E12.05553
G1 X98.765 Y84.007 E12.20168
G1 X98.135 Y86.050 E12.34779
G1 X97.711 Y88.146 E12.49390
G1 X97.499 Y90.274 E12.64001
G1 X97.499 Y91.563 E12.72812
G1 X97.339 Y91.648 E12.74052
G1 X96.939 Y91.382 E12.77335
G1 X95.140 Y91.024 E12.89872
G1 X91.855 Y91.024 E13.12319
G1 X90.055 Y91.382 E13.24857
G1 X88.409 Y92.482 E13.38387
G1 X87.309 Y94.128 E13.51918
G1 X86.923 Y96.070 E13.65448
G1 X87.309 Y98.012 E13.78979
G1 X88.409 Y99.658 E13.92509
G1 X90.055 Y100.758 E14.06039
G1 X91.855 Y101.116 E14.18578
G1 X95.140 Y101.116 E14.41025
G1 X96.939 Y100.758 E14.53562
G1 X98.586 Y99.658 E14.67093
G1 X99.686 Y98.012 E14.80623
G1 X99.794 Y97.467 E14.84418
G1 X99.964 Y97.414 E14.85638
G1 X101.702 Y99.110 E15.02227
G1 X103.374 Y100.443 E15.16840
G1 X105.170 Y101.604 E15.31454
G1 X107.072 Y102.578 E15.46060
G1 X109.063 Y103.360 E15.60672
G1 X111.122 Y103.939 E15.75289
G1 X113.227 Y104.310 E15.89896
G1 X115.359 Y104.470 E16.04506
G1 X116.889 Y104.432 E16.14966
G1 X116.983 Y104.728 E16.17090
G1 X116.033 Y105.363 E16.24898
G1 X114.933 Y107.009 E16.38429
G1 X114.547 Y108.951 E16.51959
G1 X114.933 Y110.893 E16.65490
G1 X115.961 Y112.431 E16.78131
G1 X115.798 Y112.649 E16.79985
G1 X112.814 Y111.707 E17.01367
G1 X104.173 Y109.792 E17.61845
G1 X95.399 Y108.637 E18.22317
G1 X88.187 Y108.322 E18.71646
G1 X88.187 Y108.252 E18.72124
G1 X68.807 Y108.252 E20.04558
G1 X68.038 Y108.192 E20.09825
G1 X67.344 Y108.025 E20.14704
G1 X66.685 Y107.752 E20.19582
G1 X66.076 Y107.379 E20.24460
G1 X65.533 Y106.915 E20.29338
G1 X65.070 Y106.372 E20.34216
G1 X64.697 Y105.764 E20.39094
G1 X64.423 Y105.104 E20.43971
G1 X64.257 Y104.410 E20.48850
G1 X64.196 Y103.642 E20.54117
G1 X64.196 Y97.805 E20.94003
G1 X64.415 Y97.714 E20.95619
G1 X64.947 Y98.247 E21.00765
G1 X65.992 Y99.093 E21.09955
G1 X67.120 Y99.825 E21.19145
G1 X68.319 Y100.436 E21.28335
G1 X69.574 Y100.918 E21.37525
G1 X70.873 Y101.266 E21.46714
G1 X72.202 Y101.477 E21.55905
G1 X73.544 Y101.547 E21.65095
G1 X74.887 Y101.477 E21.74284
G1 X76.216 Y101.266 E21.83475
G1 X77.515 Y100.918 E21.92665
G1 X78.770 Y100.436 E22.01854
G1 X79.969 Y99.826 E22.11044
G1 X81.097 Y99.093 E22.20234
G1 X82.142 Y98.247 E22.29424
G1 X83.093 Y97.296 E22.38614
G1 X83.939 Y96.251 E22.47804
G1 X84.672 Y95.123 E22.56994
G1 X85.282 Y93.924 E22.66184
G1 X85.764 Y92.669 E22.75374
G1 X86.112 Y91.370 E22.84564
G1 X86.322 Y90.041 E22.93754
G1 X86.393 Y88.698 E23.02944
G1 X86.322 Y87.356 E23.12133
G1 X86.112 Y86.027 E23.21324
G1 X85.764 Y84.728 E23.30514
G1 X85.282 Y83.473 E23.39703
G1 X84.672 Y82.274 E23.48893
G1 X83.939 Y81.146 E23.58083
G1 X83.093 Y80.101 E23.67273
G1 X82.142 Y79.150 E23.76464
G1 X81.097 Y78.304 E23.85653
G1 X79.969 Y77.571 E23.94843
G1 X78.770 Y76.961 E24.04033
G1 X77.515 Y76.479 E24.13223
G1 X76.216 Y76.131 E24.22413
G1 X74.887 Y75.920 E24.31603
G1 X73.544 Y75.850 E24.40793
G1 X72.202 Y75.920 E24.49983
G1 X70.873 Y76.131 E24.59173
G1 X69.574 Y76.479 E24.68363
G1 X68.319 Y76.961 E24.77553
G1 X67.120 Y77.571 E24.86743
G1 X65.992 Y78.304 E24.95933
G1 X64.947 Y79.150 E25.05122
G1 X64.415 Y79.683 E25.10269
G1 X64.196 Y79.592 E25.11884
G1 X64.196 Y67.661 E25.93418
G1 X64.158 Y66.920 E25.98487
G1 X64.036 Y66.150 E26.03814
G1 X63.834 Y65.397 E26.09141
G1 X63.554 Y64.669 E26.14469
G1 X63.200 Y63.974 E26.19796
G1 X62.776 Y63.320 E26.25124
G1 X62.285 Y62.715 E26.30451
G1 X61.734 Y62.163 E26.35779
G1 X61.128 Y61.673 E26.41107
G1 X60.474 Y61.248 E26.46434
G1 X59.780 Y60.894 E26.51762
G1 X59.052 Y60.615 E26.57089
G1 X58.299 Y60.413 E26.62417
G1 X57.529 Y60.291 E26.67744
G1 X56.788 Y60.252 E26.72813
G1 X37.864 Y60.252 E28.02128
G1 X37.295 Y60.162 E28.06063
G1 X37.295 Y56.235 E28.32899
G1 X36.942 Y55.711 F10800.000
G1 X37.819 Y55.572 F1200.000 E28.38967
G1 X107.681 Y55.572 E33.16365
G1 X108.558 Y55.711 E33.22433
G1 X108.838 Y55.853 E33.24581
G1 X108.838 Y55.853 E33.24582
G1 X109.288 Y56.082 E33.28026
G1 X109.866 Y56.661 E33.33618
G1 X109.943 Y56.811 E33.34768
G1 X109.943 Y56.811 E33.34769
G1 X110.238 Y57.390 E33.39212
G1 X110.435 Y58.634 E33.47815
G1 X110.596 Y62.336 E33.73138
G1 X110.942 Y64.958 E33.91211
G1 X110.757 Y65.073 E33.92694
G1 X109.597 Y64.297 E34.02232
G1 X107.965 Y63.973 E34.13605
G1 X104.793 Y63.973 E34.35280
G1 X103.160 Y64.297 E34.46653
G1 X101.627 Y65.322 E34.59256
G1 X101.378 Y65.099 E34.61541
G1 X103.602 Y60.825 E34.94461
G1 X92.727 Y60.825 E35.68776
G1 X92.031 Y60.862 E35.73536
G1 X91.321 Y60.974 E35.78453
G1 X90.626 Y61.161 E35.83370
G1 X89.954 Y61.418 E35.88287
G1 X89.313 Y61.745 E35.93204
G1 X88.709 Y62.137 E35.98121
G1 X88.150 Y62.590 E36.03038
G1 X87.641 Y63.099 E36.07955
G1 X87.189 Y63.658 E36.12872
G1 X86.797 Y64.261 E36.17789
G1 X86.470 Y64.903 E36.22707
G1 X86.212 Y65.574 E36.27623
G1 X86.026 Y66.269 E36.32540
G1 X85.913 Y66.980 E36.37457
G1 X85.877 Y67.676 E36.42217
G1 X85.877 Y78.172 E37.13941
G1 X95.965 Y78.172 E37.82880
G1 X100.062 Y68.283 E38.56020
G1 X100.362 Y68.313 E38.58082
G1 X100.730 Y70.164 E38.70980
G1 X101.703 Y71.621 E38.82953
G1 X103.160 Y72.594 E38.94925
G1 X104.793 Y72.919 E39.06298
G1 X108.248 Y72.919 E39.29913
G1 X108.329 Y73.256 E39.32280
G1 X107.766 Y73.543 E39.36600
G1 X107.844 Y73.677 E39.37661
G1 X106.735 Y74.394 E39.46687
G1 X105.107 Y75.691 E39.60909
G1 X103.618 Y77.145 E39.75131
G1 X102.280 Y78.739 E39.89349
G1 X101.108 Y80.458 E40.03569
