; generated by Slic3r 0.9.6-dev on 2012-11-17 at 08:00:36

; layer_height = 0.35
; perimeters = 3
; top_solid_layers = 3
; bottom_solid_layers = 3
; fill_density = 0.20
; perimeter_speed = 50
; infill_speed = 75
; travel_speed = 160
; scale = 1
; nozzle_diameter = 0.35
; filament_diameter = 1.74
; extrusion_multiplier = 1
; perimeters extrusion width = 0.37mm
; infill extrusion width = 0.37mm
; first layer extrusion width = 0.37mm

G28 ; home all axes
M106;
G90 ; use absolute coordinates
G21 ; set units to millimeters
G92 E0
M82 ; use absolute distances for extrusion
G1 F1200.000 E-1.00000
G92 E0
G1 Z0.350 F9600.000
G1 X47.736 Y67.127
G1 F1200.000 E1.00000
G1 X62.516 Y56.457 F900.000 E1.97598
G1 X62.746 Y56.297 E1.99098
G1 X62.986 Y56.147 E2.00613
G1 X63.226 Y56.007 E2.02101
G1 X63.476 Y55.877 E2.03609
G1 X63.726 Y55.767 E2.05072
G1 X63.986 Y55.657 E2.06583
G1 X64.256 Y55.557 E2.08125
G1 X64.516 Y55.467 E2.09598
G1 X64.786 Y55.397 E2.11091
G1 X65.066 Y55.327 E2.12636
G1 X65.336 Y55.277 E2.14106
G1 X65.616 Y55.237 E2.15621
G1 X65.896 Y55.207 E2.17128
G1 X66.176 Y55.187 E2.18631
G1 X74.736 Y55.187 E2.64461
G1 X116.666 Y55.737 E4.88973
G1 X116.956 Y55.747 E4.90526
G1 X117.256 Y55.767 E4.92136
G1 X117.546 Y55.807 E4.93703
G1 X117.836 Y55.857 E4.95279
G1 X118.126 Y55.917 E4.96865
G1 X118.406 Y55.987 E4.98410
G1 X118.686 Y56.077 E4.99984
G1 X118.966 Y56.177 E5.01576
G1 X119.236 Y56.287 E5.03137
G1 X119.506 Y56.407 E5.04719
G1 X119.766 Y56.537 E5.06275
G1 X120.026 Y56.687 E5.07883
G1 X120.276 Y56.837 E5.09443
G1 X120.516 Y57.007 E5.11018
G1 X135.306 Y67.677 E6.08659
G1 X135.526 Y67.847 E6.10148
G1 X135.736 Y68.017 E6.11594
G1 X135.936 Y68.197 E6.13035
G1 X136.136 Y68.387 E6.14512
G1 X136.326 Y68.587 E6.15989
G1 X136.506 Y68.797 E6.17470
G1 X136.676 Y69.007 E6.18916
G1 X136.846 Y69.227 E6.20405
G1 X137.146 Y69.687 E6.23345
G1 X137.406 Y70.167 E6.26268
G1 X137.526 Y70.417 E6.27753
G1 X137.626 Y70.667 E6.29194
G1 X137.726 Y70.927 E6.30686
G1 X137.886 Y71.447 E6.33598
G1 X137.946 Y71.717 E6.35079
G1 X137.996 Y71.987 E6.36549
G1 X138.036 Y72.257 E6.38011
G1 X138.066 Y72.527 E6.39465
G1 X138.086 Y72.797 E6.40915
G1 X139.656 Y104.277 E8.09667
G1 X139.666 Y104.617 E8.11488
G1 X139.666 Y111.687 E8.49341
G1 X139.646 Y111.957 E8.50791
G1 X139.616 Y112.237 E8.52298
G1 X139.576 Y112.507 E8.53760
G1 X139.526 Y112.777 E8.55230
G1 X139.466 Y113.047 E8.56711
G1 X139.386 Y113.317 E8.58218
G1 X139.306 Y113.577 E8.59675
G1 X139.216 Y113.837 E8.61148
G1 X139.106 Y114.097 E8.62659
G1 X138.866 Y114.597 E8.65629
G1 X138.726 Y114.837 E8.67116
G1 X138.586 Y115.067 E8.68558
G1 X138.266 Y115.527 E8.71558
G1 X137.906 Y115.947 E8.74520
G1 X137.716 Y116.147 E8.75997
G1 X137.516 Y116.337 E8.77474
G1 X137.306 Y116.527 E8.78990
G1 X137.096 Y116.697 E8.80436
G1 X136.876 Y116.867 E8.81925
G1 X122.096 Y127.537 E9.79523
G1 X121.866 Y127.697 E9.81023
G1 X121.626 Y127.847 E9.82538
G1 X121.386 Y127.987 E9.84026
G1 X121.136 Y128.117 E9.85534
G1 X120.886 Y128.227 E9.86996
G1 X120.626 Y128.337 E9.88508
G1 X120.356 Y128.437 E9.90050
G1 X120.096 Y128.527 E9.91523
G1 X119.826 Y128.597 E9.93016
G1 X119.546 Y128.667 E9.94561
G1 X119.276 Y128.717 E9.96031
G1 X118.996 Y128.757 E9.97546
G1 X118.716 Y128.787 E9.99053
G1 X118.436 Y128.807 E10.00556
G1 X65.556 Y128.807 E12.83674
G1 X65.276 Y128.787 E12.85177
G1 X64.996 Y128.757 E12.86685
G1 X64.716 Y128.717 E12.88199
G1 X64.446 Y128.667 E12.89669
G1 X64.166 Y128.597 E12.91215
G1 X63.896 Y128.527 E12.92708
G1 X63.636 Y128.437 E12.94181
G1 X63.366 Y128.337 E12.95723
G1 X63.106 Y128.227 E12.97234
G1 X62.856 Y128.117 E12.98696
G1 X62.606 Y127.987 E13.00205
G1 X62.366 Y127.847 E13.01693
G1 X62.126 Y127.697 E13.03208
G1 X61.896 Y127.537 E13.04708
G1 X47.116 Y116.867 E14.02306
G1 X46.896 Y116.697 E14.03794
G1 X46.686 Y116.527 E14.05241
G1 X46.476 Y116.337 E14.06757
G1 X46.276 Y116.147 E14.08234
G1 X46.086 Y115.947 E14.09711
G1 X45.726 Y115.527 E14.12673
G1 X45.406 Y115.067 E14.15673
G1 X45.266 Y114.837 E14.17114
G1 X45.126 Y114.597 E14.18602
G1 X44.886 Y114.097 E14.21571
G1 X44.776 Y113.837 E14.23083
G1 X44.686 Y113.577 E14.24556
G1 X44.606 Y113.317 E14.26012
G1 X44.526 Y113.047 E14.27520
G1 X44.466 Y112.777 E14.29001
G1 X44.416 Y112.507 E14.30471
G1 X44.376 Y112.237 E14.31932
G1 X44.346 Y111.957 E14.33440
G1 X44.326 Y111.687 E14.34890
G1 X44.326 Y104.487 E14.73438
G1 X44.946 Y72.457 E16.44958
G1 X44.956 Y72.187 E16.46405
G1 X44.976 Y71.917 E16.47854
G1 X45.006 Y71.647 E16.49309
G1 X45.056 Y71.377 E16.50779
G1 X45.106 Y71.117 E16.52196
G1 X45.176 Y70.847 E16.53690
G1 X45.246 Y70.587 E16.55131
G1 X45.336 Y70.337 E16.56554
G1 X45.426 Y70.077 E16.58027
G1 X45.536 Y69.827 E16.59489
G1 X45.776 Y69.347 E16.62363
G1 X45.916 Y69.107 E16.63850
G1 X46.056 Y68.877 E16.65292
G1 X46.206 Y68.657 E16.66717
G1 X46.376 Y68.437 E16.68206
G1 X46.546 Y68.227 E16.69652
G1 X46.726 Y68.027 E16.71093
G1 X46.916 Y67.827 E16.72570
G1 X47.106 Y67.647 E16.73971
G1 X47.306 Y67.467 E16.75412
G1 X47.516 Y67.297 E16.76858
G1 X47.736 Y67.127 E16.78347
G1 X47.946 Y67.427 F9600.000
G1 X62.726 Y56.757 F900.000 E17.75945
G1 X62.966 Y56.597 E17.77489
G1 X63.206 Y56.447 E17.79004
G1 X63.456 Y56.307 E17.80538
G1 X63.706 Y56.177 E17.82047
G1 X63.966 Y56.057 E17.83580
G1 X64.226 Y55.957 E17.85072
G1 X64.496 Y55.857 E17.86613
G1 X64.766 Y55.777 E17.88121
G1 X65.046 Y55.707 E17.89666
G1 X65.606 Y55.607 E17.92712
G1 X65.886 Y55.577 E17.94219
G1 X66.176 Y55.557 E17.95776
G1 X66.456 Y55.547 E17.97276
G1 X74.726 Y55.547 E18.41553
G1 X116.656 Y56.097 E20.66064
G1 X116.936 Y56.107 E20.67565
G1 X117.216 Y56.137 E20.69072
G1 X117.486 Y56.167 E20.70527
G1 X117.766 Y56.217 E20.72050
G1 X118.036 Y56.267 E20.73520
G1 X118.306 Y56.337 E20.75013
G1 X118.576 Y56.427 E20.76537
G1 X118.836 Y56.517 E20.78010
G1 X119.096 Y56.617 E20.79501
G1 X119.596 Y56.857 E20.82471
G1 X119.836 Y56.997 E20.83958
G1 X120.076 Y57.147 E20.85474
G1 X120.296 Y57.307 E20.86930
G1 X135.086 Y67.977 E21.84571
G1 X135.306 Y68.137 E21.86028
G1 X135.516 Y68.307 E21.87474
G1 X135.916 Y68.687 E21.90428
G1 X136.096 Y68.877 E21.91829
G1 X136.276 Y69.087 E21.93310
G1 X136.446 Y69.297 E21.94757
G1 X136.606 Y69.517 E21.96213
G1 X136.756 Y69.747 E21.97683
G1 X136.896 Y69.977 E21.99125
G1 X137.026 Y70.217 E22.00586
G1 X137.146 Y70.457 E22.02023
G1 X137.246 Y70.707 E22.03464
G1 X137.346 Y70.967 E22.04956
G1 X137.436 Y71.217 E22.06379
G1 X137.516 Y71.477 E22.07835
G1 X137.576 Y71.747 E22.09316
G1 X137.636 Y72.007 E22.10744
G1 X137.676 Y72.277 E22.12206
G1 X137.706 Y72.547 E22.13660
G1 X137.726 Y72.817 E22.15110
G1 X139.296 Y104.297 E23.83862
G1 X139.306 Y104.617 E23.85576
G1 X139.306 Y111.407 E24.21930
G1 X139.296 Y111.677 E24.23376
G1 X139.276 Y111.957 E24.24879
G1 X139.246 Y112.227 E24.26334
G1 X139.206 Y112.497 E24.27795
G1 X139.156 Y112.767 E24.29265
G1 X139.096 Y113.027 E24.30694
G1 X139.016 Y113.297 E24.32202
G1 X138.926 Y113.557 E24.33675
G1 X138.836 Y113.807 E24.35097
G1 X138.726 Y114.057 E24.36560
G1 X138.606 Y114.307 E24.38044
G1 X138.476 Y114.547 E24.39506
G1 X138.336 Y114.777 E24.40947
G1 X138.186 Y115.007 E24.42417
G1 X138.026 Y115.237 E24.43917
G1 X137.856 Y115.447 E24.45364
G1 X137.676 Y115.657 E24.46845
G1 X137.486 Y115.857 E24.48322
G1 X137.296 Y116.047 E24.49760
G1 X137.096 Y116.227 E24.51201
G1 X136.876 Y116.407 E24.52723
G1 X136.666 Y116.567 E24.54136
G1 X121.886 Y127.237 E25.51734
G1 X121.646 Y127.397 E25.53278
G1 X121.406 Y127.547 E25.54794
G1 X121.156 Y127.687 E25.56328
G1 X120.906 Y127.817 E25.57836
G1 X120.646 Y127.937 E25.59370
G1 X120.386 Y128.037 E25.60861
G1 X120.116 Y128.137 E25.62403
G1 X119.846 Y128.217 E25.63910
G1 X119.566 Y128.287 E25.65455
G1 X119.006 Y128.387 E25.68501
G1 X118.726 Y128.417 E25.70009
G1 X118.436 Y128.437 E25.71565
G1 X118.156 Y128.447 E25.73065
G1 X65.836 Y128.447 E28.53185
G1 X65.556 Y128.437 E28.54685
G1 X65.266 Y128.417 E28.56241
G1 X64.986 Y128.387 E28.57749
G1 X64.426 Y128.287 E28.60795
G1 X64.146 Y128.217 E28.62340
G1 X63.876 Y128.137 E28.63848
G1 X63.606 Y128.037 E28.65389
G1 X63.346 Y127.937 E28.66881
G1 X63.086 Y127.817 E28.68414
G1 X62.836 Y127.687 E28.69922
G1 X62.586 Y127.547 E28.71457
G1 X62.346 Y127.397 E28.72972
G1 X62.106 Y127.237 E28.74516
G1 X47.326 Y116.567 E29.72114
G1 X47.116 Y116.407 E29.73527
G1 X46.896 Y116.227 E29.75049
G1 X46.696 Y116.047 E29.76490
G1 X46.506 Y115.857 E29.77928
G1 X46.316 Y115.657 E29.79405
G1 X46.136 Y115.447 E29.80886
G1 X45.966 Y115.237 E29.82333
G1 X45.806 Y115.007 E29.83833
G1 X45.656 Y114.777 E29.85303
G1 X45.516 Y114.547 E29.86745
G1 X45.386 Y114.307 E29.88206
G1 X45.266 Y114.057 E29.89691
G1 X45.156 Y113.807 E29.91153
G1 X45.066 Y113.557 E29.92576
G1 X44.976 Y113.297 E29.94049
G1 X44.896 Y113.027 E29.95556
G1 X44.836 Y112.767 E29.96985
G1 X44.786 Y112.497 E29.98455
G1 X44.746 Y112.227 E29.99916
G1 X44.716 Y111.957 E30.01371
G1 X44.696 Y111.677 E30.02874
G1 X44.686 Y111.407 E30.04320
G1 X44.686 Y104.617 E30.40674
G1 X44.696 Y104.497 E30.41319
G1 X45.316 Y72.467 E32.12838
G1 X45.326 Y72.197 E32.14285
G1 X45.346 Y71.927 E32.15734
G1 X45.376 Y71.667 E32.17136
G1 X45.426 Y71.397 E32.18606
G1 X45.476 Y71.137 E32.20023
G1 X45.546 Y70.877 E32.21465
G1 X45.626 Y70.617 E32.22921
G1 X45.706 Y70.367 E32.24327
G1 X45.806 Y70.117 E32.25768
G1 X45.916 Y69.877 E32.27182
G1 X46.036 Y69.637 E32.28619
G1 X46.166 Y69.397 E32.30080
G1 X46.306 Y69.167 E32.31522
G1 X46.456 Y68.947 E32.32947
G1 X46.616 Y68.727 E32.34404
G1 X46.776 Y68.517 E32.35817
G1 X46.956 Y68.317 E32.37258
G1 X47.136 Y68.127 E32.38659
G1 X47.326 Y67.937 E32.40098
G1 X47.526 Y67.757 E32.41538
G1 X47.736 Y67.587 E32.42985
G1 X47.946 Y67.427 E32.44398
G1 F1200.000 E31.44398
G92 E0
G1 X80.602 Y108.017 F9600.000
G1 F1200.000 E1.00000
G1 X81.858 Y105.408 F900.000 E1.15499
G1 X84.680 Y104.764 E1.30998
G1 X86.943 Y106.569 E1.46497
G1 X86.943 Y109.464 E1.61996
G1 X84.680 Y111.269 E1.77495
G1 X81.858 Y110.625 E1.92994
G1 X80.602 Y108.017 E2.08493
G1 X81.008 Y108.017 F9600.000
G1 X82.111 Y105.726 F900.000 E2.22106
G1 X84.590 Y105.160 E2.35719
G1 X86.578 Y106.745 E2.49333
G1 X86.578 Y109.288 E2.62947
G1 X84.590 Y110.873 E2.76561
G1 X82.111 Y110.308 E2.90174
G1 X81.008 Y108.017 E3.03787
G1 X81.413 Y108.017 F9600.000
G1 X82.364 Y106.043 F900.000 E3.15516
G1 X84.499 Y105.556 E3.27243
G1 X86.212 Y106.921 E3.38972
G1 X86.212 Y109.112 E3.50700
G1 X84.499 Y110.478 E3.62428
G1 X82.364 Y109.990 E3.74156
G1 X81.413 Y108.017 E3.85884
G1 X81.819 Y108.017 F9600.000
G1 X82.617 Y106.360 F900.000 E3.95727
G1 X84.409 Y105.951 E4.05570
G1 X85.847 Y107.097 E4.15413
G1 X85.847 Y108.936 E4.25256
G1 X84.409 Y110.082 E4.35099
G1 X82.617 Y109.673 E4.44941
G1 X81.819 Y108.017 E4.54784
G1 X76.945 Y111.047 F9600.000
G1 X62.931 Y111.047 F900.000 E5.29812
G1 X62.931 Y104.586 E5.64405
G1 X65.076 Y104.586 E5.75891
G1 X66.494 Y104.732 E5.83521
G1 X68.245 Y104.842 E5.92913
G1 X69.938 Y104.877 E6.01980
G1 X71.631 Y104.842 E6.11046
G1 X73.382 Y104.732 E6.20438
G1 X74.799 Y104.586 E6.28068
G1 X76.945 Y104.586 E6.39554
G1 X76.945 Y111.047 E6.74147
G1 X76.579 Y110.682 F9600.000
G1 X63.297 Y110.682 F900.000 E7.45260
G1 X63.297 Y104.952 E7.75938
G1 X65.058 Y104.952 E7.85366
G1 X66.464 Y105.097 E7.92935
G1 X68.229 Y105.207 E8.02407
G1 X69.938 Y105.243 E8.11555
G1 X71.646 Y105.207 E8.20704
G1 X73.412 Y105.097 E8.30176
G1 X74.818 Y104.952 E8.37745
G1 X76.579 Y104.952 E8.47172
G1 X76.579 Y110.682 E8.77850
G1 X76.213 Y110.316 F9600.000
G1 X63.662 Y110.316 F900.000 E9.45048
G1 X63.662 Y105.317 E9.71811
G1 X65.039 Y105.317 E9.79181
G1 X66.434 Y105.461 E9.86688
G1 X68.214 Y105.573 E9.96241
G1 X69.938 Y105.609 E10.05471
G1 X70.497 Y105.597 E10.08467
G1 X70.497 Y105.597 E10.08467
G1 X71.661 Y105.573 E10.14701
G1 X73.442 Y105.461 E10.24253
G1 X74.837 Y105.317 E10.31761
G1 X76.213 Y105.317 E10.39130
G1 X76.213 Y110.316 E10.65893
G1 X75.848 Y109.950 F9600.000
G1 X64.028 Y109.950 F900.000 E11.29176
G1 X64.028 Y105.683 E11.52024
G1 X65.020 Y105.683 E11.57335
G1 X66.403 Y105.826 E11.64781
G1 X68.199 Y105.938 E11.74414
G1 X69.938 Y105.975 E11.83725
G1 X71.677 Y105.938 E11.93037
G1 X73.472 Y105.826 E12.02670
G1 X74.856 Y105.683 E12.10116
G1 X75.848 Y105.683 E12.15427
G1 X75.848 Y109.950 E12.38275
G1 F1200.000 E11.38275
G92 E0
G1 X58.943 Y109.464 F9600.000
G1 F1200.000 E1.00000
G1 X56.680 Y111.269 F900.000 E1.15499
G1 X53.858 Y110.625 E1.30998
G1 X52.602 Y108.017 E1.46497
G1 X53.858 Y105.408 E1.61996
G1 X56.680 Y104.764 E1.77494
G1 X58.943 Y106.569 E1.92993
G1 X58.943 Y109.464 E2.08493
G1 X58.578 Y109.288 F9600.000
G1 X56.590 Y110.873 F900.000 E2.22106
G1 X54.111 Y110.308 E2.35719
G1 X53.008 Y108.017 E2.49333
G1 X54.111 Y105.726 E2.62947
G1 X56.590 Y105.160 E2.76560
G1 X58.578 Y106.745 E2.90174
G1 X58.578 Y109.288 E3.03787
G1 X58.212 Y109.112 F9600.000
G1 X56.499 Y110.478 F900.000 E3.15516
G1 X54.364 Y109.990 E3.27244
G1 X53.413 Y108.017 E3.38972
G1 X54.364 Y106.043 E3.50700
G1 X56.499 Y105.556 E3.62428
G1 X58.212 Y106.921 E3.74156
G1 X58.212 Y109.112 E3.85885
G1 X57.847 Y108.936 F9600.000
G1 X56.409 Y110.082 F900.000 E3.95727
G1 X54.617 Y109.673 E4.05570
G1 X53.819 Y108.017 E4.15413
G1 X54.617 Y106.360 E4.25256
G1 X56.409 Y105.951 E4.35098
G1 X57.847 Y107.097 E4.44941
G1 X57.847 Y108.936 E4.54784
G1 F1200.000 E3.54784
G92 E0
G1 X66.295 Y120.986 F9600.000
G1 F1200.000 E1.00000
G1 X61.218 Y115.910 F900.000 E1.38438
G1 X61.218 Y113.736 E1.50074
G1 X57.281 Y113.736 E1.71156
G1 X52.156 Y110.777 E2.02838
G1 X52.156 Y105.256 E2.32399
G1 X57.281 Y102.297 E2.64081
G1 X61.218 Y102.297 E2.85162
G1 X61.218 Y100.124 E2.96799
G1 X66.295 Y95.047 E3.35236
G1 X73.581 Y95.047 E3.74244
G1 X78.657 Y100.124 E4.12682
G1 X78.657 Y102.297 E4.24318
G1 X82.595 Y102.297 E4.45399
G1 X87.719 Y105.256 E4.77082
G1 X87.719 Y110.777 E5.06642
G1 X82.595 Y113.736 E5.38324
G1 X78.657 Y113.736 E5.59406
G1 X78.657 Y115.910 E5.71042
G1 X73.581 Y120.986 E6.09480
G1 X66.295 Y120.986 E6.48487
G1 X66.144 Y121.352 F9600.000
G1 X60.853 Y116.061 F900.000 E6.88547
G1 X60.853 Y114.102 E6.99037
G1 X57.183 Y114.102 E7.18685
G1 X51.791 Y110.988 E7.52022
G1 X51.791 Y105.045 E7.83843
G1 X57.183 Y101.932 E8.17180
G1 X60.853 Y101.932 E8.36828
G1 X60.853 Y99.972 E8.47318
G1 X66.144 Y94.682 E8.87377
G1 X73.732 Y94.682 E9.28006
G1 X79.023 Y99.972 E9.68066
G1 X79.023 Y101.932 E9.78556
G1 X82.693 Y101.932 E9.98204
G1 X88.085 Y105.045 E10.31541
G1 X88.085 Y110.988 E10.63362
G1 X82.693 Y114.102 E10.96699
G1 X79.023 Y114.102 E11.16347
G1 X79.023 Y116.061 E11.26837
G1 X73.732 Y121.352 E11.66897
G1 X66.144 Y121.352 E12.07526
G1 X65.992 Y121.717 F9600.000
G1 X60.487 Y116.212 F900.000 E12.49207
G1 X60.487 Y114.467 E12.58550
G1 X57.085 Y114.467 E12.76765
G1 X51.425 Y111.199 E13.11757
G1 X51.425 Y104.834 E13.45838
G1 X57.085 Y101.566 E13.80830
G1 X60.487 Y101.566 E13.99045
G1 X60.487 Y99.821 E14.08388
G1 X65.992 Y94.316 E14.50069
G1 X73.884 Y94.316 E14.92320
G1 X79.388 Y99.821 E15.34001
G1 X79.388 Y101.566 E15.43344
G1 X82.791 Y101.566 E15.61560
G1 X88.451 Y104.834 E15.96551
G1 X88.451 Y111.199 E16.30633
G1 X82.791 Y114.467 E16.65624
G1 X79.388 Y114.467 E16.83839
G1 X79.388 Y116.212 E16.93183
G1 X73.884 Y121.717 E17.34864
G1 X65.992 Y121.717 E17.77114
G1 X65.841 Y122.083 F9600.000
G1 X60.122 Y116.364 F900.000 E18.20417
G1 X60.122 Y114.833 E18.28614
G1 X56.987 Y114.833 E18.45396
G1 X51.059 Y111.411 E18.82042
G1 X51.059 Y104.623 E19.18384
G1 X56.952 Y101.221 E19.54812
G1 X56.952 Y101.221 E19.54812
G1 X56.987 Y101.200 E19.55030
G1 X60.122 Y101.200 E19.71812
G1 X60.122 Y99.669 E19.80009
G1 X65.841 Y93.950 E20.23312
G1 X74.035 Y93.950 E20.67184
G1 X79.754 Y99.669 E21.10487
