; generated by Slic3r 0.9.6-dev on 2012-11-17 at 08:00:56

; layer_height = 0.33
; perimeters = 3
; top_solid_layers = 3
; bottom_solid_layers = 3
; fill_density = 0.20
; perimeter_speed = 50
; infill_speed = 75
; travel_speed = 170
; scale = 1
; nozzle_diameter = 0.35
; filament_diameter = 1.74
; extrusion_multiplier = 1
; perimeters extrusion width = 0.37mm
; infill extrusion width = 0.37mm
; first layer extrusion width = 0.37mm

G28 ; home all axes
G90 ; use absolute coordinates
G21 ; set units to millimeters
G92 E0
M82 ; use absolute distances for extrusion
G1 F1200.000 E-1.00000
G92 E0
G1 Z0.330 F10200.000
G1 X47.736 Y67.127
G1 F1200.000 E1.00000
G1 X62.526 Y56.457 F900.000 E1.92062
G1 X62.756 Y56.297 E1.93476
G1 X62.996 Y56.147 E1.94905
G1 X63.236 Y56.007 E1.96307
G1 X63.486 Y55.877 E1.97730
G1 X63.746 Y55.757 E1.99175
G1 X63.996 Y55.657 E2.00534
G1 X64.266 Y55.557 E2.01988
G1 X64.526 Y55.467 E2.03377
G1 X64.796 Y55.397 E2.04785
G1 X65.076 Y55.327 E2.06242
G1 X65.346 Y55.277 E2.07628
G1 X65.626 Y55.237 E2.09056
G1 X65.906 Y55.207 E2.10477
G1 X66.186 Y55.187 E2.11894
G1 X74.726 Y55.187 E2.55004
G1 X116.656 Y55.737 E4.66687
G1 X116.946 Y55.747 E4.68151
G1 X117.246 Y55.767 E4.69669
G1 X117.536 Y55.807 E4.71147
G1 X117.826 Y55.857 E4.72632
G1 X118.106 Y55.917 E4.74078
G1 X118.396 Y55.987 E4.75584
G1 X118.676 Y56.077 E4.77069
G1 X118.956 Y56.177 E4.78570
G1 X119.226 Y56.287 E4.80041
G1 X119.496 Y56.407 E4.81533
G1 X119.756 Y56.537 E4.83000
G1 X120.016 Y56.687 E4.84515
G1 X120.256 Y56.837 E4.85944
G1 X120.506 Y57.007 E4.87470
G1 X135.306 Y67.677 E5.79573
G1 X135.526 Y67.837 E5.80946
G1 X135.736 Y68.017 E5.82342
G1 X135.936 Y68.197 E5.83701
G1 X136.136 Y68.387 E5.85093
G1 X136.326 Y68.587 E5.86486
G1 X136.506 Y68.787 E5.87844
G1 X136.846 Y69.227 E5.90651
G1 X136.996 Y69.447 E5.91995
G1 X137.146 Y69.687 E5.93424
G1 X137.276 Y69.917 E5.94757
G1 X137.406 Y70.167 E5.96180
G1 X137.526 Y70.417 E5.97580
G1 X137.626 Y70.667 E5.98939
G1 X137.726 Y70.927 E6.00345
G1 X137.886 Y71.447 E6.03092
G1 X137.946 Y71.717 E6.04488
G1 X137.996 Y71.987 E6.05874
G1 X138.036 Y72.257 E6.07252
G1 X138.066 Y72.527 E6.08623
G1 X138.086 Y72.797 E6.09990
G1 X139.656 Y104.277 E7.69099
G1 X139.666 Y104.617 E7.70816
G1 X139.666 Y111.687 E8.06506
G1 X139.646 Y111.957 E8.07873
G1 X139.616 Y112.237 E8.09294
G1 X139.576 Y112.507 E8.10672
G1 X139.526 Y112.777 E8.12058
G1 X139.466 Y113.047 E8.13454
G1 X139.386 Y113.317 E8.14876
G1 X139.306 Y113.577 E8.16249
G1 X139.216 Y113.837 E8.17638
G1 X139.106 Y114.097 E8.19063
G1 X138.866 Y114.597 E8.21863
G1 X138.726 Y114.837 E8.23266
G1 X138.586 Y115.067 E8.24625
G1 X138.266 Y115.527 E8.27453
G1 X137.906 Y115.947 E8.30246
G1 X137.716 Y116.147 E8.31638
G1 X137.516 Y116.337 E8.33031
G1 X137.306 Y116.527 E8.34461
G1 X137.096 Y116.697 E8.35824
G1 X136.876 Y116.867 E8.37228
G1 X122.086 Y127.537 E9.29290
G1 X121.856 Y127.697 E9.30704
G1 X121.616 Y127.847 E9.32133
G1 X121.376 Y127.987 E9.33535
G1 X121.126 Y128.117 E9.34958
G1 X120.866 Y128.237 E9.36403
G1 X120.616 Y128.337 E9.37762
G1 X120.346 Y128.437 E9.39216
G1 X120.086 Y128.527 E9.40605
G1 X119.816 Y128.597 E9.42013
G1 X119.536 Y128.667 E9.43470
G1 X119.266 Y128.717 E9.44856
G1 X118.986 Y128.757 E9.46284
G1 X118.706 Y128.787 E9.47705
G1 X118.426 Y128.807 E9.49122
G1 X65.566 Y128.807 E12.15961
G1 X65.286 Y128.787 E12.17378
G1 X65.006 Y128.757 E12.18800
G1 X64.726 Y128.717 E12.20228
G1 X64.456 Y128.667 E12.21614
G1 X64.176 Y128.597 E12.23071
G1 X63.906 Y128.527 E12.24479
G1 X63.646 Y128.437 E12.25868
G1 X63.376 Y128.337 E12.27321
G1 X63.126 Y128.237 E12.28680
G1 X62.866 Y128.117 E12.30126
G1 X62.616 Y127.987 E12.31548
G1 X62.376 Y127.847 E12.32951
G1 X62.136 Y127.697 E12.34379
G1 X61.906 Y127.537 E12.35794
G1 X47.116 Y116.867 E13.27855
G1 X46.896 Y116.697 E13.29259
G1 X46.686 Y116.527 E13.30623
G1 X46.476 Y116.337 E13.32052
G1 X46.276 Y116.147 E13.33445
G1 X46.086 Y115.947 E13.34838
G1 X45.726 Y115.527 E13.37630
G1 X45.406 Y115.067 E13.40459
G1 X45.266 Y114.837 E13.41818
G1 X45.126 Y114.597 E13.43220
G1 X44.886 Y114.097 E13.46020
G1 X44.776 Y113.837 E13.47445
G1 X44.686 Y113.577 E13.48834
G1 X44.606 Y113.317 E13.50207
G1 X44.526 Y113.047 E13.51629
G1 X44.466 Y112.777 E13.53025
G1 X44.416 Y112.507 E13.54411
G1 X44.376 Y112.237 E13.55789
G1 X44.346 Y111.957 E13.57211
G1 X44.326 Y111.687 E13.58577
G1 X44.326 Y104.487 E13.94923
G1 X44.946 Y72.457 E15.56642
G1 X44.956 Y72.187 E15.58006
G1 X44.976 Y71.917 E15.59373
G1 X45.006 Y71.647 E15.60744
G1 X45.056 Y71.377 E15.62130
G1 X45.106 Y71.117 E15.63467
G1 X45.176 Y70.847 E15.64875
G1 X45.246 Y70.587 E15.66234
G1 X45.336 Y70.337 E15.67575
G1 X45.426 Y70.077 E15.68964
G1 X45.536 Y69.827 E15.70343
G1 X45.776 Y69.347 E15.73052
G1 X45.916 Y69.107 E15.74454
G1 X46.056 Y68.877 E15.75814
G1 X46.376 Y68.437 E15.78560
G1 X46.546 Y68.227 E15.79924
G1 X46.726 Y68.027 E15.81282
G1 X46.916 Y67.827 E15.82675
G1 X47.106 Y67.647 E15.83996
G1 X47.526 Y67.287 E15.86788
G1 X47.736 Y67.127 E15.88121
G1 X47.956 Y67.427 F10200.000
G1 X62.746 Y56.757 F900.000 E16.80183
G1 X62.976 Y56.597 E16.81597
G1 X63.216 Y56.447 E16.83026
G1 X63.466 Y56.307 E16.84472
G1 X63.716 Y56.177 E16.85895
G1 X63.976 Y56.057 E16.87340
G1 X64.236 Y55.957 E16.88746
G1 X64.506 Y55.857 E16.90200
G1 X64.786 Y55.777 E16.91670
G1 X65.056 Y55.707 E16.93078
G1 X65.616 Y55.607 E16.95949
G1 X65.896 Y55.577 E16.97371
G1 X66.186 Y55.557 E16.98838
G1 X66.466 Y55.547 E17.00253
G1 X74.716 Y55.547 E17.41899
G1 X116.646 Y56.097 E19.53581
G1 X116.926 Y56.107 E19.54995
G1 X117.206 Y56.137 E19.56417
G1 X117.476 Y56.167 E19.57788
G1 X117.756 Y56.217 E19.59224
G1 X118.026 Y56.267 E19.60610
G1 X118.296 Y56.337 E19.62018
G1 X118.566 Y56.427 E19.63455
G1 X118.826 Y56.517 E19.64844
G1 X119.086 Y56.617 E19.66250
G1 X119.586 Y56.857 E19.69050
G1 X119.826 Y56.997 E19.70452
G1 X120.056 Y57.147 E19.71839
G1 X120.286 Y57.307 E19.73253
G1 X135.086 Y67.977 E20.65356
G1 X135.306 Y68.137 E20.66729
G1 X135.516 Y68.307 E20.68093
G1 X135.716 Y68.487 E20.69451
G1 X135.916 Y68.677 E20.70843
G1 X136.096 Y68.877 E20.72202
G1 X136.276 Y69.087 E20.73598
G1 X136.446 Y69.297 E20.74962
G1 X136.606 Y69.517 E20.76335
G1 X136.756 Y69.747 E20.77721
G1 X136.896 Y69.977 E20.79080
G1 X137.026 Y70.217 E20.80458
G1 X137.146 Y70.457 E20.81813
G1 X137.246 Y70.707 E20.83172
G1 X137.346 Y70.967 E20.84578
G1 X137.436 Y71.217 E20.85920
G1 X137.516 Y71.477 E20.87293
G1 X137.576 Y71.747 E20.88689
G1 X137.636 Y72.007 E20.90036
G1 X137.676 Y72.277 E20.91414
G1 X137.706 Y72.547 E20.92785
G1 X137.726 Y72.817 E20.94152
G1 X139.296 Y104.297 E22.53261
G1 X139.306 Y104.617 E22.54878
G1 X139.306 Y111.407 E22.89154
G1 X139.296 Y111.677 E22.90518
G1 X139.276 Y111.957 E22.91935
G1 X139.246 Y112.227 E22.93306
G1 X139.206 Y112.497 E22.94684
G1 X139.156 Y112.767 E22.96070
G1 X139.096 Y113.027 E22.97417
G1 X139.016 Y113.297 E22.98838
G1 X138.926 Y113.557 E23.00227
G1 X138.836 Y113.807 E23.01569
G1 X138.726 Y114.057 E23.02947
G1 X138.606 Y114.307 E23.04347
G1 X138.476 Y114.547 E23.05725
G1 X138.336 Y114.787 E23.07128
G1 X138.186 Y115.007 E23.08472
G1 X138.026 Y115.237 E23.09886
G1 X137.856 Y115.447 E23.11250
G1 X137.676 Y115.657 E23.12646
G1 X137.486 Y115.857 E23.14039
G1 X137.296 Y116.047 E23.15395
G1 X136.876 Y116.407 E23.18188
G1 X136.656 Y116.567 E23.19561
G1 X121.866 Y127.237 E24.11623
G1 X121.636 Y127.397 E24.13037
G1 X121.396 Y127.547 E24.14466
G1 X121.146 Y127.687 E24.15912
G1 X120.896 Y127.817 E24.17334
G1 X120.636 Y127.937 E24.18780
G1 X120.376 Y128.037 E24.20186
G1 X120.106 Y128.137 E24.21640
G1 X119.826 Y128.217 E24.23110
G1 X119.556 Y128.287 E24.24518
G1 X118.996 Y128.387 E24.27389
G1 X118.716 Y128.417 E24.28811
G1 X118.426 Y128.437 E24.30278
G1 X118.146 Y128.447 E24.31693
G1 X65.846 Y128.447 E26.95705
G1 X65.566 Y128.437 E26.97119
G1 X65.276 Y128.417 E26.98586
G1 X64.996 Y128.387 E27.00008
G1 X64.436 Y128.287 E27.02879
G1 X64.166 Y128.217 E27.04288
G1 X63.886 Y128.137 E27.05758
G1 X63.616 Y128.037 E27.07211
G1 X63.356 Y127.937 E27.08617
G1 X63.096 Y127.817 E27.10063
G1 X62.846 Y127.687 E27.11485
G1 X62.596 Y127.547 E27.12932
G1 X62.356 Y127.397 E27.14360
G1 X62.126 Y127.237 E27.15775
G1 X47.336 Y116.567 E28.07836
G1 X47.116 Y116.407 E28.09209
G1 X46.696 Y116.047 E28.12002
G1 X46.506 Y115.857 E28.13358
G1 X46.316 Y115.657 E28.14751
G1 X46.136 Y115.447 E28.16147
G1 X45.966 Y115.237 E28.17511
G1 X45.806 Y115.007 E28.18925
G1 X45.656 Y114.787 E28.20269
G1 X45.516 Y114.547 E28.21672
G1 X45.386 Y114.307 E28.23050
G1 X45.266 Y114.057 E28.24450
G1 X45.156 Y113.807 E28.25829
G1 X45.066 Y113.557 E28.27170
G1 X44.976 Y113.297 E28.28559
G1 X44.896 Y113.027 E28.29980
G1 X44.836 Y112.767 E28.31327
G1 X44.786 Y112.497 E28.32713
G1 X44.746 Y112.227 E28.34091
G1 X44.716 Y111.957 E28.35463
G1 X44.696 Y111.677 E28.36880
G1 X44.686 Y111.407 E28.38244
G1 X44.686 Y104.617 E28.72520
G1 X44.696 Y104.497 E28.73128
G1 X45.316 Y72.467 E30.34846
G1 X45.326 Y72.197 E30.36210
G1 X45.346 Y71.927 E30.37577
G1 X45.376 Y71.667 E30.38898
G1 X45.426 Y71.397 E30.40284
G1 X45.476 Y71.137 E30.41621
G1 X45.546 Y70.877 E30.42980
G1 X45.626 Y70.617 E30.44353
G1 X45.706 Y70.367 E30.45678
G1 X45.806 Y70.117 E30.47037
G1 X45.916 Y69.877 E30.48370
G1 X46.036 Y69.637 E30.49725
G1 X46.166 Y69.397 E30.51102
G1 X46.306 Y69.167 E30.52462
G1 X46.456 Y68.947 E30.53806
G1 X46.616 Y68.727 E30.55179
G1 X46.776 Y68.517 E30.56512
G1 X46.956 Y68.317 E30.57870
G1 X47.136 Y68.127 E30.59191
G1 X47.326 Y67.937 E30.60548
G1 X47.526 Y67.757 E30.61906
G1 X47.736 Y67.587 E30.63270
G1 X47.956 Y67.427 E30.64643
G1 F1200.000 E29.64643
G92 E0
G1 X53.858 Y105.408 F10200.000
G1 F1200.000 E1.00000
G1 X56.680 Y104.764 F900.000 E1.14613
G1 X58.943 Y106.569 E1.29226
G1 X58.943 Y109.464 E1.43840
G1 X56.680 Y111.269 E1.58453
G1 X53.858 Y110.625 E1.73066
G1 X52.602 Y108.017 E1.87680
G1 X53.858 Y105.408 E2.02293
G1 X54.111 Y105.726 F10200.000
G1 X56.590 Y105.160 F900.000 E2.15128
G1 X58.578 Y106.745 E2.27964
G1 X58.578 Y109.288 E2.40800
G1 X56.590 Y110.873 E2.53636
G1 X54.111 Y110.308 E2.66471
G1 X53.008 Y108.017 E2.79307
G1 X54.111 Y105.726 E2.92142
G1 X54.364 Y106.043 F10200.000
G1 X56.499 Y105.556 F900.000 E3.03200
G1 X57.984 Y106.739 E3.12784
G1 X57.984 Y106.739 E3.12784
G1 X58.212 Y106.921 E3.14258
G1 X58.212 Y109.112 E3.25316
G1 X58.062 Y109.232 E3.26288
G1 X58.062 Y109.232 E3.26288
G1 X56.499 Y110.478 E3.36374
G1 X54.364 Y109.990 E3.47432
G1 X53.413 Y108.017 E3.58490
G1 X54.364 Y106.043 E3.69548
G1 X54.617 Y106.360 F10200.000
G1 X56.409 Y105.951 F900.000 E3.78828
G1 X57.847 Y107.097 E3.88109
G1 X57.847 Y108.936 E3.97389
G1 X56.409 Y110.082 E4.06669
G1 X54.617 Y109.673 E4.15949
G1 X53.819 Y108.017 E4.25230
G1 X54.617 Y106.360 E4.34510
G1 F1200.000 E3.34510
G92 E0
G1 X62.962 Y104.586 F10200.000
G1 F1200.000 E1.00000
G1 X65.107 Y104.586 F900.000 E1.10830
G1 X66.491 Y104.729 E1.17854
G1 X68.243 Y104.839 E1.26716
G1 X69.938 Y104.874 E1.35271
G1 X71.632 Y104.839 E1.43826
G1 X73.384 Y104.729 E1.52688
G1 X74.768 Y104.586 E1.59713
G1 X76.914 Y104.586 E1.70542
G1 X76.914 Y111.047 E2.03159
G1 X62.962 Y111.047 E2.73589
G1 X62.962 Y104.586 E3.06205
G1 X63.327 Y104.952 F10200.000
G1 X65.088 Y104.952 F900.000 E3.15094
G1 X66.461 Y105.093 E3.22061
G1 X68.228 Y105.204 E3.30999
G1 X69.938 Y105.240 E3.39631
G1 X71.647 Y105.204 E3.48263
G1 X73.414 Y105.093 E3.57200
G1 X74.787 Y104.952 E3.64167
G1 X76.548 Y104.952 E3.73056
G1 X76.548 Y110.682 E4.01981
G1 X63.327 Y110.682 E4.68720
G1 X63.327 Y104.952 E4.97645
G1 X63.693 Y105.317 F10200.000
G1 X65.069 Y105.317 F900.000 E5.04593
G1 X66.431 Y105.458 E5.11502
G1 X68.213 Y105.569 E5.20516
G1 X69.938 Y105.606 E5.29225
G1 X71.663 Y105.569 E5.37934
G1 X73.445 Y105.458 E5.46947
G1 X74.806 Y105.317 E5.53856
G1 X76.183 Y105.317 E5.60804
G1 X76.183 Y110.316 E5.86038
G1 X63.693 Y110.316 E6.49085
G1 X63.693 Y105.317 E6.74319
G1 X64.059 Y105.683 F10200.000
G1 X65.051 Y105.683 F900.000 E6.79327
G1 X66.401 Y105.822 E6.86178
G1 X68.198 Y105.935 E6.95267
G1 X69.938 Y105.971 E7.04053
G1 X71.678 Y105.935 E7.12839
G1 X73.475 Y105.822 E7.21928
G1 X74.825 Y105.683 E7.28779
G1 X75.817 Y105.683 E7.33787
G1 X75.817 Y109.950 E7.55329
G1 X64.059 Y109.950 E8.14685
G1 X64.059 Y105.683 E8.36227
G1 F1200.000 E7.36227
G92 E0
G1 X80.602 Y108.017 F10200.000
G1 F1200.000 E1.00000
G1 X81.858 Y105.408 F900.000 E1.14613
G1 X84.680 Y104.764 E1.29226
G1 X86.943 Y106.569 E1.43840
G1 X86.943 Y109.464 E1.58453
G1 X84.680 Y111.269 E1.73067
G1 X81.858 Y110.625 E1.87680
G1 X80.602 Y108.017 E2.02293
G1 X81.008 Y108.017 F10200.000
G1 X82.111 Y105.726 F900.000 E2.15129
G1 X84.590 Y105.160 E2.27964
G1 X86.578 Y106.745 E2.40800
G1 X86.578 Y109.288 E2.53636
G1 X84.590 Y110.873 E2.66471
G1 X82.111 Y110.308 E2.79307
G1 X81.008 Y108.017 E2.92142
G1 X81.413 Y108.017 F10200.000
G1 X82.364 Y106.043 F900.000 E3.03200
G1 X84.499 Y105.556 E3.14258
G1 X86.212 Y106.921 E3.25316
G1 X86.212 Y109.112 E3.36374
G1 X84.499 Y110.478 E3.47433
G1 X82.364 Y109.990 E3.58490
G1 X81.413 Y108.017 E3.69548
G1 X81.819 Y108.017 F10200.000
G1 X82.617 Y106.360 F900.000 E3.78829
G1 X84.409 Y105.951 E3.88109
G1 X85.847 Y107.097 E3.97389
G1 X85.847 Y108.936 E4.06669
G1 X84.409 Y110.082 E4.15950
G1 X82.617 Y109.673 E4.25230
G1 X81.819 Y108.017 E4.34510
G1 F1200.000 E3.34510
G92 E0
G1 X87.719 Y105.256 F10200.000
G1 F1200.000 E1.00000
G1 X87.719 Y110.777 F900.000 E1.27872
G1 X82.595 Y113.736 E1.57743
G1 X78.657 Y113.736 E1.77620
G1 X78.657 Y115.900 E1.88542
G1 X73.571 Y120.986 E2.24854
G1 X66.305 Y120.986 E2.61532
G1 X61.218 Y115.900 E2.97844
G1 X61.218 Y113.736 E3.08766
G1 X57.281 Y113.736 E3.28642
G1 X52.156 Y110.777 E3.58514
G1 X52.156 Y105.256 E3.86386
G1 X57.281 Y102.297 E4.16257
G1 X61.218 Y102.297 E4.36134
G1 X61.218 Y100.134 E4.47056
G1 X66.305 Y95.047 E4.83368
G1 X73.571 Y95.047 E5.20046
G1 X78.657 Y100.134 E5.56358
G1 X78.657 Y102.297 E5.67280
G1 X82.595 Y102.297 E5.87156
G1 X87.719 Y105.256 E6.17028
G1 X88.085 Y105.045 F10200.000
G1 X88.085 Y110.988 F900.000 E6.47031
G1 X82.693 Y114.102 E6.78463
G1 X79.023 Y114.102 E6.96988
G1 X79.023 Y116.051 E7.06829
G1 X73.722 Y121.352 E7.44670
G1 X66.153 Y121.352 E7.82877
G1 X60.853 Y116.051 E8.20718
G1 X60.853 Y114.102 E8.30559
G1 X57.183 Y114.102 E8.49084
G1 X51.791 Y110.988 E8.80516
G1 X51.791 Y105.045 E9.10519
G1 X57.183 Y101.932 E9.41951
G1 X60.853 Y101.932 E9.60476
G1 X60.853 Y99.982 E9.70317
G1 X66.153 Y94.682 E10.08158
G1 X73.722 Y94.682 E10.46365
G1 X79.023 Y99.982 E10.84206
G1 X79.023 Y101.932 E10.94047
G1 X82.693 Y101.932 E11.12572
G1 X88.085 Y105.045 E11.44004
G1 X88.451 Y104.834 F10200.000
G1 X88.451 Y111.199 F900.000 E11.76138
G1 X82.791 Y114.467 E12.09130
G1 X79.388 Y114.467 E12.26304
G1 X79.388 Y116.202 E12.35064
G1 X73.874 Y121.717 E12.74434
G1 X66.002 Y121.717 E13.14170
G1 X60.487 Y116.202 E13.53540
G1 X60.487 Y114.467 E13.62300
G1 X57.085 Y114.467 E13.79474
G1 X51.425 Y111.199 E14.12466
G1 X51.425 Y104.834 E14.44600
G1 X57.085 Y101.566 E14.77592
G1 X60.487 Y101.566 E14.94766
G1 X60.487 Y99.831 E15.03526
G1 X66.002 Y94.316 E15.42896
G1 X73.874 Y94.316 E15.82632
G1 X79.388 Y99.831 E16.22002
G1 X79.388 Y101.566 E16.30762
G1 X82.791 Y101.566 E16.47936
G1 X88.451 Y104.834 E16.80928
G1 X88.816 Y104.623 F10200.000
G1 X88.816 Y111.411 F900.000 E17.15193
G1 X82.889 Y114.833 E17.49745
G1 X79.754 Y114.833 E17.65568
G1 X79.754 Y116.354 E17.73247
G1 X74.025 Y122.083 E18.14146
G1 X65.851 Y122.083 E18.55411
G1 X60.122 Y116.354 E18.96310
G1 X60.122 Y114.833 E19.03988
G1 X56.987 Y114.833 E19.19812
G1 X51.059 Y111.411 E19.54364
G1 X51.059 Y104.623 E19.88629
