; generated by Slic3r 0.9.6-dev on 2012-11-17 at 09:28:35

; layer_height = 0.33
; perimeters = 3
; top_solid_layers = 3
; bottom_solid_layers = 3
; fill_density = 0.2
; perimeter_speed = 40
; infill_speed = 60
; travel_speed = 150
; scale = 1
; nozzle_diameter = 0.35
; filament_diameter = 1.74
; extrusion_multiplier = .95
; perimeters extrusion width = 0.37mm
; infill extrusion width = 0.37mm
; first layer extrusion width = 0.66mm

G28 ; home all axes
G90 ; use absolute coordinates
G21 ; set units to millimeters
G92 E0
M82 ; use absolute distances for extrusion
G1 F1500.000 E-1.00000
G92 E0
G1 Z0.330 F9000.000
G1 X51.918 Y49.560
G1 F1500.000 E1.00000
G1 X66.618 Y38.950 F720.000 E2.41849
G1 X66.868 Y38.780 E2.44214
G1 X67.118 Y38.620 E2.46537
G1 X67.378 Y38.470 E2.48885
G1 X67.638 Y38.340 E2.51160
G1 X67.908 Y38.210 E2.53504
G1 X68.178 Y38.090 E2.55816
G1 X68.458 Y37.990 E2.58143
G1 X68.738 Y37.900 E2.60444
G1 X69.028 Y37.810 E2.62820
G1 X69.318 Y37.740 E2.65154
G1 X69.898 Y37.640 E2.69759
G1 X70.198 Y37.610 E2.72118
G1 X70.488 Y37.590 E2.74392
G1 X70.788 Y37.580 E2.76741
G1 X114.988 Y37.080 E6.22601
G1 X123.418 Y37.080 E6.88561
G1 X123.718 Y37.100 E6.90913
G1 X124.018 Y37.130 E6.93272
G1 X124.618 Y37.230 E6.98032
G1 X124.908 Y37.300 E7.00366
G1 X125.208 Y37.380 E7.02795
G1 X125.488 Y37.480 E7.05122
G1 X125.778 Y37.580 E7.07522
G1 X126.048 Y37.700 E7.09834
G1 X126.328 Y37.820 E7.12217
G1 X126.598 Y37.960 E7.14597
G1 X126.858 Y38.110 E7.16946
G1 X127.358 Y38.450 E7.21677
G1 X142.068 Y49.060 E8.63589
G1 X142.298 Y49.230 E8.65827
G1 X142.518 Y49.410 E8.68051
G1 X142.738 Y49.600 E8.70325
G1 X143.138 Y50.000 E8.74751
G1 X143.328 Y50.210 E8.76967
G1 X143.518 Y50.440 E8.79301
G1 X143.688 Y50.660 E8.81477
G1 X144.008 Y51.140 E8.85991
G1 X144.148 Y51.380 E8.88165
G1 X144.288 Y51.640 E8.90475
G1 X144.408 Y51.890 E8.92645
G1 X144.528 Y52.150 E8.94885
G1 X144.728 Y52.690 E8.99391
G1 X144.808 Y52.960 E9.01594
G1 X144.878 Y53.240 E9.03853
G1 X144.938 Y53.520 E9.06093
G1 X144.988 Y53.800 E9.08319
G1 X145.028 Y54.080 E9.10532
G1 X145.058 Y54.370 E9.12813
G1 X145.078 Y54.650 E9.15009
G1 X144.998 Y131.340 E15.15062
G1 X144.978 Y131.630 E15.17337
G1 X144.948 Y131.910 E15.19540
G1 X144.908 Y132.190 E15.21753
G1 X144.858 Y132.480 E15.24056
G1 X144.798 Y132.750 E15.26220
G1 X144.728 Y133.030 E15.28478
G1 X144.548 Y133.570 E15.32932
G1 X144.448 Y133.840 E15.35184
G1 X144.208 Y134.360 E15.39666
G1 X144.068 Y134.610 E15.41908
G1 X143.928 Y134.850 E15.44082
G1 X143.608 Y135.330 E15.48595
G1 X143.438 Y135.550 E15.50771
G1 X143.058 Y135.990 E15.55320
G1 X142.868 Y136.190 E15.57478
G1 X142.658 Y136.390 E15.59747
G1 X142.448 Y136.580 E15.61963
G1 X142.228 Y136.760 E15.64187
G1 X141.998 Y136.930 E15.66425
G1 X127.298 Y147.550 E17.08319
G1 X127.048 Y147.720 E17.10685
G1 X126.788 Y147.880 E17.13074
G1 X126.528 Y148.030 E17.15422
G1 X126.258 Y148.170 E17.17802
G1 X125.988 Y148.300 E17.20147
G1 X125.708 Y148.420 E17.22530
G1 X125.428 Y148.520 E17.24857
G1 X125.138 Y148.620 E17.27257
G1 X124.848 Y148.700 E17.29611
G1 X124.548 Y148.770 E17.32021
G1 X124.248 Y148.820 E17.34401
G1 X123.958 Y148.870 E17.36703
G1 X123.648 Y148.900 E17.39140
G1 X123.348 Y148.920 E17.41493
G1 X70.568 Y148.920 E21.54464
G1 X70.268 Y148.900 E21.56816
G1 X69.958 Y148.870 E21.59253
G1 X69.668 Y148.820 E21.61556
G1 X69.368 Y148.770 E21.63935
G1 X69.068 Y148.700 E21.66346
G1 X68.778 Y148.620 E21.68700
G1 X68.488 Y148.520 E21.71100
G1 X68.208 Y148.420 E21.73426
G1 X67.928 Y148.300 E21.75810
G1 X67.658 Y148.170 E21.78154
G1 X67.388 Y148.030 E21.80534
G1 X67.128 Y147.880 E21.82883
G1 X66.868 Y147.720 E21.85271
G1 X66.618 Y147.550 E21.87637
G1 X51.918 Y136.930 E23.29531
G1 X51.688 Y136.760 E23.31769
G1 X51.468 Y136.580 E23.33993
G1 X51.258 Y136.390 E23.36209
G1 X51.048 Y136.190 E23.38478
G1 X50.848 Y135.980 E23.40747
G1 X50.658 Y135.770 E23.42963
G1 X50.478 Y135.550 E23.45187
G1 X50.308 Y135.320 E23.47425
G1 X50.148 Y135.090 E23.49617
G1 X49.988 Y134.850 E23.51874
G1 X49.708 Y134.350 E23.56358
G1 X49.468 Y133.830 E23.60839
G1 X49.368 Y133.570 E23.63019
G1 X49.268 Y133.300 E23.65272
G1 X49.188 Y133.020 E23.67550
G1 X49.118 Y132.750 E23.69733
G1 X49.058 Y132.470 E23.71973
G1 X49.008 Y132.190 E23.74199
G1 X48.968 Y131.900 E23.76489
G1 X48.938 Y131.620 E23.78693
G1 X48.918 Y131.340 E23.80889
G1 X48.918 Y55.150 E29.77029
G1 X48.938 Y54.870 E29.79226
G1 X48.968 Y54.580 E29.81507
G1 X49.008 Y54.300 E29.83720
G1 X49.058 Y54.020 E29.85945
G1 X49.118 Y53.740 E29.88186
G1 X49.188 Y53.460 E29.90444
G1 X49.268 Y53.190 E29.92648
G1 X49.368 Y52.920 E29.94900
G1 X49.468 Y52.660 E29.97080
G1 X49.588 Y52.390 E29.99392
G1 X49.708 Y52.140 E30.01562
G1 X49.988 Y51.640 E30.06045
G1 X50.308 Y51.160 E30.10559
G1 X50.478 Y50.940 E30.12735
G1 X50.858 Y50.500 E30.17284
G1 X51.048 Y50.300 E30.19442
G1 X51.258 Y50.100 E30.21711
G1 X51.478 Y49.910 E30.23986
G1 X51.698 Y49.730 E30.26210
G1 X51.918 Y49.560 E30.28385
G1 X52.288 Y50.070 F9000.000
G1 X66.988 Y39.460 F720.000 E31.70234
G1 X67.228 Y39.290 E31.72535
G1 X67.728 Y38.990 E31.77097
G1 X67.988 Y38.860 E31.79372
G1 X68.248 Y38.740 E31.81612
G1 X68.518 Y38.630 E31.83894
G1 X68.798 Y38.540 E31.86195
G1 X69.068 Y38.450 E31.88422
G1 X69.358 Y38.380 E31.90756
G1 X69.638 Y38.320 E31.92996
G1 X69.928 Y38.270 E31.95299
G1 X70.208 Y38.240 E31.97502
G1 X70.498 Y38.210 E31.99784
G1 X70.798 Y38.200 E32.02132
G1 X114.998 Y37.700 E35.47992
G1 X123.118 Y37.700 E36.11526
G1 X123.398 Y37.710 E36.13719
G1 X123.668 Y37.730 E36.15837
G1 X123.948 Y37.750 E36.18033
G1 X124.488 Y37.850 E36.22330
G1 X124.758 Y37.910 E36.24494
G1 X125.028 Y37.980 E36.26677
G1 X125.548 Y38.160 E36.30982
G1 X125.798 Y38.270 E36.33120
G1 X126.298 Y38.510 E36.37459
G1 X126.538 Y38.650 E36.39633
G1 X126.768 Y38.800 E36.41782
G1 X126.998 Y38.960 E36.43974
G1 X141.708 Y49.570 E37.85886
G1 X141.918 Y49.730 E37.87952
G1 X142.138 Y49.900 E37.90127
G1 X142.338 Y50.080 E37.92232
G1 X142.528 Y50.270 E37.94335
G1 X142.718 Y50.470 E37.96493
G1 X142.898 Y50.680 E37.98657
G1 X143.068 Y50.890 E38.00771
G1 X143.238 Y51.110 E38.02947
G1 X143.388 Y51.330 E38.05030
G1 X143.528 Y51.560 E38.07137
G1 X143.668 Y51.800 E38.09311
G1 X143.788 Y52.040 E38.11410
G1 X144.008 Y52.540 E38.15685
G1 X144.098 Y52.800 E38.17837
G1 X144.258 Y53.320 E38.22094
G1 X144.318 Y53.590 E38.24258
G1 X144.368 Y53.850 E38.26330
G1 X144.408 Y54.120 E38.28466
G1 X144.428 Y54.400 E38.30662
G1 X144.448 Y54.670 E38.32780
G1 X144.458 Y54.940 E38.34895
G1 X144.378 Y131.060 E44.30487
G1 X144.368 Y131.330 E44.32601
G1 X144.328 Y131.870 E44.36838
G1 X144.288 Y132.140 E44.38974
G1 X144.238 Y132.410 E44.41122
G1 X144.168 Y132.670 E44.43229
G1 X144.098 Y132.940 E44.45411
G1 X144.018 Y133.190 E44.47465
G1 X143.928 Y133.450 E44.49618
G1 X143.708 Y133.950 E44.53892
G1 X143.588 Y134.190 E44.55992
G1 X143.448 Y134.430 E44.58166
G1 X143.308 Y134.660 E44.60272
G1 X143.158 Y134.880 E44.62356
G1 X142.988 Y135.100 E44.64531
G1 X142.818 Y135.310 E44.66645
G1 X142.638 Y135.520 E44.68809
G1 X142.458 Y135.720 E44.70915
G1 X142.258 Y135.900 E44.73020
G1 X142.058 Y136.090 E44.75179
G1 X141.848 Y136.260 E44.77293
G1 X141.628 Y136.420 E44.79421
G1 X126.928 Y147.040 E46.21316
G1 X126.698 Y147.200 E46.23508
G1 X126.468 Y147.350 E46.25656
G1 X126.228 Y147.480 E46.27792
G1 X125.978 Y147.610 E46.29997
G1 X125.728 Y147.730 E46.32166
G1 X125.478 Y147.840 E46.34304
G1 X124.958 Y148.020 E46.38609
G1 X124.688 Y148.090 E46.40791
G1 X124.418 Y148.150 E46.42956
G1 X124.148 Y148.200 E46.45104
G1 X123.878 Y148.240 E46.47240
G1 X123.598 Y148.270 E46.49443
G1 X123.328 Y148.290 E46.51561
G1 X123.048 Y148.300 E46.53754
G1 X70.868 Y148.300 E50.62030
G1 X70.588 Y148.290 E50.64223
G1 X70.318 Y148.270 E50.66341
G1 X70.038 Y148.240 E50.68544
G1 X69.768 Y148.200 E50.70680
G1 X69.498 Y148.150 E50.72828
G1 X69.228 Y148.090 E50.74993
G1 X68.958 Y148.020 E50.77175
G1 X68.438 Y147.840 E50.81481
G1 X68.188 Y147.730 E50.83618
G1 X67.938 Y147.610 E50.85787
G1 X67.688 Y147.480 E50.87992
G1 X67.448 Y147.350 E50.90128
G1 X67.218 Y147.200 E50.92276
G1 X66.988 Y147.040 E50.94469
G1 X52.288 Y136.420 E52.36363
G1 X52.068 Y136.260 E52.38491
G1 X51.858 Y136.080 E52.40656
G1 X51.658 Y135.900 E52.42761
G1 X51.458 Y135.710 E52.44919
G1 X51.268 Y135.520 E52.47022
G1 X51.098 Y135.310 E52.49136
G1 X50.918 Y135.100 E52.51300
G1 X50.758 Y134.880 E52.53428
G1 X50.608 Y134.660 E52.55512
G1 X50.468 Y134.420 E52.57686
G1 X50.328 Y134.190 E52.59793
G1 X50.208 Y133.940 E52.61962
G1 X50.088 Y133.700 E52.64062
G1 X49.988 Y133.450 E52.66169
G1 X49.898 Y133.190 E52.68321
G1 X49.738 Y132.670 E52.72578
G1 X49.678 Y132.400 E52.74742
G1 X49.628 Y132.130 E52.76891
G1 X49.588 Y131.860 E52.79027
G1 X49.548 Y131.320 E52.83263
G1 X49.538 Y131.050 E52.85377
G1 X49.538 Y55.440 E58.76979
G1 X49.548 Y55.170 E58.79093
G1 X49.568 Y54.900 E58.81212
G1 X49.588 Y54.620 E58.83408
G1 X49.628 Y54.360 E58.85467
G1 X49.678 Y54.090 E58.87615
G1 X49.738 Y53.820 E58.89779
G1 X49.898 Y53.300 E58.94036
G1 X49.988 Y53.040 E58.96189
G1 X50.208 Y52.540 E59.00463
G1 X50.328 Y52.300 E59.02563
G1 X50.468 Y52.060 E59.04737
G1 X50.608 Y51.830 E59.06843
G1 X50.758 Y51.610 E59.08927
G1 X50.928 Y51.390 E59.11102
G1 X51.098 Y51.180 E59.13216
G1 X51.278 Y50.970 E59.15380
G1 X51.458 Y50.770 E59.17486
G1 X51.658 Y50.580 E59.19644
G1 X51.858 Y50.400 E59.21749
G1 X52.068 Y50.230 E59.23863
G1 X52.288 Y50.070 E59.25992
G1 F1500.000 E58.25992
G92 E0
G1 X59.044 Y125.423 F9000.000
G1 F1500.000 E1.00000
G1 X61.562 Y124.848 F720.000 E1.20209
G1 X63.582 Y126.459 E1.40419
G1 X63.582 Y129.041 E1.60629
G1 X61.562 Y130.652 E1.80839
G1 X59.044 Y130.077 E2.01048
G1 X57.923 Y127.750 E2.21258
G1 X59.044 Y125.423 E2.41467
G1 X59.478 Y125.967 F9000.000
G1 X61.407 Y125.526 F720.000 E2.56953
G1 X62.955 Y126.760 E2.72440
G1 X62.955 Y128.740 E2.87927
G1 X61.407 Y129.974 E3.03414
G1 X59.478 Y129.533 E3.18900
G1 X58.619 Y127.750 E3.34386
G1 X59.478 Y125.967 E3.49873
G1 F1500.000 E2.49873
G92 E0
G1 X67.621 Y124.017 F9000.000
G1 F1500.000 E1.00000
G1 X70.085 Y124.017 F720.000 E1.19277
G1 X71.479 Y124.160 E1.30240
G1 X73.218 Y124.269 E1.43879
G1 X74.900 Y124.305 E1.57040
G1 X76.582 Y124.269 E1.70201
G1 X78.321 Y124.160 E1.83840
G1 X79.715 Y124.017 E1.94802
G1 X82.179 Y124.017 E2.14080
G1 X82.179 Y131.083 E2.69374
G1 X67.621 Y131.083 E3.83279
G1 X67.621 Y124.017 E4.38574
G1 X68.248 Y124.643 F9000.000
G1 X70.053 Y124.643 F720.000 E4.52695
G1 X71.427 Y124.785 E4.63503
G1 X73.192 Y124.896 E4.77343
G1 X74.900 Y124.931 E4.90709
G1 X76.608 Y124.896 E5.04075
G1 X78.373 Y124.785 E5.17915
G1 X79.747 Y124.643 E5.28724
G1 X81.552 Y124.643 E5.42845
G1 X81.552 Y130.457 E5.88332
G1 X68.248 Y130.457 E6.92429
G1 X68.248 Y124.643 E7.37916
G1 X68.875 Y125.270 F9000.000
G1 X70.020 Y125.270 F720.000 E7.46881
G1 X71.375 Y125.410 E7.57536
G1 X73.166 Y125.522 E7.71577
G1 X74.900 Y125.558 E7.85147
G1 X76.382 Y125.527 E7.96744
G1 X76.382 Y125.538 E7.96826
G1 X78.425 Y125.410 E8.12844
G1 X79.780 Y125.270 E8.23499
G1 X80.925 Y125.270 E8.32464
G1 X80.925 Y129.830 E8.68143
G1 X68.875 Y129.830 E9.62433
G1 X68.875 Y125.270 E9.98112
G1 F1500.000 E8.98112
G92 E0
G1 X85.923 Y127.750 F9000.000
G1 F1500.000 E1.00000
G1 X87.044 Y125.423 F720.000 E1.20210
G1 X89.562 Y124.848 E1.40419
G1 X91.582 Y126.459 E1.60629
G1 X91.582 Y129.041 E1.80839
G1 X89.562 Y130.652 E2.01049
G1 X87.044 Y130.077 E2.21258
G1 X85.923 Y127.750 E2.41467
G1 X86.619 Y127.750 F9000.000
G1 X87.478 Y125.967 F720.000 E2.56954
G1 X89.407 Y125.526 E2.72440
G1 X90.955 Y126.760 E2.87927
G1 X90.955 Y128.740 E3.03414
G1 X89.407 Y129.974 E3.18900
G1 X87.478 Y129.533 E3.34386
G1 X86.619 Y127.750 E3.49873
G1 F1500.000 E2.49873
G92 E0
G1 X71.393 Y115.083 F9000.000
G1 F1500.000 E1.00000
G1 X78.407 Y115.083 F720.000 E1.54888
G1 X83.317 Y119.993 E2.09208
G1 X83.317 Y122.333 E2.27525
G1 X87.476 Y122.333 E2.60068
G1 X90.069 Y123.831 E2.83498
G1 X90.029 Y124.099 E2.85619
G1 X86.611 Y124.879 E3.13051
G1 X85.228 Y127.750 E3.37984
G1 X86.611 Y130.621 E3.62917
G1 X90.029 Y131.401 E3.90349
G1 X90.069 Y131.669 E3.92471
G1 X87.476 Y133.167 E4.15901
G1 X83.317 Y133.167 E4.48444
G1 X83.317 Y135.507 E4.66761
G1 X78.407 Y140.417 E5.21081
G1 X71.393 Y140.417 E5.75969
G1 X66.483 Y135.507 E6.30289
G1 X66.483 Y133.167 E6.48606
G1 X62.324 Y133.167 E6.81149
G1 X58.794 Y131.128 E7.13043
G1 X58.962 Y130.701 E7.16634
G1 X61.717 Y131.330 E7.38746
G1 X64.208 Y129.343 E7.63679
G1 X64.208 Y126.157 E7.88612
G1 X61.717 Y124.170 E8.13545
G1 X58.962 Y124.799 E8.35658
G1 X58.794 Y124.372 E8.39249
G1 X62.324 Y122.333 E8.71143
G1 X66.483 Y122.333 E9.03686
G1 X66.483 Y119.993 E9.22003
G1 X71.393 Y115.083 E9.76323
G1 F1500.000 E8.76323
G92 E0
G1 X90.068 Y131.051 F9000.000
G1 F1500.000 E1.00000
G1 X92.178 Y129.368 F720.000 E1.21119
G1 X92.379 Y129.464 E1.22863
G1 X92.379 Y130.336 E1.29681
G1 X90.371 Y131.495 E1.47823
G1 X90.068 Y131.051 E1.52033
G1 F1500.000 E0.52033
G92 E0
G1 X58.638 Y130.678 F9000.000
G1 F1500.000 E1.00000
G1 X58.399 Y130.900 F720.000 E1.02552
G1 X57.421 Y130.336 E1.11386
G1 X57.421 Y129.025 E1.21645
G1 X57.800 Y128.938 E1.24685
G1 X58.638 Y130.678 E1.39798
G1 X57.800 Y126.562 F9000.000
G1 X57.421 Y126.475 F720.000 E1.42838
G1 X57.421 Y125.164 E1.53096
G1 X58.399 Y124.600 E1.61930
G1 X58.638 Y124.822 E1.64483
G1 X57.800 Y126.562 E1.79595
G1 F1500.000 E0.79595
G92 E0
G1 X90.068 Y124.449 F9000.000
G1 F1500.000 E1.00000
G1 X90.371 Y124.005 F720.000 E1.04210
G1 X92.379 Y125.164 E1.22352
G1 X92.379 Y126.036 E1.29170
G1 X92.178 Y126.132 E1.30914
G1 X90.068 Y124.449 E1.52033
G1 X93.005 Y124.802 F9000.000
G1 X93.005 Y130.698 F720.000 E1.98160
G1 X87.644 Y133.793 E2.46603
G1 X83.943 Y133.793 E2.75556
G1 X83.943 Y135.767 E2.91000
G1 X78.667 Y141.043 E3.49383
G1 X71.133 Y141.043 E4.08333
G1 X65.857 Y135.767 E4.66716
G1 X65.857 Y133.793 E4.82160
G1 X62.156 Y133.793 E5.11113
G1 X56.795 Y130.698 E5.59556
G1 X56.795 Y124.802 E6.05683
G1 X62.156 Y121.707 E6.54126
G1 X65.857 Y121.707 E6.83079
G1 X65.857 Y119.733 E6.98523
G1 X71.133 Y114.457 E7.56906
G1 X78.667 Y114.457 E8.15857
G1 X83.943 Y119.733 E8.74239
G1 X83.943 Y121.707 E8.89683
G1 X87.644 Y121.707 E9.18636
G1 X93.005 Y124.802 E9.67080
G1 X93.632 Y124.441 F9000.000
G1 X93.632 Y131.059 F720.000 E10.18869
G1 X87.812 Y134.420 E10.71457
G1 X84.570 Y134.420 E10.96820
G1 X84.570 Y136.027 E11.09392
G1 X78.927 Y141.670 E11.71837
G1 X70.873 Y141.670 E12.34850
G1 X65.230 Y136.027 E12.97295
G1 X65.230 Y134.420 E13.09866
G1 X61.988 Y134.420 E13.35230
G1 X56.168 Y131.059 E13.87818
G1 X56.168 Y124.441 E14.39607
G1 X61.988 Y121.080 E14.92196
G1 X65.230 Y121.080 E15.17559
G1 X65.230 Y119.473 E15.30130
G1 X70.873 Y113.830 E15.92576
G1 X78.927 Y113.830 E16.55588
G1 X84.570 Y119.473 E17.18034
G1 X84.570 Y121.080 E17.30605
G1 X87.812 Y121.080 E17.55968
G1 X93.632 Y124.441 E18.08557
G1 X86.701 Y124.492 F9000.000
G1 X85.675 Y122.716 F1080.000 E18.24813
G1 X86.409 Y122.716 E18.30630
G1 X87.349 Y124.344 E18.45532
G1 X87.998 Y124.196 E18.50803
G1 X87.143 Y122.716 E18.64352
G1 X88.232 Y123.331 E18.74262
G1 X88.514 Y123.819 E18.78735
G1 F1500.000 E17.78735
G92 E0
G1 X67.979 Y131.466 F9000.000
G1 F1500.000 E1.00000
G1 X72.926 Y140.034 F1080.000 E1.78418
G1 X73.660 Y140.034 E1.84235
G1 X68.713 Y131.466 E2.62653
G1 X69.447 Y131.466 E2.68469
G1 X74.393 Y140.034 E3.46888
G1 X75.127 Y140.034 E3.52704
G1 X70.180 Y131.466 E4.31122
G1 X70.914 Y131.466 E4.36939
G1 X75.861 Y140.034 E5.15357
G1 X76.595 Y140.034 E5.21173
G1 X71.648 Y131.466 E5.99592
G1 X72.382 Y131.466 E6.05408
G1 X77.329 Y140.034 E6.83826
G1 X78.062 Y140.034 E6.89643
G1 X73.116 Y131.466 E7.68062
