; generated by Slic3r 0.9.5 on 2012-11-16 at 11:33:20

; layer_height = 0.25
; perimeters = 3
; top_solid_layers = 3
; bottom_solid_layers = 3
; fill_density = 0.2
; perimeter_speed = 50
; infill_speed = 85
; travel_speed = 180
; scale = 1
; nozzle_diameter = 0.35
; filament_diameter = 1.73
; extrusion_multiplier = 1
; perimeters extrusion width = 0.39mm
; infill extrusion width = 0.39mm
; first layer extrusion width = 0.68mm

G28 ; home all axes
G90 ; use absolute coordinates
G21 ; set units to millimeters
G92 E0
M82 ; use absolute distances for extrusion
G1 F1800.000 E-0.80000
G92 E0
G1 Z0.340 F10800.000
G1 X47.431 Y53.777
G1 F1800.000 E0.80000
G1 X47.611 Y53.637 F900.000 E0.82009
G1 X62.301 Y43.037 E2.41628
G1 X62.641 Y42.817 E2.45196
G1 X62.831 Y42.727 E2.47049
G1 X63.021 Y42.647 E2.48865
G1 X63.211 Y42.577 E2.50649
G1 X63.411 Y42.517 E2.52489
G1 X63.611 Y42.477 E2.54287
G1 X63.811 Y42.447 E2.56068
G1 X64.011 Y42.427 E2.57840
G1 X64.221 Y42.417 E2.59692
G1 X111.971 Y42.417 E6.80435
G1 X112.181 Y42.427 E6.82287
G1 X112.381 Y42.447 E6.84059
G1 X112.581 Y42.477 E6.85841
G1 X112.781 Y42.517 E6.87638
G1 X112.981 Y42.577 E6.89478
G1 X113.171 Y42.647 E6.91262
G1 X113.361 Y42.727 E6.93078
G1 X113.551 Y42.817 E6.94931
G1 X113.891 Y43.037 E6.98499
G1 X128.581 Y53.637 E8.58118
G1 X128.591 Y53.647 E8.58242
G1 X170.821 Y84.347 E13.18282
G1 X170.981 Y84.467 E13.20044
G1 X171.261 Y84.727 E13.23411
G1 X171.391 Y84.867 E13.25095
G1 X171.511 Y85.027 E13.26857
G1 X171.631 Y85.177 E13.28550
G1 X171.731 Y85.347 E13.30287
G1 X171.821 Y85.517 E13.31982
G1 X171.901 Y85.687 E13.33638
G1 X171.981 Y85.867 E13.35373
G1 X172.041 Y86.057 E13.37129
G1 X172.091 Y86.237 E13.38775
G1 X172.131 Y86.427 E13.40486
G1 X172.161 Y86.617 E13.42181
G1 X172.171 Y86.817 E13.43945
G1 X172.181 Y87.007 E13.45622
G1 X172.181 Y93.617 E14.03865
G1 X172.171 Y93.817 E14.05630
G1 X172.151 Y94.027 E14.07488
G1 X172.121 Y94.227 E14.09270
G1 X172.081 Y94.427 E14.11068
G1 X172.021 Y94.617 E14.12823
G1 X171.951 Y94.817 E14.14690
G1 X171.871 Y94.997 E14.16426
G1 X171.781 Y95.187 E14.18278
G1 X171.681 Y95.357 E14.20016
G1 X171.571 Y95.527 E14.21800
G1 X171.311 Y95.847 E14.25433
G1 X171.171 Y95.987 E14.27178
G1 X171.021 Y96.127 E14.28986
G1 X170.861 Y96.257 E14.30802
G1 X130.531 Y126.327 E18.74069
G1 X130.481 Y126.357 E18.74583
G1 X115.791 Y136.957 E20.34201
G1 X115.451 Y137.177 E20.37770
G1 X115.261 Y137.267 E20.39622
G1 X115.071 Y137.347 E20.41439
G1 X114.881 Y137.417 E20.43223
G1 X114.681 Y137.477 E20.45063
G1 X114.481 Y137.517 E20.46860
G1 X114.281 Y137.547 E20.48642
G1 X114.081 Y137.567 E20.50413
G1 X113.871 Y137.577 E20.52266
G1 X66.121 Y137.577 E24.73008
G1 X65.921 Y137.567 E24.74773
G1 X65.711 Y137.547 E24.76632
G1 X65.511 Y137.517 E24.78414
G1 X65.311 Y137.477 E24.80211
G1 X65.121 Y137.417 E24.81967
G1 X64.921 Y137.347 E24.83834
G1 X64.741 Y137.267 E24.85569
G1 X64.551 Y137.177 E24.87422
G1 X64.381 Y137.077 E24.89160
G1 X64.211 Y136.967 E24.90944
G1 X23.891 Y108.167 E29.27542
G1 X23.881 Y108.157 E29.27666
G1 X9.181 Y97.557 E30.87357
G1 X9.021 Y97.437 E30.89119
G1 X8.871 Y97.307 E30.90868
G1 X8.741 Y97.177 E30.92488
G1 X8.601 Y97.027 E30.94296
G1 X8.481 Y96.877 E30.95988
G1 X8.371 Y96.717 E30.97699
G1 X8.271 Y96.557 E30.99362
G1 X8.171 Y96.387 E31.01100
G1 X8.091 Y96.207 E31.02835
G1 X7.951 Y95.847 E31.06239
G1 X7.901 Y95.657 E31.07970
G1 X7.861 Y95.467 E31.09681
G1 X7.831 Y95.277 E31.11376
G1 X7.821 Y95.077 E31.13140
G1 X7.811 Y94.887 E31.14817
G1 X7.811 Y88.277 E31.73060
G1 X7.821 Y88.067 E31.74912
G1 X7.841 Y87.867 E31.76683
G1 X7.871 Y87.667 E31.78465
G1 X7.911 Y87.457 E31.80349
G1 X7.971 Y87.267 E31.82105
G1 X8.041 Y87.067 E31.83972
G1 X8.121 Y86.877 E31.85788
G1 X8.321 Y86.517 E31.89417
G1 X8.441 Y86.347 E31.91251
G1 X8.561 Y86.187 E31.93013
G1 X8.701 Y86.027 E31.94886
G1 X8.841 Y85.887 E31.96631
G1 X9.001 Y85.747 E31.98504
G1 X47.431 Y53.777 E36.38980
G1 X47.841 Y54.277 F10800.000
G1 X47.981 Y54.167 F900.000 E36.40548
G1 X62.671 Y43.567 E38.00167
G1 X62.831 Y43.457 E38.01878
G1 X62.981 Y43.367 E38.03419
G1 X63.151 Y43.287 E38.05075
G1 X63.321 Y43.217 E38.06695
G1 X63.491 Y43.167 E38.08256
G1 X63.671 Y43.117 E38.09902
G1 X63.851 Y43.087 E38.11510
G1 X64.041 Y43.067 E38.13194
G1 X112.151 Y43.067 E42.37109
G1 X112.341 Y43.087 E42.38792
G1 X112.521 Y43.117 E42.40400
G1 X112.701 Y43.167 E42.42046
G1 X112.871 Y43.217 E42.43607
G1 X113.041 Y43.287 E42.45227
G1 X113.211 Y43.367 E42.46883
G1 X113.361 Y43.457 E42.48424
G1 X113.521 Y43.567 E42.50135
G1 X128.211 Y54.167 E44.09754
G1 X128.221 Y54.167 E44.09842
G1 X170.451 Y84.867 E48.69882
G1 X170.591 Y84.977 E48.71451
G1 X170.721 Y85.097 E48.73009
G1 X170.961 Y85.357 E48.76127
G1 X171.061 Y85.497 E48.77643
G1 X171.161 Y85.647 E48.79232
G1 X171.251 Y85.807 E48.80849
G1 X171.321 Y85.967 E48.82388
G1 X171.391 Y86.137 E48.84008
G1 X171.441 Y86.307 E48.85569
G1 X171.481 Y86.477 E48.87108
G1 X171.511 Y86.657 E48.88716
G1 X171.531 Y86.827 E48.90224
G1 X171.531 Y93.797 E49.51640
G1 X171.511 Y93.967 E49.53148
G1 X171.481 Y94.137 E49.54669
G1 X171.441 Y94.307 E49.56208
G1 X171.391 Y94.477 E49.57769
G1 X171.331 Y94.647 E49.59358
G1 X171.251 Y94.807 E49.60934
G1 X171.171 Y94.957 E49.62432
G1 X171.081 Y95.107 E49.63973
G1 X170.861 Y95.387 E49.67111
G1 X170.741 Y95.507 E49.68606
G1 X170.611 Y95.627 E49.70165
G1 X170.471 Y95.737 E49.71734
G1 X130.141 Y125.807 E54.15000
G1 X130.111 Y125.827 E54.15318
G1 X115.421 Y136.427 E55.74937
G1 X115.261 Y136.537 E55.76648
G1 X115.111 Y136.627 E55.78189
G1 X114.941 Y136.707 E55.79845
G1 X114.771 Y136.777 E55.81465
G1 X114.601 Y136.827 E55.83026
G1 X114.421 Y136.877 E55.84672
G1 X114.241 Y136.907 E55.86280
G1 X114.051 Y136.927 E55.87963
G1 X65.941 Y136.927 E60.11878
G1 X65.761 Y136.907 E60.13474
G1 X65.581 Y136.877 E60.15082
G1 X65.401 Y136.827 E60.16728
G1 X65.231 Y136.777 E60.18290
G1 X65.061 Y136.707 E60.19910
G1 X64.891 Y136.627 E60.21565
G1 X64.731 Y136.537 E60.23183
G1 X64.581 Y136.437 E60.24771
G1 X24.261 Y107.637 E64.61369
G1 X24.251 Y107.637 E64.61457
G1 X9.551 Y97.037 E66.21147
G1 X9.411 Y96.927 E66.22716
G1 X9.281 Y96.807 E66.24275
G1 X9.151 Y96.677 E66.25895
G1 X8.931 Y96.397 E66.29033
G1 X8.831 Y96.247 E66.30621
G1 X8.671 Y95.927 E66.33774
G1 X8.601 Y95.767 E66.35312
G1 X8.551 Y95.597 E66.36874
G1 X8.511 Y95.417 E66.38499
G1 X8.481 Y95.247 E66.40020
G1 X8.461 Y95.067 E66.41615
G1 X8.461 Y88.097 E67.03031
G1 X8.481 Y87.917 E67.04627
G1 X8.511 Y87.747 E67.06148
G1 X8.551 Y87.577 E67.07686
G1 X8.601 Y87.397 E67.09333
G1 X8.741 Y87.077 E67.12410
G1 X8.831 Y86.917 E67.14028
G1 X8.931 Y86.767 E67.15616
G1 X9.031 Y86.627 E67.17132
G1 X9.151 Y86.487 E67.18757
G1 X9.411 Y86.247 E67.21875
G1 X47.841 Y54.277 E71.62350
G1 F1800.000 E70.82350
G92 E0
G1 X58.231 Y91.622 F10800.000
G1 F1800.000 E0.80000
G1 X56.190 Y93.249 F900.000 E1.02996
G1 X53.646 Y92.668 E1.25990
G1 X52.514 Y90.317 E1.48986
G1 X53.646 Y87.965 E1.71981
G1 X56.190 Y87.385 E1.94976
G1 X58.231 Y89.012 E2.17971
G1 X58.231 Y91.622 E2.40967
G1 X57.586 Y91.311 F10800.000
G1 X56.031 Y92.551 F900.000 E2.58492
G1 X54.092 Y92.109 E2.76017
G1 X53.229 Y90.317 E2.93542
G1 X54.092 Y88.525 E3.11067
G1 X56.031 Y88.082 E3.28591
G1 X57.586 Y89.322 E3.46116
G1 X57.586 Y91.311 E3.63642
G1 X62.181 Y93.696 F10800.000
G1 X62.181 Y86.537 F900.000 E4.26716
G1 X64.693 Y86.537 E4.48849
G1 X66.105 Y86.683 E4.61354
G1 X67.842 Y86.792 E4.76692
G1 X69.521 Y86.827 E4.91491
G1 X71.200 Y86.792 E5.06289
G1 X72.938 Y86.683 E5.21627
G1 X74.349 Y86.537 E5.34132
G1 X76.861 Y86.537 E5.56265
G1 X76.861 Y93.696 E6.19340
G1 X62.181 Y93.696 E7.48689
G1 X62.826 Y93.051 F10800.000
G1 X62.826 Y87.182 F900.000 E8.00405
G1 X64.660 Y87.182 E8.16565
G1 X66.052 Y87.326 E8.28893
G1 X67.815 Y87.436 E8.44463
G1 X69.521 Y87.472 E8.59499
G1 X71.227 Y87.436 E8.74535
G1 X72.991 Y87.326 E8.90104
G1 X74.382 Y87.182 E9.02432
G1 X76.216 Y87.182 E9.18593
G1 X76.216 Y93.051 E9.70308
G1 X62.826 Y93.051 E10.88298
G1 X63.470 Y92.407 F10800.000
G1 X63.470 Y87.827 F900.000 E11.28654
G1 X64.627 Y87.827 E11.38843
G1 X65.998 Y87.968 E11.50993
G1 X67.788 Y88.080 E11.66795
G1 X68.002 Y88.085 E11.68675
G1 X68.002 Y88.085 E11.68675
G1 X69.521 Y88.117 E11.82068
G1 X71.254 Y88.080 E11.97341
G1 X73.044 Y87.968 E12.13144
G1 X74.416 Y87.827 E12.25294
G1 X75.572 Y87.827 E12.35482
G1 X75.572 Y92.407 E12.75838
G1 X63.470 Y92.407 E13.82469
G1 F1800.000 E13.02469
G92 E0
G1 X80.514 Y90.317 F10800.000
G1 F1800.000 E0.80000
G1 X81.646 Y87.965 F900.000 E1.02996
G1 X84.190 Y87.385 E1.25990
G1 X86.231 Y89.012 E1.48986
G1 X86.231 Y91.622 E1.71981
G1 X84.190 Y93.249 E1.94977
G1 X81.646 Y92.668 E2.17972
G1 X80.514 Y90.317 E2.40967
G1 X81.229 Y90.317 F10800.000
G1 X82.092 Y88.525 F900.000 E2.58492
G1 X84.031 Y88.082 E2.76017
G1 X85.586 Y89.322 E2.93542
G1 X85.586 Y91.311 E3.11067
G1 X84.031 Y92.551 E3.28592
G1 X82.092 Y92.109 E3.46116
G1 X81.229 Y90.317 E3.63641
G1 F1800.000 E2.83641
G92 E0
G1 X53.739 Y86.804 F10800.000
G1 F1800.000 E0.80000
G1 X56.958 Y84.946 F900.000 E1.12751
G1 X61.150 Y84.946 E1.49694
G1 X61.150 Y82.573 E1.70600
G1 X66.028 Y77.696 E2.31377
G1 X73.015 Y77.696 E2.92942
G1 X77.892 Y82.573 E3.53719
G1 X77.892 Y84.946 E3.74626
G1 X82.085 Y84.946 E4.11569
G1 X84.557 Y86.373 E4.36726
G1 X84.516 Y86.649 E4.39184
G1 X81.200 Y87.406 E4.69151
G1 X79.798 Y90.317 E4.97617
G1 X81.200 Y93.227 E5.26083
G1 X84.516 Y93.984 E5.56049
G1 X84.557 Y94.260 E5.58507
G1 X82.085 Y95.687 E5.83665
G1 X77.892 Y95.687 E6.20608
G1 X77.892 Y98.060 E6.41514
G1 X73.015 Y102.937 E7.02291
G1 X66.028 Y102.937 E7.63857
G1 X61.150 Y98.060 E8.24633
G1 X61.150 Y95.687 E8.45540
G1 X56.958 Y95.687 E8.82483
G1 X53.739 Y93.829 E9.15234
G1 X53.911 Y93.390 E9.19393
G1 X56.349 Y93.946 E9.41430
G1 X58.875 Y91.932 E9.69896
G1 X58.875 Y88.701 E9.98362
G1 X56.349 Y86.687 E10.26828
G1 X53.911 Y87.244 E10.48865
G1 X53.739 Y86.804 E10.53025
G1 F1800.000 E9.73025
G92 E0
G1 X85.274 Y93.209 F10800.000
G1 F1800.000 E0.80000
G1 X86.748 Y92.034 F900.000 E0.96603
G1 X86.954 Y92.133 E0.98624
G1 X86.954 Y92.876 E1.05168
G1 X85.586 Y93.666 E1.19088
G1 X85.274 Y93.209 E1.23964
G1 F1800.000 E0.43964
G92 E0
G1 X53.147 Y93.117 F10800.000
G1 F1800.000 E0.80000
G1 X52.901 Y93.345 F900.000 E0.82956
G1 X52.088 Y92.876 E0.91227
G1 X52.088 Y91.816 E1.00563
G1 X52.478 Y91.728 E1.04085
G1 X52.731 Y92.253 E1.09225
G1 X52.731 Y92.253 E1.09225
G1 X53.147 Y93.117 E1.17675
G1 X52.478 Y88.906 F10800.000
G1 X52.088 Y88.817 F900.000 E1.21197
G1 X52.088 Y87.757 E1.30533
G1 X52.901 Y87.288 E1.38804
G1 X53.147 Y87.516 E1.41760
G1 X52.478 Y88.906 E1.55351
G1 F1800.000 E0.75351
G92 E0
G1 X85.274 Y87.425 F10800.000
G1 F1800.000 E0.80000
G1 X85.586 Y86.967 F900.000 E0.84876
G1 X86.954 Y87.757 E0.98796
G1 X86.954 Y88.500 E1.05340
G1 X86.748 Y88.599 E1.07360
G1 X85.274 Y87.425 E1.23964
G1 X87.599 Y87.385 F10800.000
G1 X87.599 Y93.248 F900.000 E1.75626
G1 X82.257 Y96.332 E2.29972
G1 X78.537 Y96.332 E2.62757
G1 X78.537 Y98.327 E2.80337
G1 X73.282 Y103.582 E3.45819
G1 X65.761 Y103.582 E4.12089
G1 X60.506 Y98.327 E4.77571
G1 X60.506 Y96.332 E4.95151
G1 X56.785 Y96.332 E5.27936
G1 X51.444 Y93.248 E5.82282
G1 X51.444 Y87.385 E6.33944
G1 X56.785 Y84.301 E6.88290
G1 X60.506 Y84.301 E7.21076
G1 X60.506 Y82.306 E7.38655
G1 X65.761 Y77.051 E8.04137
G1 X73.282 Y77.051 E8.70408
G1 X78.537 Y82.306 E9.35890
G1 X78.537 Y84.301 E9.53469
G1 X82.257 Y84.301 E9.86255
G1 X87.599 Y87.385 E10.40601
G1 X88.243 Y87.013 F10800.000
G1 X88.243 Y93.620 F900.000 E10.98821
G1 X82.430 Y96.977 E11.57968
G1 X79.181 Y96.977 E11.86596
G1 X79.181 Y98.594 E12.00848
G1 X73.549 Y104.227 E12.71035
G1 X65.494 Y104.227 E13.42011
G1 X59.861 Y98.594 E14.12199
G1 X59.861 Y96.977 E14.26451
G1 X56.612 Y96.977 E14.55078
G1 X50.799 Y93.620 E15.14226
G1 X50.799 Y87.013 E15.72446
G1 X56.612 Y83.657 E16.31593
G1 X59.861 Y83.657 E16.60221
G1 X59.861 Y82.039 E16.74473
G1 X65.494 Y76.407 E17.44660
G1 X73.549 Y76.407 E18.15636
G1 X79.181 Y82.039 E18.85823
G1 X79.181 Y83.657 E19.00076
G1 X82.430 Y83.657 E19.28703
G1 X88.243 Y87.013 E19.87851
G1 X88.566 Y87.571 F10800.000
G1 F1800.000 E19.07851
G92 E0
G1 X79.320 Y90.378 F10800.000
G1 F1800.000 E0.80000
G1 X77.361 Y86.985 F1440.000 E1.05753
G1 X77.424 Y85.806 E1.13513
G1 X79.658 Y89.675 E1.42876
G1 X79.997 Y88.971 E1.48006
G1 X77.900 Y85.339 E1.75574
G1 X78.644 Y85.339 E1.80468
G1 X80.335 Y88.268 E2.02700
G1 X80.674 Y87.565 E2.07831
G1 X79.389 Y85.339 E2.24725
G1 X80.133 Y85.339 E2.29619
G1 X81.120 Y87.048 E2.42586
G1 X81.778 Y86.897 E2.47022
G1 X80.878 Y85.339 E2.58849
G1 X81.623 Y85.339 E2.63743
G1 X82.436 Y86.747 E2.74430
G1 X82.958 Y86.362 E2.78696
G1 X82.668 Y85.859 E2.82511
G1 F1800.000 E2.02511
G92 E0
G1 X77.361 Y93.433 F10800.000
G1 F1800.000 E0.80000
G1 X78.435 Y95.294 F1440.000 E0.94126
G1 X79.180 Y95.294 E0.99020
G1 X77.361 Y92.143 E1.22933
G1 X77.360 Y90.854 E1.31410
G1 X79.924 Y95.294 E1.65113
G1 X80.669 Y95.294 E1.70007
G1 X77.361 Y89.564 E2.13498
G1 X77.360 Y88.274 E2.21975
G1 X81.413 Y95.294 E2.75255
G1 X82.133 Y95.250 E2.79992
G1 X81.224 Y93.676 E2.91944
G1 X82.081 Y93.871 E2.97726
G1 X82.691 Y94.928 E3.05746
G1 X77.690 Y95.294 F10800.000
G1 X76.995 Y94.089 F1440.000 E3.14893
G1 F1800.000 E2.34893
G92 E0
G1 X56.625 Y94.918 F10800.000
G1 F1800.000 E0.80000
G1 X56.334 Y94.416 F1440.000 E0.83815
G1 X56.844 Y94.009 E0.88101
G1 X57.586 Y95.294 E0.97854
G1 X58.331 Y95.294 E1.02749
G1 X57.354 Y93.603 E1.15588
G1 X57.864 Y93.196 E1.19874
G1 X59.075 Y95.294 E1.35799
G1 X59.820 Y95.294 E1.40693
G1 X58.374 Y92.789 E1.59704
G1 X58.884 Y92.383 E1.63990
G1 X60.564 Y95.294 E1.86087
G1 X61.309 Y95.294 E1.90981
G1 X59.375 Y91.944 E2.16410
G1 X59.375 Y90.654 E2.24886
G1 X65.966 Y102.071 E3.11536
G1 X66.984 Y102.544 E3.18916
G1 X62.103 Y94.089 E3.83088
G1 X62.847 Y94.089 E3.87982
G1 X67.729 Y102.544 E4.52154
G1 X68.473 Y102.544 E4.57048
G1 X63.592 Y94.089 E5.21221
G1 X64.336 Y94.089 E5.26115
G1 X69.218 Y102.544 E5.90287
G1 X69.963 Y102.544 E5.95181
G1 X65.081 Y94.089 E6.59353
G1 X65.826 Y94.089 E6.64247
G1 X70.707 Y102.544 E7.28419
G1 X71.452 Y102.544 E7.33313
G1 X66.570 Y94.089 E7.97485
G1 X67.315 Y94.089 E8.02380
G1 X72.196 Y102.544 E8.66552
G1 X72.923 Y102.514 E8.71334
G1 X68.059 Y94.089 E9.35274
G1 X68.804 Y94.089 E9.40169
G1 X73.395 Y102.042 E10.00527
G1 X73.867 Y101.570 E10.04915
G1 X69.549 Y94.089 E10.61689
G1 X70.293 Y94.089 E10.66584
G1 X74.339 Y101.097 E11.19776
G1 X74.812 Y100.625 E11.24164
G1 X71.038 Y94.089 E11.73773
G1 X71.782 Y94.089 E11.78667
G1 X75.284 Y100.153 E12.24693
G1 X75.756 Y99.681 E12.29081
G1 X72.527 Y94.089 E12.71524
G1 X73.272 Y94.089 E12.76419
G1 X76.228 Y99.209 E13.15279
G1 X76.700 Y98.737 E13.19667
G1 X74.016 Y94.089 E13.54945
G1 X74.761 Y94.089 E13.59839
G1 X77.172 Y98.265 E13.91535
G1 X77.392 Y97.358 E13.97673
G1 X75.505 Y94.089 E14.22480
G1 X76.250 Y94.089 E14.27375
G1 X77.393 Y96.068 E14.42394
G1 F1800.000 E13.62394
G92 E0
G1 X61.650 Y95.884 F10800.000
G1 F1800.000 E0.80000
G1 X64.204 Y100.309 F1440.000 E1.13583
G1 X62.443 Y98.547 E1.29959
G1 X61.650 Y97.174 E1.40382
G1 F1800.000 E0.60382
G92 E0
G1 X59.375 Y89.364 F10800.000
G1 F1800.000 E0.80000
G1 X61.682 Y93.360 F1440.000 E1.10327
G1 F1800.000 E0.30327
G92 E0
G1 X61.682 Y86.912 F10800.000
G1 F1800.000 E0.80000
G1 X60.774 Y85.339 F1440.000 E0.91937
G1 X60.029 Y85.339 E0.96831
G1 X61.682 Y88.201 E1.18556
G1 X61.682 Y89.491 E1.27033
G1 X59.285 Y85.339 E1.58547
G1 X58.540 Y85.339 E1.63441
G1 X61.682 Y90.781 E2.04743
G1 X61.682 Y92.071 E2.13220
G1 X57.795 Y85.339 E2.64311
G1 X57.051 Y85.339 E2.69205
G1 X58.354 Y87.597 E2.86343
G1 X56.975 Y86.497 E2.97944
