; generated by Slic3r 0.9.6-dev on 2012-11-16 at 23:05:12

; layer_height = 0.33
; perimeters = 3
; top_solid_layers = 3
; bottom_solid_layers = 3
; fill_density = 0.20
; perimeter_speed = 50
; infill_speed = 75
; travel_speed = 160
; scale = 1
; nozzle_diameter = 0.35
; filament_diameter = 1.74
; extrusion_multiplier = 1
; perimeters extrusion width = 0.37mm
; infill extrusion width = 0.37mm
; first layer extrusion width = 0.37mm

G28 ; home all axes
M106;
G90 ; use absolute coordinates
G21 ; set units to millimeters
G92 E0
M82 ; use absolute distances for extrusion
G1 F1200.000 E-1.00000
G92 E0
G1 Z0.330 F9600.000
G1 X8.925 Y85.478
G1 F1200.000 E1.00000
G1 X48.735 Y54.058 F900.000 E3.56013
G1 X48.965 Y53.878 E3.57487
G1 X63.755 Y43.208 E4.49549
G1 X63.985 Y43.048 E4.50963
G1 X64.225 Y42.898 E4.52392
G1 X64.705 Y42.638 E4.55148
G1 X64.965 Y42.518 E4.56593
G1 X65.215 Y42.408 E4.57972
G1 X65.475 Y42.308 E4.59378
G1 X65.745 Y42.228 E4.60800
G1 X66.005 Y42.148 E4.62173
G1 X66.285 Y42.088 E4.63618
G1 X66.825 Y41.988 E4.66391
G1 X67.105 Y41.958 E4.67812
G1 X67.385 Y41.948 E4.69227
G1 X107.195 Y40.098 E6.70406
G1 X107.505 Y40.088 E6.71971
G1 X115.955 Y40.088 E7.14627
G1 X116.235 Y40.108 E7.16044
G1 X116.515 Y40.138 E7.17466
G1 X116.795 Y40.178 E7.18893
G1 X117.065 Y40.228 E7.20280
G1 X117.345 Y40.298 E7.21737
G1 X117.615 Y40.368 E7.23145
G1 X117.875 Y40.458 E7.24533
G1 X118.145 Y40.558 E7.25987
G1 X118.395 Y40.658 E7.27346
G1 X118.655 Y40.778 E7.28792
G1 X118.905 Y40.908 E7.30214
G1 X119.145 Y41.048 E7.31617
G1 X119.385 Y41.198 E7.33045
G1 X119.615 Y41.358 E7.34460
G1 X134.405 Y52.028 E8.26521
G1 X134.645 Y52.208 E8.28036
G1 X175.075 Y84.248 E10.88445
G1 X175.495 Y84.608 E10.91237
G1 X175.695 Y84.808 E10.92665
G1 X175.875 Y85.008 E10.94023
G1 X176.065 Y85.208 E10.95416
G1 X176.235 Y85.428 E10.96820
G1 X176.395 Y85.648 E10.98193
G1 X176.555 Y85.878 E10.99607
G1 X176.695 Y86.108 E11.00966
G1 X176.835 Y86.348 E11.02369
G1 X177.075 Y86.848 E11.05169
G1 X177.175 Y87.108 E11.06575
G1 X177.265 Y87.358 E11.07916
G1 X177.355 Y87.628 E11.09353
G1 X177.425 Y87.888 E11.10712
G1 X177.485 Y88.158 E11.12108
G1 X177.535 Y88.428 E11.13494
G1 X177.575 Y88.708 E11.14922
G1 X177.605 Y88.978 E11.16294
G1 X177.625 Y89.248 E11.17660
G1 X177.625 Y96.588 E11.54713
G1 X177.605 Y96.858 E11.56080
G1 X177.575 Y97.128 E11.57451
G1 X177.535 Y97.398 E11.58829
G1 X177.485 Y97.668 E11.60215
G1 X177.425 Y97.938 E11.61611
G1 X177.355 Y98.198 E11.62970
G1 X177.275 Y98.458 E11.64344
G1 X177.185 Y98.708 E11.65685
G1 X177.085 Y98.968 E11.67091
G1 X176.975 Y99.208 E11.68424
G1 X176.855 Y99.458 E11.69824
G1 X176.715 Y99.698 E11.71226
G1 X176.575 Y99.928 E11.72585
G1 X176.425 Y100.158 E11.73972
G1 X176.265 Y100.378 E11.75345
G1 X175.925 Y100.798 E11.78073
G1 X175.735 Y100.998 E11.79465
G1 X175.545 Y101.188 E11.80822
G1 X175.345 Y101.368 E11.82180
G1 X175.135 Y101.548 E11.83576
G1 X174.925 Y101.708 E11.84909
G1 X134.495 Y131.888 E14.39593
G1 X134.405 Y131.958 E14.40168
G1 X119.615 Y142.628 E15.32230
G1 X119.385 Y142.788 E15.33644
G1 X119.145 Y142.938 E15.35073
G1 X118.905 Y143.078 E15.36475
G1 X118.655 Y143.208 E15.37898
G1 X118.395 Y143.328 E15.39343
G1 X118.145 Y143.428 E15.40703
G1 X117.875 Y143.528 E15.42156
G1 X117.615 Y143.618 E15.43545
G1 X117.345 Y143.688 E15.44953
G1 X117.065 Y143.758 E15.46410
G1 X116.795 Y143.808 E15.47796
G1 X116.515 Y143.848 E15.49224
G1 X116.235 Y143.878 E15.50645
G1 X115.955 Y143.898 E15.52062
G1 X66.795 Y143.898 E18.00224
G1 X66.515 Y143.878 E18.01641
G1 X66.235 Y143.848 E18.03062
G1 X65.955 Y143.808 E18.04490
G1 X65.685 Y143.758 E18.05876
G1 X65.405 Y143.688 E18.07333
G1 X65.135 Y143.618 E18.08741
G1 X64.875 Y143.528 E18.10130
G1 X64.605 Y143.428 E18.11583
G1 X64.355 Y143.328 E18.12943
G1 X64.095 Y143.208 E18.14388
G1 X63.845 Y143.078 E18.15811
G1 X63.605 Y142.938 E18.17213
G1 X63.365 Y142.788 E18.18642
G1 X63.135 Y142.628 E18.20056
G1 X48.345 Y131.958 E19.12118
G1 X48.285 Y131.908 E19.12512
G1 X9.095 Y102.958 E21.58469
G1 X8.875 Y102.798 E21.59842
G1 X8.665 Y102.618 E21.61238
G1 X8.465 Y102.438 E21.62597
G1 X8.275 Y102.248 E21.63953
G1 X8.085 Y102.048 E21.65345
G1 X7.905 Y101.838 E21.66742
G1 X7.735 Y101.618 E21.68145
G1 X7.575 Y101.398 E21.69518
G1 X7.425 Y101.178 E21.70863
G1 X7.145 Y100.698 E21.73668
G1 X7.025 Y100.458 E21.75022
G1 X6.805 Y99.958 E21.77780
G1 X6.715 Y99.698 E21.79169
G1 X6.635 Y99.438 E21.80542
G1 X6.565 Y99.168 E21.81950
G1 X6.505 Y98.908 E21.83297
G1 X6.455 Y98.638 E21.84683
G1 X6.415 Y98.368 E21.86061
G1 X6.385 Y98.098 E21.87432
G1 X6.365 Y97.818 E21.88849
G1 X6.365 Y90.478 E22.25902
G1 X6.385 Y90.208 E22.27269
G1 X6.415 Y89.928 E22.28690
G1 X6.455 Y89.658 E22.30068
G1 X6.505 Y89.388 E22.31454
G1 X6.565 Y89.118 E22.32850
G1 X6.635 Y88.848 E22.34258
G1 X6.815 Y88.328 E22.37036
G1 X6.925 Y88.078 E22.38415
G1 X7.035 Y87.818 E22.39840
G1 X7.295 Y87.338 E22.42596
G1 X7.445 Y87.098 E22.44024
G1 X7.595 Y86.868 E22.45411
G1 X7.765 Y86.648 E22.46814
G1 X7.935 Y86.438 E22.48178
G1 X8.115 Y86.228 E22.49574
G1 X8.305 Y86.028 E22.50967
G1 X8.505 Y85.838 E22.52359
G1 X8.715 Y85.648 E22.53789
G1 X8.925 Y85.478 E22.55153
G1 X9.155 Y85.758 F9600.000
G1 X48.965 Y54.338 F900.000 E25.11166
G1 X49.185 Y54.178 E25.12539
G1 X63.975 Y43.508 E26.04600
G1 X64.205 Y43.348 E26.06015
G1 X64.445 Y43.198 E26.07443
G1 X64.695 Y43.058 E26.08890
G1 X64.945 Y42.928 E26.10312
G1 X65.205 Y42.808 E26.11758
G1 X65.465 Y42.708 E26.13164
G1 X65.735 Y42.608 E26.14618
G1 X66.005 Y42.528 E26.16039
G1 X66.275 Y42.458 E26.17447
G1 X66.835 Y42.358 E26.20319
G1 X67.115 Y42.328 E26.21740
G1 X67.395 Y42.308 E26.23157
G1 X107.205 Y40.458 E28.24336
G1 X107.505 Y40.448 E28.25852
G1 X115.675 Y40.448 E28.67094
G1 X115.955 Y40.458 E28.68508
G1 X116.245 Y40.478 E28.69976
G1 X116.525 Y40.508 E28.71397
G1 X117.085 Y40.608 E28.74269
G1 X117.355 Y40.678 E28.75677
G1 X117.635 Y40.758 E28.77147
G1 X117.905 Y40.858 E28.78600
G1 X118.165 Y40.958 E28.80007
G1 X118.425 Y41.078 E28.81452
G1 X118.675 Y41.208 E28.82875
G1 X118.925 Y41.348 E28.84321
G1 X119.165 Y41.498 E28.85750
G1 X119.395 Y41.658 E28.87164
G1 X134.185 Y52.328 E29.79226
G1 X134.415 Y52.498 E29.80669
G1 X174.845 Y84.538 E32.41079
G1 X175.265 Y84.898 E32.43871
G1 X175.455 Y85.088 E32.45227
G1 X175.645 Y85.288 E32.46620
G1 X175.985 Y85.708 E32.49348
G1 X176.145 Y85.928 E32.50721
G1 X176.295 Y86.158 E32.52107
G1 X176.435 Y86.398 E32.53510
G1 X176.565 Y86.638 E32.54888
G1 X176.685 Y86.878 E32.56242
G1 X176.795 Y87.128 E32.57621
G1 X176.975 Y87.648 E32.60399
G1 X177.055 Y87.908 E32.61772
G1 X177.115 Y88.178 E32.63168
G1 X177.165 Y88.438 E32.64505
G1 X177.205 Y88.708 E32.65882
G1 X177.235 Y88.978 E32.67254
G1 X177.255 Y89.258 E32.68671
G1 X177.265 Y89.528 E32.70035
G1 X177.265 Y96.318 E33.04311
G1 X177.255 Y96.588 E33.05675
G1 X177.235 Y96.858 E33.07041
G1 X177.205 Y97.118 E33.08363
G1 X177.165 Y97.388 E33.09741
G1 X177.115 Y97.648 E33.11077
G1 X177.055 Y97.918 E33.12473
G1 X176.985 Y98.178 E33.13833
G1 X176.905 Y98.428 E33.15158
G1 X176.705 Y98.928 E33.17876
G1 X176.585 Y99.168 E33.19231
G1 X176.455 Y99.408 E33.20608
G1 X176.325 Y99.638 E33.21942
G1 X176.175 Y99.868 E33.23328
G1 X176.025 Y100.088 E33.24672
G1 X175.865 Y100.298 E33.26005
G1 X175.685 Y100.508 E33.27401
G1 X175.505 Y100.708 E33.28760
G1 X175.315 Y100.898 E33.30116
G1 X174.915 Y101.258 E33.32833
G1 X174.705 Y101.418 E33.34165
G1 X134.275 Y131.598 E35.88849
G1 X134.185 Y131.658 E35.89395
G1 X119.395 Y142.328 E36.81457
G1 X119.165 Y142.488 E36.82871
G1 X118.925 Y142.638 E36.84300
G1 X118.675 Y142.778 E36.85746
G1 X118.425 Y142.908 E36.87169
G1 X118.165 Y143.028 E36.88614
G1 X117.905 Y143.128 E36.90020
G1 X117.635 Y143.228 E36.91474
G1 X117.355 Y143.308 E36.92944
G1 X117.085 Y143.378 E36.94352
G1 X116.525 Y143.478 E36.97223
G1 X116.245 Y143.508 E36.98645
G1 X115.955 Y143.528 E37.00112
G1 X115.675 Y143.538 E37.01527
G1 X67.075 Y143.538 E39.46861
G1 X66.795 Y143.528 E39.48275
G1 X66.505 Y143.508 E39.49743
G1 X66.225 Y143.478 E39.51164
G1 X65.665 Y143.378 E39.54036
G1 X65.395 Y143.308 E39.55444
G1 X65.115 Y143.228 E39.56914
G1 X64.845 Y143.128 E39.58367
G1 X64.585 Y143.028 E39.59774
G1 X64.325 Y142.908 E39.61219
G1 X64.075 Y142.778 E39.62642
G1 X63.825 Y142.638 E39.64088
G1 X63.585 Y142.488 E39.65517
G1 X63.355 Y142.328 E39.66931
G1 X48.565 Y131.658 E40.58993
G1 X48.505 Y131.618 E40.59357
G1 X9.315 Y102.668 E43.05313
G1 X9.095 Y102.498 E43.06717
G1 X8.895 Y102.328 E43.08042
G1 X8.695 Y102.148 E43.09400
G1 X8.505 Y101.958 E43.10757
G1 X8.315 Y101.758 E43.12149
G1 X7.975 Y101.338 E43.14877
G1 X7.825 Y101.118 E43.16221
G1 X7.675 Y100.888 E43.17607
G1 X7.535 Y100.658 E43.18966
G1 X7.415 Y100.418 E43.20321
G1 X7.295 Y100.168 E43.21721
G1 X7.185 Y99.918 E43.23100
G1 X7.005 Y99.418 E43.25782
G1 X6.935 Y99.148 E43.27190
G1 X6.875 Y98.888 E43.28537
G1 X6.825 Y98.628 E43.29874
G1 X6.785 Y98.358 E43.31252
G1 X6.755 Y98.088 E43.32623
G1 X6.735 Y97.818 E43.33990
G1 X6.725 Y97.548 E43.35354
G1 X6.725 Y90.758 E43.69630
G1 X6.735 Y90.488 E43.70994
G1 X6.755 Y90.208 E43.72411
G1 X6.785 Y89.938 E43.73782
G1 X6.825 Y89.668 E43.75160
G1 X6.875 Y89.398 E43.76546
G1 X6.935 Y89.138 E43.77893
G1 X7.015 Y88.868 E43.79314
G1 X7.105 Y88.608 E43.80703
G1 X7.195 Y88.358 E43.82045
G1 X7.305 Y88.108 E43.83423
G1 X7.425 Y87.858 E43.84823
G1 X7.555 Y87.618 E43.86201
G1 X7.695 Y87.388 E43.87560
G1 X7.845 Y87.158 E43.88947
G1 X8.005 Y86.928 E43.90361
G1 X8.175 Y86.718 E43.91725
G1 X8.355 Y86.508 E43.93121
G1 X8.545 Y86.308 E43.94514
G1 X8.735 Y86.118 E43.95870
G1 X9.155 Y85.758 E43.98662
G1 F1200.000 E42.98662
G92 E0
G1 X58.530 Y96.177 F9600.000
G1 F1200.000 E1.00000
G1 X55.708 Y95.533 F900.000 E1.14613
G1 X54.452 Y92.925 E1.29226
G1 X55.708 Y90.317 E1.43840
G1 X58.530 Y89.673 E1.58452
G1 X60.793 Y91.478 E1.73066
G1 X60.793 Y94.372 E1.87679
G1 X58.530 Y96.177 E2.02293
G1 X58.440 Y95.782 F9600.000
G1 X55.961 Y95.216 F900.000 E2.15128
G1 X54.858 Y92.925 E2.27964
G1 X55.961 Y90.634 E2.40800
G1 X58.440 Y90.068 E2.53635
G1 X60.428 Y91.654 E2.66471
G1 X60.428 Y94.196 E2.79307
G1 X58.440 Y95.782 E2.92142
G1 X58.349 Y95.386 F9600.000
G1 X56.214 Y94.899 F900.000 E3.03200
G1 X55.263 Y92.925 E3.14258
G1 X56.214 Y90.951 E3.25316
G1 X58.349 Y90.464 E3.36374
G1 X59.834 Y91.648 E3.45958
G1 X59.834 Y91.648 E3.45958
G1 X60.062 Y91.830 E3.47432
G1 X60.062 Y94.020 E3.58490
G1 X59.912 Y94.140 E3.59462
G1 X59.912 Y94.140 E3.59462
G1 X58.349 Y95.386 E3.69548
G1 X58.259 Y94.990 F9600.000
G1 X56.467 Y94.581 F900.000 E3.78828
G1 X55.669 Y92.925 E3.88109
G1 X56.467 Y91.269 E3.97389
G1 X58.259 Y90.860 E4.06669
G1 X59.697 Y92.006 E4.15949
G1 X59.697 Y93.844 E4.25230
G1 X58.259 Y94.990 E4.34510
G1 F1200.000 E3.34510
G92 E0
G1 X64.812 Y95.956 F9600.000
G1 F1200.000 E1.00000
G1 X64.812 Y89.494 F900.000 E1.32617
G1 X66.957 Y89.494 E1.43446
G1 X68.341 Y89.637 E1.50471
G1 X70.093 Y89.747 E1.59333
G1 X71.788 Y89.782 E1.67888
G1 X73.482 Y89.747 E1.76443
G1 X75.234 Y89.637 E1.85305
G1 X76.618 Y89.494 E1.92329
G1 X78.764 Y89.494 E2.03159
G1 X78.764 Y95.956 E2.35775
G1 X64.812 Y95.956 E3.06205
G1 X65.177 Y95.590 F9600.000
G1 X65.177 Y89.860 F900.000 E3.35131
G1 X66.938 Y89.860 E3.44019
G1 X68.311 Y90.002 E3.50986
G1 X70.078 Y90.112 E3.59924
G1 X71.788 Y90.148 E3.68556
G1 X73.497 Y90.112 E3.77188
G1 X75.264 Y90.002 E3.86126
G1 X76.637 Y89.860 E3.93092
G1 X78.398 Y89.860 E4.01981
G1 X78.398 Y95.590 E4.30907
G1 X65.177 Y95.590 E4.97645
G1 X65.543 Y95.224 F9600.000
G1 X65.543 Y90.226 F900.000 E5.22879
G1 X66.919 Y90.226 E5.29827
G1 X68.281 Y90.366 E5.36736
G1 X70.063 Y90.478 E5.45750
G1 X71.788 Y90.514 E5.54458
G1 X73.513 Y90.478 E5.63167
G1 X75.295 Y90.366 E5.72181
G1 X76.656 Y90.226 E5.79090
G1 X78.033 Y90.226 E5.86038
G1 X78.033 Y95.224 E6.11272
G1 X65.543 Y95.224 E6.74319
G1 X65.909 Y94.859 F9600.000
G1 X65.909 Y90.591 F900.000 E6.95862
G1 X66.901 Y90.591 E7.00869
G1 X68.251 Y90.731 E7.07721
G1 X70.048 Y90.843 E7.16809
G1 X71.788 Y90.880 E7.25595
G1 X73.528 Y90.843 E7.34381
G1 X75.325 Y90.731 E7.43470
G1 X76.675 Y90.591 E7.50322
G1 X77.667 Y90.591 E7.55329
G1 X77.667 Y94.859 E7.76872
G1 X65.909 Y94.859 E8.36227
G1 F1200.000 E7.36227
G92 E0
G1 X82.452 Y92.925 F9600.000
G1 F1200.000 E1.00000
G1 X83.708 Y90.317 F900.000 E1.14613
G1 X86.530 Y89.673 E1.29226
G1 X88.793 Y91.478 E1.43840
G1 X88.793 Y94.372 E1.58453
G1 X86.530 Y96.177 E1.73067
G1 X83.708 Y95.533 E1.87680
G1 X82.452 Y92.925 E2.02293
G1 X82.858 Y92.925 F9600.000
G1 X83.961 Y90.634 F900.000 E2.15129
G1 X86.440 Y90.068 E2.27964
G1 X88.428 Y91.654 E2.40800
G1 X88.428 Y94.196 E2.53636
G1 X86.440 Y95.782 E2.66471
G1 X83.961 Y95.216 E2.79307
G1 X82.858 Y92.925 E2.92142
G1 X83.263 Y92.925 F9600.000
G1 X84.214 Y90.951 F900.000 E3.03200
G1 X86.349 Y90.464 E3.14258
G1 X88.062 Y91.830 E3.25316
G1 X88.062 Y94.020 E3.36374
G1 X86.349 Y95.386 E3.47433
G1 X84.214 Y94.899 E3.58490
G1 X83.263 Y92.925 E3.69548
G1 X83.669 Y92.925 F9600.000
G1 X84.467 Y91.269 F900.000 E3.78829
G1 X86.259 Y90.860 E3.88109
G1 X87.697 Y92.006 E3.97389
G1 X87.697 Y93.844 E4.06669
G1 X86.259 Y94.990 E4.15950
G1 X84.467 Y94.581 E4.25230
G1 X83.669 Y92.925 E4.34510
G1 F1200.000 E3.34510
G92 E0
G1 X68.155 Y79.956 F9600.000
G1 F1200.000 E1.00000
G1 X75.421 Y79.956 F900.000 E1.36678
G1 X80.507 Y85.042 E1.72990
G1 X80.507 Y87.206 E1.83912
G1 X84.445 Y87.206 E2.03789
G1 X89.569 Y90.164 E2.33660
G1 X89.569 Y95.686 E2.61532
G1 X84.445 Y98.644 E2.91404
G1 X80.507 Y98.644 E3.11280
G1 X80.507 Y100.808 E3.22202
G1 X75.421 Y105.894 E3.58514
G1 X68.155 Y105.894 E3.95192
G1 X63.068 Y100.808 E4.31505
G1 X63.068 Y98.644 E4.42426
G1 X59.131 Y98.644 E4.62303
G1 X54.006 Y95.686 E4.92175
G1 X54.006 Y90.164 E5.20046
G1 X59.131 Y87.206 E5.49918
G1 X63.068 Y87.206 E5.69794
G1 X63.068 Y85.042 E5.80716
G1 X68.155 Y79.956 E6.17028
G1 X68.003 Y79.590 F9600.000
G1 X75.572 Y79.590 F900.000 E6.55236
G1 X80.873 Y84.891 E6.93077
G1 X80.873 Y86.840 E7.02917
G1 X84.543 Y86.840 E7.21443
G1 X89.935 Y89.953 E7.52874
G1 X89.935 Y95.897 E7.82877
G1 X84.543 Y99.010 E8.14309
G1 X80.873 Y99.010 E8.32835
G1 X80.873 Y100.959 E8.42675
G1 X75.572 Y106.260 E8.80516
G1 X68.003 Y106.260 E9.18724
G1 X62.703 Y100.959 E9.56565
G1 X62.703 Y99.010 E9.66405
G1 X59.033 Y99.010 E9.84931
G1 X53.641 Y95.897 E10.16362
G1 X53.641 Y89.953 E10.46365
G1 X59.033 Y86.840 E10.77797
G1 X62.703 Y86.840 E10.96323
G1 X62.703 Y84.891 E11.06163
G1 X68.003 Y79.590 E11.44004
G1 X67.852 Y79.224 F9600.000
G1 X75.724 Y79.224 F900.000 E11.83741
G1 X81.238 Y84.739 E12.23111
G1 X81.238 Y86.474 E12.31870
G1 X84.641 Y86.474 E12.49044
G1 X90.301 Y89.742 E12.82036
G1 X90.301 Y96.108 E13.14170
G1 X84.641 Y99.376 E13.47162
G1 X81.238 Y99.376 E13.64337
G1 X81.238 Y101.111 E13.73096
G1 X75.724 Y106.626 E14.12466
G1 X67.852 Y106.626 E14.52202
G1 X62.337 Y101.111 E14.91573
G1 X62.337 Y99.376 E15.00332
G1 X58.935 Y99.376 E15.17506
G1 X53.275 Y96.108 E15.50498
G1 X53.275 Y89.742 E15.82632
G1 X58.935 Y86.474 E16.15624
G1 X62.337 Y86.474 E16.32798
G1 X62.337 Y84.739 E16.41558
G1 X67.852 Y79.224 E16.80928
G1 X67.701 Y78.859 F9600.000
G1 X75.875 Y78.859 F900.000 E17.22193
G1 X81.604 Y84.588 E17.63092
G1 X81.604 Y86.109 E17.70771
G1 X84.739 Y86.109 E17.86594
G1 X90.666 Y89.531 E18.21146
G1 X90.666 Y96.319 E18.55411
G1 X84.739 Y99.741 E18.89963
G1 X81.604 Y99.741 E19.05786
G1 X81.604 Y101.262 E19.13465
G1 X75.875 Y106.991 E19.54364
G1 X67.701 Y106.991 E19.95629
G1 X61.972 Y101.262 E20.36528
G1 X61.972 Y99.741 E20.44206
G1 X58.837 Y99.741 E20.60030
G1 X52.909 Y96.319 E20.94582
G1 X52.909 Y89.531 E21.28847
G1 X58.837 Y86.109 E21.63399
G1 X61.972 Y86.109 E21.79222
