; generated by Slic3r 0.9.6-dev on 2012-12-01 at 13:25:43

; p9.02 I0.59 D 34.38

; layer_height = 0.4
; perimeters = 3
; top_solid_layers = 2
; bottom_solid_layers = 2
; fill_density = 0.2
; perimeter_speed = 50
; infill_speed = 70
; travel_speed = 170
; scale = 1
; nozzle_diameter = 0.4
; filament_diameter = 1.74
; extrusion_multiplier = .92
; perimeters extrusion width = 0.42mm
; infill extrusion width = 0.42mm
; first layer extrusion width = 0.42mm

G28 ; home all axes
G90 ; use absolute coordinates
G21 ; set units to millimeters
G92 E0
M82 ; use absolute distances for extrusion
G1 F1200.000 E-1.00000
G1 Z0.650 F10200.000
G92 E0
G1 X74.627 Y40.036
G1 Z0.400
G1 F1200.000 E1.00000
G1 X76.597 Y39.396 F1200.000 E1.13326
G1 X76.927 Y39.296 E1.15544
G1 X77.257 Y39.216 E1.17729
G1 X77.587 Y39.156 E1.19887
G1 X77.927 Y39.106 E1.22098
G1 X78.267 Y39.076 E1.24294
G1 X79.517 Y38.996 E1.32352
G1 X79.717 Y38.986 E1.33640
G1 X107.467 Y37.996 E3.12284
G1 X107.707 Y37.986 E3.13829
G1 X122.507 Y37.986 E4.09045
G1 X122.777 Y37.996 E4.10783
G1 X123.047 Y38.016 E4.12525
G1 X123.307 Y38.036 E4.14203
G1 X123.577 Y38.076 E4.15959
G1 X123.837 Y38.126 E4.17662
G1 X124.107 Y38.176 E4.19429
G1 X124.367 Y38.246 E4.21161
G1 X124.617 Y38.326 E4.22850
G1 X124.877 Y38.416 E4.24620
G1 X125.127 Y38.506 E4.26329
G1 X125.367 Y38.616 E4.28028
G1 X125.607 Y38.736 E4.29754
G1 X125.847 Y38.866 E4.31510
G1 X126.077 Y38.996 E4.33210
G1 X126.307 Y39.146 E4.34976
G1 X126.527 Y39.296 E4.36689
G1 X126.737 Y39.456 E4.38388
G1 X126.947 Y39.626 E4.40126
G1 X127.147 Y39.806 E4.41857
G1 X127.527 Y40.186 E4.45314
G1 X127.707 Y40.386 E4.47046
G1 X127.877 Y40.596 E4.48784
G1 X128.037 Y40.806 E4.50482
G1 X128.187 Y41.026 E4.52195
G1 X128.337 Y41.256 E4.53962
G1 X128.467 Y41.486 E4.55662
G1 X128.597 Y41.726 E4.57418
G1 X128.717 Y41.966 E4.59144
G1 X128.827 Y42.206 E4.60842
G1 X128.917 Y42.456 E4.62552
G1 X129.007 Y42.716 E4.64322
G1 X129.087 Y42.966 E4.66011
G1 X129.157 Y43.226 E4.67743
G1 X129.207 Y43.496 E4.69510
G1 X129.257 Y43.756 E4.71213
G1 X129.297 Y44.026 E4.72969
G1 X129.317 Y44.286 E4.74647
G1 X129.337 Y44.556 E4.76388
G1 X129.347 Y44.826 E4.78127
G1 X129.347 Y58.126 E5.63692
G1 X129.157 Y130.496 E10.29287
G1 X129.067 Y131.536 E10.36003
G1 X128.897 Y132.616 E10.43036
G1 X128.637 Y133.696 E10.50183
G1 X128.127 Y135.246 E10.60681
G1 X128.037 Y135.506 E10.62451
G1 X127.937 Y135.766 E10.64243
G1 X127.697 Y136.266 E10.67811
G1 X127.567 Y136.516 E10.69624
G1 X126.757 Y137.926 E10.80086
G1 X126.607 Y138.166 E10.81906
G1 X126.447 Y138.406 E10.83762
G1 X126.277 Y138.646 E10.85654
G1 X126.097 Y138.876 E10.87533
G1 X125.907 Y139.096 E10.89403
G1 X124.817 Y140.306 E10.99881
G1 X124.417 Y140.706 E11.03520
G1 X124.207 Y140.896 E11.05342
G1 X123.987 Y141.086 E11.07212
G1 X123.757 Y141.256 E11.09052
G1 X122.437 Y142.216 E11.19553
G1 X121.957 Y142.536 E11.23264
G1 X121.707 Y142.676 E11.25108
G1 X121.447 Y142.816 E11.27007
G1 X121.187 Y142.936 E11.28850
G1 X119.697 Y143.596 E11.39334
G1 X119.437 Y143.706 E11.41150
G1 X119.167 Y143.806 E11.43003
G1 X118.907 Y143.886 E11.44753
G1 X118.627 Y143.966 E11.46626
G1 X118.357 Y144.026 E11.48406
G1 X116.767 Y144.366 E11.58866
G1 X115.867 Y144.506 E11.64726
G1 X96.747 Y145.986 E12.88103
G1 X96.217 Y146.006 E12.91515
G1 X94.597 Y146.006 E13.01937
G1 X94.307 Y145.996 E13.03804
G1 X94.027 Y145.976 E13.05610
G1 X93.737 Y145.946 E13.07485
G1 X93.457 Y145.906 E13.09305
G1 X93.177 Y145.856 E13.11135
G1 X91.577 Y145.516 E13.21658
G1 X91.297 Y145.446 E13.23515
G1 X91.017 Y145.366 E13.25389
G1 X90.747 Y145.276 E13.27220
G1 X90.477 Y145.176 E13.29072
G1 X90.217 Y145.066 E13.30888
G1 X88.737 Y144.406 E13.41314
G1 X88.477 Y144.286 E13.43156
G1 X88.217 Y144.156 E13.45026
G1 X87.977 Y144.016 E13.46814
G1 X87.727 Y143.856 E13.48723
G1 X87.497 Y143.696 E13.50526
G1 X86.177 Y142.736 E13.61027
G1 X85.947 Y142.566 E13.62867
G1 X85.727 Y142.376 E13.64737
G1 X85.517 Y142.186 E13.66559
G1 X85.117 Y141.786 E13.70198
G1 X84.027 Y140.576 E13.80675
G1 X83.667 Y140.136 E13.84333
G1 X83.497 Y139.906 E13.86173
G1 X83.347 Y139.676 E13.87939
G1 X83.197 Y139.436 E13.89760
G1 X82.377 Y138.026 E14.00254
G1 X82.257 Y137.816 E14.01810
G1 X52.257 Y81.756 E18.10868
G1 X52.147 Y81.536 E18.12450
G1 X51.947 Y81.096 E18.15560
G1 X51.787 Y80.636 E18.18693
G1 X51.147 Y78.666 E18.32019
G1 X51.057 Y78.376 E18.33973
G1 X50.917 Y77.776 E18.37937
G1 X50.877 Y77.476 E18.39884
G1 X50.837 Y77.166 E18.41895
G1 X50.817 Y76.866 E18.43829
G1 X50.807 Y76.556 E18.45824
G1 X50.807 Y74.476 E18.59206
G1 X50.817 Y74.166 E18.61201
G1 X50.837 Y73.866 E18.63136
G1 X50.917 Y73.266 E18.67030
G1 X50.977 Y72.966 E18.68998
G1 X51.057 Y72.666 E18.70996
G1 X51.147 Y72.376 E18.72949
G1 X51.787 Y70.396 E18.86337
G1 X51.887 Y70.096 E18.88371
G1 X52.007 Y69.796 E18.90450
G1 X52.137 Y69.506 E18.92494
G1 X52.287 Y69.216 E18.94595
G1 X52.447 Y68.946 E18.96614
G1 X52.617 Y68.676 E18.98667
G1 X68.167 Y45.616 E20.77602
G1 X68.307 Y45.416 E20.79173
G1 X69.527 Y43.736 E20.92530
G1 X69.707 Y43.496 E20.94460
G1 X69.907 Y43.256 E20.96470
G1 X70.117 Y43.036 E20.98427
G1 X70.337 Y42.816 E21.00429
G1 X70.557 Y42.606 E21.02385
G1 X70.797 Y42.406 E21.04395
G1 X71.037 Y42.226 E21.06325
G1 X72.717 Y41.006 E21.19683
G1 X72.977 Y40.826 E21.21717
G1 X73.237 Y40.666 E21.23681
G1 X73.497 Y40.516 E21.25612
G1 X73.767 Y40.376 E21.27569
G1 X74.047 Y40.246 E21.29555
G1 X74.337 Y40.136 E21.31551
G1 X74.627 Y40.036 E21.33524
G1 X74.757 Y40.436 F10200.000
G1 X76.727 Y39.796 F1200.000 E21.46850
G1 X77.027 Y39.696 E21.48885
G1 X77.347 Y39.626 E21.50992
G1 X77.657 Y39.566 E21.53023
G1 X77.977 Y39.516 E21.55107
G1 X79.547 Y39.416 E21.65228
G1 X79.727 Y39.406 E21.66388
G1 X107.477 Y38.416 E23.45031
G1 X107.707 Y38.406 E23.46513
G1 X122.507 Y38.406 E24.41728
G1 X123.037 Y38.426 E24.45141
G1 X123.297 Y38.456 E24.46824
G1 X123.567 Y38.496 E24.48580
G1 X123.827 Y38.546 E24.50284
G1 X124.087 Y38.606 E24.52000
G1 X124.337 Y38.676 E24.53671
G1 X124.587 Y38.756 E24.55359
G1 X124.837 Y38.846 E24.57069
G1 X125.087 Y38.946 E24.58801
G1 X125.327 Y39.056 E24.60500
G1 X125.557 Y39.186 E24.62199
G1 X125.797 Y39.316 E24.63955
G1 X126.017 Y39.456 E24.65633
G1 X126.237 Y39.606 E24.67346
G1 X126.657 Y39.926 E24.70743
G1 X126.857 Y40.106 E24.72474
G1 X127.047 Y40.286 E24.74158
G1 X127.227 Y40.476 E24.75842
G1 X127.407 Y40.676 E24.77573
G1 X127.727 Y41.096 E24.80970
G1 X127.877 Y41.316 E24.82683
G1 X128.017 Y41.536 E24.84361
G1 X128.147 Y41.776 E24.86117
G1 X128.277 Y42.006 E24.87816
G1 X128.387 Y42.246 E24.89515
G1 X128.487 Y42.496 E24.91247
G1 X128.577 Y42.746 E24.92956
G1 X128.657 Y42.996 E24.94645
G1 X128.727 Y43.246 E24.96315
G1 X128.787 Y43.506 E24.98032
G1 X128.837 Y43.766 E24.99735
G1 X128.877 Y44.036 E25.01491
G1 X128.907 Y44.296 E25.03175
G1 X128.927 Y44.826 E25.06587
G1 X128.927 Y58.126 E25.92153
G1 X128.737 Y130.496 E30.57748
G1 X128.657 Y131.476 E30.64073
G1 X128.487 Y132.556 E30.71107
G1 X128.247 Y133.566 E30.77786
G1 X127.737 Y135.116 E30.88284
G1 X127.647 Y135.356 E30.89933
G1 X127.547 Y135.606 E30.91665
G1 X127.447 Y135.836 E30.93279
G1 X127.327 Y136.076 E30.95005
G1 X127.197 Y136.306 E30.96705
G1 X126.387 Y137.716 E31.07166
G1 X126.247 Y137.946 E31.08898
G1 X126.097 Y138.176 E31.10665
G1 X125.937 Y138.396 E31.12415
G1 X125.777 Y138.606 E31.14114
G1 X125.597 Y138.816 E31.15893
G1 X124.507 Y140.026 E31.26370
G1 X124.127 Y140.406 E31.29828
G1 X123.927 Y140.586 E31.31559
G1 X123.727 Y140.756 E31.33247
G1 X121.967 Y142.036 E31.47248
G1 X121.507 Y142.316 E31.50713
G1 X121.267 Y142.436 E31.52439
G1 X121.017 Y142.556 E31.54223
G1 X119.527 Y143.216 E31.64707
G1 X119.277 Y143.316 E31.66440
G1 X119.037 Y143.406 E31.68089
G1 X118.777 Y143.486 E31.69839
G1 X118.527 Y143.566 E31.71528
G1 X118.267 Y143.626 E31.73244
G1 X116.677 Y143.966 E31.83705
G1 X115.837 Y144.086 E31.89164
G1 X96.717 Y145.566 E33.12540
G1 X96.217 Y145.586 E33.15760
G1 X94.597 Y145.586 E33.26182
G1 X94.057 Y145.566 E33.29659
G1 X93.797 Y145.536 E33.31342
G1 X93.527 Y145.496 E33.33098
G1 X93.267 Y145.446 E33.34802
G1 X91.667 Y145.106 E33.45325
G1 X91.397 Y145.046 E33.47105
G1 X91.137 Y144.966 E33.48855
G1 X90.887 Y144.886 E33.50543
G1 X90.627 Y144.796 E33.52313
G1 X90.387 Y144.686 E33.54012
G1 X88.907 Y144.026 E33.64437
G1 X88.657 Y143.916 E33.66195
G1 X88.427 Y143.786 E33.67894
G1 X88.187 Y143.656 E33.69650
G1 X87.747 Y143.356 E33.73076
G1 X86.207 Y142.236 E33.85327
G1 X86.007 Y142.066 E33.87016
G1 X85.807 Y141.886 E33.88747
G1 X85.427 Y141.506 E33.92204
G1 X84.337 Y140.296 E34.02682
G1 X84.167 Y140.086 E34.04420
G1 X83.997 Y139.886 E34.06109
G1 X83.697 Y139.446 E34.09535
G1 X83.557 Y139.226 E34.11212
G1 X82.737 Y137.816 E34.21706
G1 X82.627 Y137.616 E34.23175
G1 X52.627 Y81.556 E38.32233
G1 X52.527 Y81.356 E38.33671
G1 X52.427 Y81.146 E38.35167
G1 X52.337 Y80.936 E38.36637
G1 X52.257 Y80.726 E38.38083
G1 X52.187 Y80.506 E38.39568
G1 X51.547 Y78.536 E38.52894
G1 X51.447 Y78.216 E38.55051
G1 X51.367 Y77.886 E38.57236
G1 X51.307 Y77.556 E38.59394
G1 X51.267 Y77.226 E38.61532
G1 X51.237 Y76.896 E38.63664
G1 X51.227 Y76.556 E38.65853
G1 X51.227 Y74.476 E38.79234
G1 X51.237 Y74.146 E38.81358
G1 X51.267 Y73.806 E38.83554
G1 X51.307 Y73.476 E38.85693
G1 X51.367 Y73.146 E38.87851
G1 X51.447 Y72.826 E38.89973
G1 X51.537 Y72.506 E38.92111
G1 X52.177 Y70.526 E39.05499
G1 X52.277 Y70.236 E39.07472
G1 X52.387 Y69.956 E39.09407
G1 X52.517 Y69.686 E39.11335
G1 X52.657 Y69.416 E39.13292
G1 X52.807 Y69.156 E39.15223
G1 X52.967 Y68.906 E39.17133
G1 X68.517 Y45.846 E40.96068
G1 X68.647 Y45.666 E40.97497
G1 X69.867 Y43.986 E41.10854
G1 X70.067 Y43.716 E41.13016
G1 X70.287 Y43.466 E41.15158
G1 X70.517 Y43.216 E41.17344
G1 X70.767 Y42.986 E41.19529
G1 X71.017 Y42.766 E41.21672
G1 X71.287 Y42.566 E41.23834
G1 X72.967 Y41.346 E41.37191
G1 X73.247 Y41.156 E41.39368
G1 X73.527 Y40.976 E41.41510
G1 X73.827 Y40.816 E41.43697
G1 X74.127 Y40.676 E41.45827
G1 X74.437 Y40.546 E41.47990
G1 X74.757 Y40.436 E41.50166
G1 F1200.000 E40.50166
G1 Z0.650 F10200.000
G92 E0
G1 X96.751 Y110.854
G1 Z0.400
G1 F1200.000 E1.00000
G1 X94.934 Y111.269 F1200.000 E1.11990
G1 X93.477 Y110.107 E1.23980
G1 X93.477 Y108.243 E1.35970
G1 X94.934 Y107.081 E1.47960
G1 X96.751 Y107.496 E1.59950
G1 X97.560 Y109.175 E1.71941
G1 X96.751 Y110.854 E1.83931
G1 F1200.000 E0.83931
G1 Z0.650 F10200.000
G92 E0
G1 X96.599 Y126.224
G1 Z0.400
G1 F1200.000 E1.00000
G1 X98.739 Y127.254 F1200.000 E1.15275
G1 X100.219 Y129.110 E1.30551
G1 X100.747 Y131.425 E1.45826
G1 X100.219 Y133.740 E1.61101
G1 X98.739 Y135.596 E1.76377
G1 X96.599 Y136.626 E1.91652
G1 X94.225 Y136.626 E2.06928
G1 X92.086 Y135.596 E2.22203
G1 X90.606 Y133.740 E2.37478
G1 X90.077 Y131.425 E2.52754
G1 X90.606 Y129.110 E2.68029
G1 X92.086 Y127.254 E2.83305
G1 X94.092 Y126.288 E2.97632
G1 X94.092 Y126.288 E2.97632
G1 X94.225 Y126.224 E2.98580
G1 X96.599 Y126.224 E3.13855
G1 X96.504 Y126.642 F10200.000
G1 X98.471 Y127.589 F1200.000 E3.27903
G1 X99.833 Y129.296 E3.41952
G1 X100.319 Y131.425 E3.56000
G1 X99.833 Y133.554 E3.70048
G1 X98.471 Y135.261 E3.84096
G1 X96.504 Y136.208 E3.98144
G1 X94.321 Y136.208 E4.12192
G1 X92.353 Y135.261 E4.26240
G1 X90.992 Y133.554 E4.40289
G1 X90.506 Y131.425 E4.54337
G1 X90.992 Y129.296 E4.68385
G1 X92.353 Y127.589 E4.82433
G1 X94.321 Y126.642 E4.96481
G1 X96.504 Y126.642 E5.10529
G1 X96.409 Y127.059 F10200.000
G1 X98.204 Y127.924 F1200.000 E5.23350
G1 X99.447 Y129.482 E5.36172
G1 X99.890 Y131.425 E5.48993
G1 X99.447 Y133.368 E5.61813
G1 X98.204 Y134.926 E5.74635
G1 X96.409 Y135.791 E5.87456
G1 X94.416 Y135.791 E6.00277
G1 X92.620 Y134.926 E6.13098
G1 X91.378 Y133.368 E6.25919
G1 X90.934 Y131.425 E6.38740
G1 X91.378 Y129.482 E6.51561
G1 X92.620 Y127.924 E6.64382
G1 X94.416 Y127.059 E6.77203
G1 X96.409 Y127.059 E6.90024
G1 F1200.000 E5.90024
G1 Z0.650 F10200.000
G92 E0
G1 X88.458 Y107.315
G1 Z0.400
G1 F1200.000 E1.00000
G1 X93.000 Y107.315 F1200.000 E1.29219
G1 X93.065 Y107.503 E1.30496
G1 X92.642 Y107.841 E1.33983
G1 X92.642 Y110.509 E1.51151
G1 X94.728 Y112.173 E1.68320
G1 X97.330 Y111.579 E1.85488
G1 X98.488 Y109.175 E2.02657
G1 X97.592 Y107.315 E2.15935
G1 X102.367 Y107.315 E2.46653
G1 X102.367 Y131.370 E4.01409
G1 X102.209 Y132.870 E4.11109
G1 X101.760 Y134.251 E4.20455
G1 X101.034 Y135.509 E4.29801
G1 X100.062 Y136.589 E4.39146
G1 X98.887 Y137.443 E4.48492
G1 X97.560 Y138.033 E4.57837
G1 X96.139 Y138.335 E4.67183
G1 X94.686 Y138.335 E4.76528
G1 X93.265 Y138.033 E4.85874
G1 X91.938 Y137.443 E4.95220
G1 X90.763 Y136.589 E5.04565
G1 X89.791 Y135.509 E5.13911
G1 X89.065 Y134.251 E5.23256
G1 X88.616 Y132.870 E5.32602
G1 X88.458 Y131.370 E5.42302
G1 X88.458 Y107.315 E6.97059
G1 X88.040 Y106.898 F10200.000
G1 X94.194 Y106.898 F1200.000 E7.36649
G1 X94.259 Y107.085 E7.37926
G1 X93.059 Y108.042 E7.47800
G1 X93.059 Y110.308 E7.62380
G1 X94.831 Y111.721 E7.76959
G1 X97.041 Y111.217 E7.91538
G1 X98.024 Y109.175 E8.06117
G1 X96.927 Y106.898 E8.22380
G1 X102.784 Y106.898 E8.60064
G1 X102.784 Y131.392 E10.17649
G1 X102.620 Y132.957 E10.27773
G1 X102.144 Y134.422 E10.37684
G1 X101.374 Y135.756 E10.47595
G1 X100.343 Y136.901 E10.57505
G1 X99.097 Y137.806 E10.67416
G1 X97.689 Y138.433 E10.77326
G1 X96.183 Y138.753 E10.87237
G1 X94.642 Y138.753 E10.97148
G1 X93.135 Y138.433 E11.07059
G1 X91.728 Y137.806 E11.16969
G1 X90.482 Y136.901 E11.26880
G1 X89.451 Y135.756 E11.36791
G1 X88.681 Y134.422 E11.46701
G1 X88.205 Y132.957 E11.56612
G1 X88.040 Y131.392 E11.66736
G1 X88.040 Y106.898 E13.24321
G1 X87.622 Y106.480 F10200.000
G1 X103.202 Y106.480 F1200.000 E14.24555
G1 X103.202 Y131.965 E15.88515
G1 X103.144 Y131.965 E15.88888
G1 X103.031 Y133.044 E15.95870
G1 X102.528 Y134.593 E16.06346
G1 X101.714 Y136.003 E16.16822
G1 X100.624 Y137.213 E16.27298
G1 X99.307 Y138.170 E16.37773
G1 X97.819 Y138.833 E16.48249
G1 X96.226 Y139.171 E16.58725
G1 X94.598 Y139.171 E16.69201
G1 X93.005 Y138.833 E16.79677
G1 X91.518 Y138.170 E16.90152
G1 X90.201 Y137.213 E17.00628
G1 X89.111 Y136.003 E17.11104
G1 X88.297 Y134.593 E17.21580
G1 X87.794 Y133.044 E17.32055
G1 X87.680 Y131.965 E17.39038
G1 X87.622 Y131.965 E17.39411
G1 X87.622 Y106.480 E19.03370
G1 X87.831 Y106.118 F10200.000
G1 F1200.000 E18.03370
G1 Z0.650 F10200.000
G92 E0
G1 X94.225 Y78.126
G1 Z0.400
G1 F1200.000 E1.00000
G1 X92.086 Y77.096 F1200.000 E1.15275
G1 X90.606 Y75.240 E1.30551
G1 X90.077 Y72.925 E1.45826
G1 X90.606 Y70.610 E1.61101
G1 X92.086 Y68.754 E1.76377
G1 X94.225 Y67.724 E1.91652
G1 X96.599 Y67.724 E2.06927
G1 X98.739 Y68.754 E2.22203
G1 X100.219 Y70.610 E2.37478
G1 X100.747 Y72.925 E2.52754
G1 X100.219 Y75.240 E2.68029
G1 X98.739 Y77.096 E2.83304
G1 X96.599 Y78.126 E2.98580
G1 X94.225 Y78.126 E3.13855
G1 X94.321 Y77.708 F10200.000
G1 X92.353 Y76.761 F1200.000 E3.27903
G1 X90.992 Y75.054 E3.41951
G1 X90.506 Y72.925 E3.55999
G1 X90.992 Y70.796 E3.70047
G1 X92.353 Y69.089 E3.84096
G1 X94.321 Y68.142 E3.98144
G1 X96.504 Y68.142 E4.12192
G1 X98.471 Y69.089 E4.26240
G1 X99.833 Y70.796 E4.40289
G1 X100.319 Y72.925 E4.54337
G1 X99.833 Y75.054 E4.68385
G1 X98.471 Y76.761 E4.82433
G1 X96.504 Y77.708 E4.96481
G1 X94.321 Y77.708 E5.10529
G1 X94.416 Y77.291 F10200.000
G1 X92.620 Y76.426 F1200.000 E5.23350
G1 X91.378 Y74.868 E5.36172
G1 X90.934 Y72.925 E5.48992
G1 X91.378 Y70.982 E5.61813
G1 X92.620 Y69.424 E5.74635
G1 X94.416 Y68.559 E5.87456
G1 X96.409 Y68.559 E6.00276
G1 X98.204 Y69.424 E6.13097
G1 X99.447 Y70.982 E6.25919
G1 X99.890 Y72.925 E6.38740
G1 X99.447 Y74.868 E6.51560
G1 X98.204 Y76.426 E6.64382
G1 X96.409 Y77.291 E6.77203
G1 X94.416 Y77.291 E6.90024
G1 F1200.000 E5.90024
