; generated by Slic3r 0.8.4 on 2012-11-10 at 11:26:06

; layer_height = .33
; perimeters = 3
; solid_layers = 3
; fill_density = .2
; nozzle_diameter = 0.34
; filament_diameter = 1.73
; extrusion_multiplier = 1
; perimeter_speed = 60
; infill_speed = 70
; travel_speed = 150
; scale = 1
; single wall width = 0.36mm

G28 ; home all axes
M106; Turn on fans
G90 ; use absolute coordinates
G21 ; set units to millimeters
G92 E0 ; reset extrusion distance
M82 ; use absolute distances for extrusion
G1 Z0.330 F9000.000
G1 X63.925 Y50.290
G1 F1800.000 E0.80000
G1 X64.135 Y50.220 F1080.000 E0.81098
G1 X64.565 Y50.130 E0.83277
G1 X65.005 Y50.070 E0.85480
G1 X66.515 Y49.970 E0.92987
G1 X109.605 Y49.970 E3.06742
G1 X110.275 Y50.050 E3.10089
G1 X110.495 Y50.100 E3.11208
G1 X110.925 Y50.230 E3.13437
G1 X111.335 Y50.390 E3.15620
G1 X111.735 Y50.600 E3.17861
G1 X112.115 Y50.840 E3.20091
G1 X112.465 Y51.120 E3.22314
G1 X112.935 Y51.590 E3.25611
G1 X113.215 Y51.940 E3.27835
G1 X113.455 Y52.320 E3.30064
G1 X113.665 Y52.720 E3.32305
G1 X113.825 Y53.130 E3.34489
G1 X113.955 Y53.560 E3.36717
G1 X114.005 Y53.780 E3.37836
G1 X114.085 Y54.450 E3.41184
G1 X114.085 Y115.540 E6.44230
G1 X114.005 Y116.210 E6.47577
G1 X113.955 Y116.430 E6.48697
G1 X113.825 Y116.860 E6.50925
G1 X113.665 Y117.270 E6.53108
G1 X113.455 Y117.670 E6.55349
G1 X113.215 Y118.050 E6.57579
G1 X112.935 Y118.400 E6.59802
G1 X112.465 Y118.870 E6.63100
G1 X112.115 Y119.150 E6.65323
G1 X111.735 Y119.390 E6.67553
G1 X111.335 Y119.600 E6.69794
G1 X110.925 Y119.760 E6.71977
G1 X110.495 Y119.890 E6.74205
G1 X110.275 Y119.940 E6.75324
G1 X109.605 Y120.020 E6.78672
G1 X66.145 Y120.010 E8.94262
G1 X65.005 Y119.920 E8.99935
G1 X64.565 Y119.860 E9.02137
G1 X64.135 Y119.770 E9.04317
G1 X61.635 Y118.950 E9.17369
G1 X61.105 Y118.700 E9.20275
G1 X60.845 Y118.550 E9.21764
G1 X58.645 Y116.950 E9.35259
G1 X58.425 Y116.760 E9.36701
G1 X58.215 Y116.550 E9.38174
G1 X57.835 Y116.090 E9.41134
G1 X56.435 Y114.140 E9.53042
G1 X56.285 Y113.880 E9.54531
G1 X56.035 Y113.360 E9.57393
G1 X55.195 Y110.770 E9.70900
G1 X55.125 Y110.490 E9.72332
G1 X55.055 Y109.900 E9.75279
G1 X55.055 Y60.090 E12.22370
G1 X55.125 Y59.500 E12.25317
G1 X55.275 Y58.930 E12.28241
G1 X56.035 Y56.630 E12.40257
G1 X56.285 Y56.110 E12.43119
G1 X56.435 Y55.850 E12.44608
G1 X57.835 Y53.900 E12.56516
G1 X58.215 Y53.440 E12.59476
G1 X58.425 Y53.230 E12.60949
G1 X58.645 Y53.040 E12.62391
G1 X60.845 Y51.440 E12.75886
G1 X61.105 Y51.290 E12.77375
G1 X61.635 Y51.040 E12.80282
G1 X63.874 Y50.306 E12.91970
G1 X64.035 Y50.620 F9000.000
G1 X64.425 Y50.510 F1080.000 E12.93980
G1 X64.625 Y50.470 E12.94992
G1 X66.175 Y50.330 E13.02712
G1 X66.515 Y50.320 E13.04399
G1 X109.825 Y50.340 E15.19245
G1 X110.265 Y50.410 E15.21456
G1 X110.685 Y50.520 E15.23609
G1 X111.105 Y50.670 E15.25822
G1 X111.305 Y50.760 E15.26910
G1 X111.875 Y51.100 E15.30202
G1 X112.385 Y51.520 E15.33480
G1 X112.535 Y51.670 E15.34532
G1 X112.825 Y52.010 E15.36749
G1 X112.955 Y52.180 E15.37810
G1 X113.295 Y52.750 E15.41103
G1 X113.385 Y52.950 E15.42191
G1 X113.535 Y53.370 E15.44403
G1 X113.645 Y53.790 E15.46557
G1 X113.715 Y54.230 E15.48767
G1 X113.715 Y115.760 E18.53996
G1 X113.645 Y116.200 E18.56206
G1 X113.535 Y116.620 E18.58360
G1 X113.385 Y117.040 E18.60572
G1 X113.295 Y117.240 E18.61660
G1 X112.955 Y117.810 E18.64953
G1 X112.535 Y118.320 E18.68230
G1 X112.385 Y118.470 E18.69282
G1 X112.045 Y118.760 E18.71499
G1 X111.875 Y118.890 E18.72561
G1 X111.305 Y119.230 E18.75853
G1 X111.105 Y119.320 E18.76941
G1 X110.685 Y119.470 E18.79154
G1 X110.265 Y119.580 E18.81307
G1 X109.825 Y119.650 E18.83517
G1 X109.385 Y119.670 E18.85702
G1 X66.175 Y119.660 E21.00052
G1 X64.835 Y119.550 E21.06722
G1 X64.625 Y119.520 E21.07774
G1 X64.425 Y119.480 E21.08786
G1 X61.765 Y118.630 E21.22639
G1 X61.515 Y118.520 E21.23994
G1 X61.035 Y118.250 E21.26726
G1 X59.085 Y116.850 E21.38634
G1 X58.665 Y116.500 E21.41346
G1 X58.475 Y116.310 E21.42679
G1 X58.125 Y115.880 E21.45429
G1 X56.735 Y113.950 E21.57228
G1 X56.595 Y113.720 E21.58563
G1 X56.465 Y113.470 E21.59961
G1 X56.265 Y112.970 E21.62633
G1 X55.605 Y110.950 E21.73174
G1 X55.475 Y110.420 E21.75882
G1 X55.425 Y110.150 E21.77244
G1 X55.395 Y109.600 E21.79976
G1 X55.405 Y60.120 E24.25429
G1 X55.425 Y59.840 E24.26822
G1 X55.535 Y59.300 E24.29556
G1 X55.605 Y59.040 E24.30891
G1 X56.365 Y56.760 E24.42814
G1 X56.465 Y56.520 E24.44103
G1 X56.595 Y56.270 E24.45501
G1 X56.885 Y55.820 E24.48157
G1 X58.295 Y53.890 E24.60014
G1 X58.475 Y53.680 E24.61386
G1 X58.665 Y53.490 E24.62719
G1 X59.085 Y53.140 E24.65431
G1 X61.035 Y51.740 E24.77339
G1 X61.515 Y51.470 E24.80071
G1 X61.765 Y51.360 E24.81426
G1 X63.984 Y50.636 E24.93004
G1 F1800.000 E24.13004
G92 E0
G1 X80.861 Y98.921 F9000.000
G1 F1800.000 E0.80000
G1 X67.219 Y98.921 F1080.000 E1.47672
G1 X67.219 Y98.837 E1.48091
G1 X65.492 Y98.837 E1.56659
G1 X63.689 Y98.251 E1.66066
G1 X62.154 Y97.136 E1.75474
G1 X61.040 Y95.602 E1.84881
G1 X60.454 Y93.798 E1.94288
G1 X60.454 Y91.902 E2.03695
G1 X61.040 Y90.098 E2.13102
G1 X62.154 Y88.564 E2.22509
G1 X63.689 Y87.449 E2.31916
G1 X65.492 Y86.863 E2.41323
G1 X67.219 Y86.863 E2.49892
G1 X67.219 Y86.779 E2.50310
G1 X80.861 Y86.779 E3.17983
G1 X80.861 Y89.571 E3.31831
G1 X70.555 Y89.571 E3.82956
G1 X69.873 Y88.758 E3.88217
G1 X68.267 Y87.831 E3.97420
G1 X66.440 Y87.509 E4.06621
G1 X64.613 Y87.831 E4.15823
G1 X63.007 Y88.758 E4.25024
G1 X61.815 Y90.179 E4.34226
G1 X61.180 Y91.923 E4.43428
G1 X61.180 Y93.777 E4.52630
G1 X61.815 Y95.520 E4.61831
G1 X62.907 Y96.822 E4.70258
G1 X62.907 Y96.822 E4.70258
G1 X63.007 Y96.942 E4.71034
G1 X64.613 Y97.869 E4.80235
G1 X66.440 Y98.191 E4.89438
G1 X68.113 Y97.896 E4.97864
G1 X68.113 Y97.896 E4.97864
G1 X68.267 Y97.869 E4.98640
G1 X69.874 Y96.942 E5.07841
G1 X70.555 Y96.129 E5.13102
G1 X80.861 Y96.129 E5.64227
G1 X80.861 Y98.867 E5.77810
G1 X81.212 Y99.271 F9000.000
G1 X66.869 Y99.271 F1080.000 E6.48958
G1 X66.869 Y99.187 E6.49376
G1 X65.437 Y99.187 E6.56482
G1 X63.528 Y98.567 E6.66440
G1 X61.904 Y97.387 E6.76398
G1 X60.724 Y95.763 E6.86355
G1 X60.103 Y93.854 E6.96313
G1 X60.103 Y91.846 E7.06270
G1 X60.724 Y89.937 E7.16228
G1 X61.904 Y88.313 E7.26186
G1 X63.528 Y87.133 E7.36143
G1 X65.437 Y86.513 E7.46101
G1 X66.869 Y86.513 E7.53207
G1 X66.869 Y86.429 E7.53625
G1 X81.212 Y86.429 E8.24773
G1 X81.212 Y89.921 E8.42098
G1 X70.392 Y89.921 E8.95770
G1 X69.645 Y89.031 E9.01536
G1 X68.145 Y88.165 E9.10125
G1 X66.440 Y87.865 E9.18713
G1 X64.735 Y88.165 E9.27303
G1 X63.236 Y89.031 E9.35891
G1 X62.123 Y90.357 E9.44480
G1 X61.531 Y91.984 E9.53069
G1 X61.531 Y93.716 E9.61658
G1 X62.123 Y95.343 E9.70247
G1 X63.236 Y96.669 E9.78837
G1 X64.735 Y97.535 E9.87425
G1 X66.440 Y97.835 E9.96014
G1 X68.145 Y97.535 E10.04604
G1 X69.645 Y96.669 E10.13192
G1 X70.392 Y95.779 E10.18957
G1 X81.212 Y95.779 E10.72630
G1 X81.212 Y99.218 E10.89689
G1 X81.562 Y99.621 F9000.000
G1 X66.519 Y99.621 F1080.000 E11.64313
G1 X66.519 Y99.537 E11.64731
G1 X65.381 Y99.537 E11.70375
G1 X63.367 Y98.883 E11.80883
G1 X61.653 Y97.637 E11.91391
G1 X60.408 Y95.924 E12.01899
G1 X59.753 Y93.909 E12.12407
G1 X59.753 Y91.791 E12.22915
G1 X60.408 Y89.776 E12.33423
G1 X61.653 Y88.063 E12.43931
G1 X63.367 Y86.817 E12.54439
G1 X65.381 Y86.163 E12.64947
G1 X66.519 Y86.163 E12.70591
G1 X66.519 Y86.079 E12.71009
G1 X81.562 Y86.079 E13.45633
G1 X81.562 Y90.272 E13.66433
G1 X70.229 Y90.272 E14.22654
G1 X69.416 Y89.303 E14.28923
G1 X68.024 Y88.499 E14.36899
G1 X66.440 Y88.220 E14.44875
G1 X64.857 Y88.499 E14.52851
G1 X63.464 Y89.303 E14.60827
G1 X62.431 Y90.535 E14.68803
G1 X61.881 Y92.046 E14.76780
G1 X61.881 Y93.654 E14.84756
G1 X62.431 Y95.165 E14.92732
G1 X63.464 Y96.397 E15.00708
G1 X64.857 Y97.200 E15.08684
G1 X66.440 Y97.480 E15.16660
G1 X68.024 Y97.200 E15.24637
G1 X69.416 Y96.397 E15.32613
G1 X70.229 Y95.429 E15.38882
G1 X81.562 Y95.429 E15.95103
G1 X81.562 Y99.568 E16.15637
G1 X80.583 Y96.603 F9000.000
G1 X80.440 Y96.356 F1350.000 E16.17055
G1 X80.026 Y96.355 E16.19106
G1 X80.583 Y97.319 E16.24627
G1 X80.583 Y98.035 E16.28179
G1 X79.613 Y96.355 E16.37802
G1 X79.199 Y96.356 E16.39857
G1 X80.549 Y98.695 E16.53253
G1 X80.135 Y98.695 E16.55303
G1 X78.785 Y96.356 E16.68700
G1 X78.372 Y96.356 E16.70750
G1 X79.722 Y98.694 E16.84146
G1 X79.309 Y98.694 E16.86197
G1 X77.958 Y96.356 E16.99593
G1 X77.545 Y96.356 E17.01643
G1 X78.895 Y98.694 E17.15039
G1 X78.482 Y98.694 E17.17090
G1 X77.132 Y96.356 E17.30486
G1 X76.718 Y96.356 E17.32537
G1 X78.068 Y98.694 E17.45933
G1 X77.655 Y98.694 E17.47984
G1 X76.305 Y96.356 E17.61379
G1 X75.891 Y96.356 E17.63430
G1 X77.242 Y98.694 E17.76826
G1 X76.828 Y98.694 E17.78877
G1 X75.478 Y96.356 E17.92273
G1 X75.065 Y96.356 E17.94323
G1 X76.415 Y98.694 E18.07719
G1 X76.001 Y98.694 E18.09770
G1 X74.651 Y96.356 E18.23166
G1 X74.238 Y96.355 E18.25217
G1 X75.588 Y98.694 E18.38613
G1 X75.174 Y98.695 E18.40668
G1 X73.824 Y96.356 E18.54064
G1 X73.410 Y96.356 E18.56114
G1 X74.760 Y98.695 E18.69510
G1 X74.347 Y98.694 E18.71561
G1 X72.997 Y96.356 E18.84957
G1 X72.583 Y96.356 E18.87008
G1 X73.934 Y98.694 E19.00403
G1 X73.520 Y98.694 E19.02454
G1 X72.170 Y96.356 E19.15850
G1 X71.757 Y96.356 E19.17901
G1 X73.107 Y98.694 E19.31297
G1 X72.693 Y98.694 E19.33347
G1 X71.343 Y96.356 E19.46743
G1 X70.930 Y96.356 E19.48794
G1 X72.280 Y98.694 E19.62190
G1 X71.866 Y98.694 E19.64241
G1 X70.570 Y96.448 E19.77107
G1 X70.325 Y96.740 E19.78997
G1 X71.453 Y98.694 E19.90191
G1 X71.040 Y98.694 E19.92242
G1 X70.080 Y97.032 E20.01764
G1 X69.783 Y97.233 E20.03545
G1 X70.626 Y98.694 E20.11912
G1 X70.213 Y98.694 E20.13963
G1 X69.473 Y97.412 E20.21304
G1 X69.162 Y97.592 E20.23085
G1 X69.799 Y98.695 E20.29401
G1 X69.385 Y98.695 E20.31452
G1 X68.852 Y97.771 E20.36742
G1 X68.542 Y97.950 E20.38518
G1 X68.972 Y98.694 E20.42783
G1 X68.558 Y98.694 E20.44834
G1 X68.214 Y98.098 E20.48252
G1 X67.839 Y98.164 E20.50142
G1 X68.145 Y98.694 E20.53180
G1 X67.732 Y98.694 E20.55231
G1 X67.464 Y98.230 E20.57889
G1 X67.269 Y98.610 E20.60006
G1 X67.088 Y98.296 E20.61803
G1 X66.713 Y98.363 E20.63693
G1 X66.856 Y98.610 E20.65110
G1 F1800.000 E19.85110
G92 E0
G1 X66.856 Y87.338 F9000.000
G1 F1800.000 E0.80000
G1 X66.713 Y87.090 F1350.000 E0.81417
G1 X67.118 Y87.090 E0.83427
G1 X67.307 Y87.417 E0.85301
G1 X67.498 Y87.046 E0.87370
G1 X67.758 Y87.497 E0.89948
G1 X68.209 Y87.576 E0.92220
G1 X67.880 Y87.006 E0.95487
G1 X68.285 Y87.005 E0.97497
G1 X68.730 Y87.776 E1.01911
G1 X69.337 Y88.127 E1.05390
G1 X68.690 Y87.006 E1.11813
G1 X69.095 Y87.006 E1.13823
G1 X69.945 Y88.478 E1.22256
G1 X70.850 Y89.344 E1.28473
G1 X69.500 Y87.006 E1.41868
G1 X69.906 Y87.006 E1.43879
G1 X71.256 Y89.344 E1.57275
G1 X71.661 Y89.344 E1.59285
G1 X70.311 Y87.006 E1.72681
G1 X70.716 Y87.006 E1.74691
G1 X72.066 Y89.344 E1.88087
G1 X72.472 Y89.344 E1.90097
G1 X71.121 Y87.006 E2.03493
G1 X71.527 Y87.005 E2.05504
G1 X72.877 Y89.344 E2.18899
G1 X73.281 Y89.345 E2.20905
G1 X71.931 Y87.006 E2.34301
G1 X72.336 Y87.006 E2.36311
G1 X73.686 Y89.345 E2.49708
G1 X74.092 Y89.344 E2.51718
G1 X72.741 Y87.006 E2.65114
G1 X73.147 Y87.006 E2.67124
G1 X74.497 Y89.344 E2.80520
G1 X74.902 Y89.344 E2.82530
G1 X73.552 Y87.006 E2.95926
G1 X73.957 Y87.006 E2.97936
G1 X75.308 Y89.344 E3.11332
G1 X75.713 Y89.344 E3.13343
G1 X74.363 Y87.006 E3.26738
G1 X74.768 Y87.005 E3.28749
G1 X76.118 Y89.344 E3.42144
G1 X76.522 Y89.345 E3.44151
G1 X75.172 Y87.006 E3.57546
G1 X75.577 Y87.006 E3.59557
G1 X76.928 Y89.344 E3.72953
G1 X77.333 Y89.344 E3.74963
G1 X75.983 Y87.006 E3.88359
G1 X76.388 Y87.006 E3.90369
G1 X77.738 Y89.344 E4.03765
G1 X78.143 Y89.344 E4.05775
G1 X76.793 Y87.006 E4.19171
G1 X77.198 Y87.006 E4.21181
G1 X78.549 Y89.344 E4.34578
G1 X78.954 Y89.344 E4.36588
G1 X77.604 Y87.005 E4.49983
G1 X78.008 Y87.006 E4.51990
G1 X79.358 Y89.345 E4.65385
G1 X79.764 Y89.345 E4.67396
G1 X78.413 Y87.006 E4.80792
G1 X78.819 Y87.006 E4.82802
G1 X80.169 Y89.344 E4.96198
G1 X80.574 Y89.344 E4.98208
G1 X79.224 Y87.006 E5.11604
G1 X79.629 Y87.006 E5.13614
G1 X80.582 Y88.657 E5.23072
G1 X80.583 Y87.955 E5.26553
G1 X80.035 Y87.006 E5.31991
G1 X80.440 Y87.006 E5.34001
G1 X80.583 Y87.253 E5.35419
G1 F1800.000 E4.55419
G92 E0
G1 X108.687 Y83.221 F9000.000
G1 F1800.000 E0.80000
G1 X95.045 Y83.221 F1080.000 E1.47672
G1 X95.045 Y83.137 E1.48091
G1 X93.317 Y83.137 E1.56659
G1 X91.514 Y82.551 E1.66066
G1 X89.980 Y81.436 E1.75474
G1 X88.865 Y79.902 E1.84881
G1 X88.279 Y78.098 E1.94288
G1 X88.279 Y76.202 E2.03695
G1 X88.865 Y74.398 E2.13102
G1 X89.980 Y72.864 E2.22509
G1 X91.514 Y71.749 E2.31916
G1 X93.317 Y71.163 E2.41323
G1 X95.045 Y71.163 E2.49892
G1 X95.045 Y71.079 E2.50310
G1 X108.687 Y71.079 E3.17983
G1 X108.687 Y73.871 E3.31831
G1 X98.381 Y73.871 E3.82956
G1 X97.699 Y73.058 E3.88217
G1 X96.092 Y72.131 E3.97420
G1 X94.266 Y71.809 E4.06621
G1 X92.439 Y72.131 E4.15823
G1 X90.832 Y73.058 E4.25024
G1 X89.640 Y74.479 E4.34226
G1 X89.006 Y76.223 E4.43428
G1 X89.006 Y78.077 E4.52630
G1 X89.640 Y79.820 E4.61831
G1 X90.732 Y81.122 E4.70258
G1 X90.732 Y81.122 E4.70258
G1 X90.832 Y81.242 E4.71034
G1 X92.439 Y82.169 E4.80235
G1 X94.266 Y82.491 E4.89438
G1 X95.938 Y82.196 E4.97864
G1 X95.938 Y82.196 E4.97864
G1 X96.093 Y82.169 E4.98640
G1 X97.699 Y81.242 E5.07841
G1 X98.381 Y80.429 E5.13102
G1 X108.687 Y80.429 E5.64227
G1 X108.687 Y83.167 E5.77810
G1 X109.037 Y83.571 F9000.000
G1 X94.694 Y83.571 F1080.000 E6.48958
G1 X94.694 Y83.487 E6.49376
G1 X93.262 Y83.487 E6.56482
G1 X91.353 Y82.867 E6.66440
G1 X89.729 Y81.687 E6.76398
G1 X88.549 Y80.063 E6.86355
G1 X87.929 Y78.154 E6.96313
G1 X87.929 Y76.146 E7.06270
G1 X88.549 Y74.237 E7.16228
G1 X89.729 Y72.613 E7.26186
G1 X91.353 Y71.433 E7.36143
G1 X93.262 Y70.813 E7.46101
G1 X94.694 Y70.813 E7.53207
G1 X94.694 Y70.729 E7.53625
G1 X109.037 Y70.729 E8.24773
G1 X109.037 Y74.221 E8.42098
G1 X98.217 Y74.221 E8.95770
G1 X97.470 Y73.331 E9.01536
G1 X95.971 Y72.465 E9.10125
G1 X94.266 Y72.165 E9.18713
G1 X92.561 Y72.465 E9.27303
G1 X91.061 Y73.331 E9.35891
G1 X89.948 Y74.657 E9.44480
G1 X89.356 Y76.284 E9.53069
G1 X89.356 Y78.016 E9.61658
G1 X89.948 Y79.643 E9.70247
G1 X91.061 Y80.969 E9.78837
G1 X92.560 Y81.835 E9.87425
G1 X94.266 Y82.135 E9.96014
G1 X95.971 Y81.835 E10.04604
G1 X97.470 Y80.969 E10.13192
G1 X98.217 Y80.079 E10.18957
G1 X109.037 Y80.079 E10.72630
G1 X109.037 Y83.518 E10.89689
G1 X109.387 Y83.922 F9000.000
G1 X94.344 Y83.922 F1080.000 E11.64313
G1 X94.344 Y83.837 E11.64731
G1 X93.207 Y83.837 E11.70375
G1 X91.192 Y83.183 E11.80883
G1 X89.478 Y81.937 E11.91391
G1 X88.233 Y80.224 E12.01899
G1 X87.579 Y78.209 E12.12407
G1 X87.579 Y76.091 E12.22915
G1 X88.233 Y74.076 E12.33423
G1 X89.478 Y72.363 E12.43931
G1 X91.192 Y71.117 E12.54439
G1 X93.207 Y70.463 E12.64947
G1 X94.344 Y70.463 E12.70591
G1 X94.344 Y70.379 E12.71009
G1 X109.387 Y70.379 E13.45633
G1 X109.387 Y74.572 E13.66433
G1 X98.054 Y74.572 E14.22654
G1 X97.242 Y73.603 E14.28923
G1 X95.849 Y72.799 E14.36899
G1 X94.266 Y72.520 E14.44875
G1 X92.682 Y72.799 E14.52851
G1 X91.290 Y73.603 E14.60827
G1 X90.256 Y74.835 E14.68803
G1 X89.706 Y76.346 E14.76780
G1 X89.706 Y77.954 E14.84756
G1 X90.256 Y79.465 E14.92732
G1 X91.290 Y80.697 E15.00708
G1 X92.682 Y81.500 E15.08684
G1 X94.266 Y81.780 E15.16660
G1 X95.849 Y81.500 E15.24637
G1 X97.242 Y80.697 E15.32613
G1 X98.054 Y79.729 E15.38882
G1 X109.387 Y79.729 E15.95103
G1 X109.387 Y83.868 E16.15637
G1 X108.408 Y80.903 F9000.000
G1 X108.265 Y80.656 F1350.000 E16.17055
G1 X107.852 Y80.655 E16.19106
G1 X108.408 Y81.619 E16.24627
G1 X108.408 Y82.335 E16.28179
G1 X107.438 Y80.655 E16.37802
G1 X107.024 Y80.656 E16.39857
G1 X108.374 Y82.995 E16.53253
