; generated by Slic3r 0.9.5 on 2012-11-10 at 11:16:52

; layer_height = 0.33
; perimeters = 3
; top_solid_layers = 3
; bottom_solid_layers = 3
; fill_density = 0.2
; perimeter_speed = 60
; infill_speed = 70
; travel_speed = 130
; scale = 1
; nozzle_diameter = 0.35
; filament_diameter = 1.73
; extrusion_multiplier = 1
; perimeters extrusion width = 0.37mm
; infill extrusion width = 0.37mm
; first layer extrusion width = 0.70mm

M190 S55 ; wait for bed temperature to be reached
G28 ; home all axes
G90 ; use absolute coordinates
G21 ; set units to millimeters
G92 E0
M82 ; use absolute distances for extrusion
G1 F1800.000 E-1.00000
G92 E0
G1 Z0.350 F7800.000
G1 X43.272 Y64.830
G1 F1800.000 E1.00000
G1 X75.102 Y45.130 F1080.000 E4.48293
G1 X75.322 Y45.000 E4.50671
G1 X75.542 Y44.890 E4.52960
G1 X75.772 Y44.780 E4.55332
G1 X76.012 Y44.680 E4.57751
G1 X76.252 Y44.600 E4.60105
G1 X78.182 Y43.970 E4.78995
G1 X78.432 Y43.890 E4.81437
G1 X78.692 Y43.830 E4.83920
G1 X78.952 Y43.780 E4.86383
G1 X79.222 Y43.740 E4.88923
G1 X79.482 Y43.720 E4.91349
G1 X80.852 Y43.630 E5.04124
G1 X81.202 Y43.620 E5.07382
G1 X95.972 Y43.620 E6.44808
G1 X96.242 Y43.640 E6.47327
G1 X96.502 Y43.680 E6.49774
G1 X96.772 Y43.720 E6.52314
G1 X97.032 Y43.780 E6.54797
G1 X97.292 Y43.860 E6.57328
G1 X97.542 Y43.940 E6.59770
G1 X97.792 Y44.040 E6.62275
G1 X98.032 Y44.150 E6.64732
G1 X98.272 Y44.280 E6.67271
G1 X98.502 Y44.410 E6.69730
G1 X130.332 Y64.110 E10.18023
G1 X130.542 Y64.250 E10.20371
G1 X130.742 Y64.390 E10.22643
G1 X130.932 Y64.540 E10.24895
G1 X131.122 Y64.700 E10.27206
G1 X131.292 Y64.870 E10.29443
G1 X131.462 Y65.050 E10.31747
G1 X131.632 Y65.240 E10.34119
G1 X131.782 Y65.430 E10.36372
G1 X131.922 Y65.630 E10.38643
G1 X132.062 Y65.840 E10.40991
G1 X132.182 Y66.050 E10.43242
G1 X132.302 Y66.270 E10.45573
G1 X132.402 Y66.490 E10.47822
G1 X132.502 Y66.720 E10.50155
G1 X132.582 Y66.950 E10.52421
G1 X132.652 Y67.180 E10.54658
G1 X132.712 Y67.420 E10.56960
G1 X132.762 Y67.660 E10.59241
G1 X132.802 Y67.900 E10.61505
G1 X132.832 Y68.150 E10.63848
G1 X132.852 Y68.390 E10.66088
G1 X132.852 Y101.590 E13.74995
G1 X132.832 Y101.830 E13.77236
G1 X132.802 Y102.080 E13.79579
G1 X132.762 Y102.320 E13.81842
G1 X132.712 Y102.560 E13.84123
G1 X132.652 Y102.800 E13.86425
G1 X132.582 Y103.030 E13.88662
G1 X132.502 Y103.260 E13.90928
G1 X132.402 Y103.490 E13.93262
G1 X132.302 Y103.710 E13.95510
G1 X132.182 Y103.930 E13.97842
G1 X132.062 Y104.140 E14.00092
G1 X131.922 Y104.350 E14.02440
G1 X131.782 Y104.550 E14.04712
G1 X131.632 Y104.740 E14.06964
G1 X131.462 Y104.930 E14.09336
G1 X131.292 Y105.110 E14.11640
G1 X131.122 Y105.280 E14.13877
G1 X130.932 Y105.440 E14.16188
G1 X130.742 Y105.590 E14.18441
G1 X130.542 Y105.730 E14.20712
G1 X130.332 Y105.870 E14.23060
G1 X98.502 Y125.570 E17.71354
G1 X98.272 Y125.700 E17.73812
G1 X98.032 Y125.830 E17.76352
G1 X97.792 Y125.940 E17.78808
G1 X97.542 Y126.040 E17.81313
G1 X97.292 Y126.120 E17.83756
G1 X97.032 Y126.200 E17.86287
G1 X96.772 Y126.260 E17.88769
G1 X96.502 Y126.300 E17.91309
G1 X96.242 Y126.340 E17.93757
G1 X95.972 Y126.360 E17.96276
G1 X80.892 Y126.360 E19.36586
G1 X79.522 Y126.280 E19.49355
G1 X78.982 Y126.220 E19.54410
G1 X78.442 Y126.100 E19.59557
G1 X78.182 Y126.020 E19.62088
G1 X76.252 Y125.390 E19.80978
G1 X76.012 Y125.310 E19.83332
G1 X75.772 Y125.210 E19.85751
G1 X75.542 Y125.100 E19.88124
G1 X75.322 Y124.990 E19.90412
G1 X75.102 Y124.860 E19.92790
G1 X43.272 Y105.160 E23.41083
G1 X42.942 Y104.940 E23.44773
G1 X41.302 Y103.750 E23.63626
G1 X41.082 Y103.580 E23.66213
G1 X40.872 Y103.400 E23.68787
G1 X40.672 Y103.210 E23.71354
G1 X40.472 Y103.010 E23.73985
G1 X40.292 Y102.790 E23.76630
G1 X40.122 Y102.570 E23.79217
G1 X38.922 Y100.920 E23.98200
G1 X38.762 Y100.690 E24.00807
G1 X38.622 Y100.450 E24.03392
G1 X38.482 Y100.200 E24.06058
G1 X38.362 Y99.950 E24.08638
G1 X38.252 Y99.680 E24.11351
G1 X38.162 Y99.420 E24.13911
G1 X37.542 Y97.490 E24.32772
G1 X37.462 Y97.220 E24.35392
G1 X37.402 Y96.960 E24.37875
G1 X37.352 Y96.680 E24.40522
G1 X37.312 Y96.410 E24.43061
G1 X37.292 Y96.140 E24.45580
G1 X37.292 Y73.850 E26.52976
G1 X37.312 Y73.580 E26.55495
G1 X37.352 Y73.310 E26.58034
G1 X37.402 Y73.030 E26.60681
G1 X37.462 Y72.770 E26.63164
G1 X37.542 Y72.500 E26.65784
G1 X38.162 Y70.570 E26.84645
G1 X38.252 Y70.310 E26.87205
G1 X38.362 Y70.040 E26.89918
G1 X38.482 Y69.790 E26.92498
G1 X38.622 Y69.540 E26.95164
G1 X38.762 Y69.300 E26.97749
G1 X38.922 Y69.070 E27.00356
G1 X40.122 Y67.420 E27.19339
G1 X40.292 Y67.200 E27.21926
G1 X40.472 Y66.980 E27.24571
G1 X40.672 Y66.780 E27.27203
G1 X40.872 Y66.590 E27.29769
G1 X41.082 Y66.410 E27.32343
G1 X41.302 Y66.240 E27.34930
G1 X42.942 Y65.050 E27.53783
G1 X43.272 Y64.830 E27.57473
G1 X43.622 Y65.400 F7800.000
G1 X75.452 Y45.700 F1080.000 E31.05766
G1 X75.642 Y45.580 E31.07857
G1 X75.842 Y45.480 E31.09938
G1 X76.242 Y45.300 E31.14019
G1 X76.452 Y45.230 E31.16079
G1 X78.382 Y44.600 E31.34969
G1 X78.612 Y44.530 E31.37206
G1 X78.832 Y44.480 E31.39305
G1 X79.062 Y44.430 E31.41495
G1 X79.292 Y44.400 E31.43653
G1 X79.522 Y44.380 E31.45801
G1 X80.892 Y44.290 E31.58575
G1 X81.202 Y44.280 E31.61461
G1 X95.962 Y44.280 E32.98795
G1 X96.222 Y44.310 E33.01230
G1 X96.472 Y44.340 E33.03573
G1 X96.732 Y44.390 E33.06036
G1 X96.982 Y44.460 E33.08452
G1 X97.222 Y44.530 E33.10778
G1 X97.462 Y44.620 E33.13163
G1 X97.702 Y44.730 E33.15619
G1 X97.932 Y44.850 E33.18033
G1 X98.152 Y44.980 E33.20410
G1 X129.982 Y64.680 E36.68704
G1 X130.182 Y64.810 E36.70923
G1 X130.372 Y64.940 E36.73065
G1 X130.562 Y65.090 E36.75318
G1 X130.732 Y65.250 E36.77490
G1 X130.902 Y65.420 E36.79727
G1 X131.062 Y65.600 E36.81967
G1 X131.212 Y65.780 E36.84148
G1 X131.352 Y65.970 E36.86343
G1 X131.482 Y66.170 E36.88563
G1 X131.602 Y66.370 E36.90733
G1 X131.712 Y66.580 E36.92939
G1 X131.812 Y66.800 E36.95187
G1 X131.902 Y67.020 E36.97399
G1 X131.982 Y67.240 E36.99577
G1 X132.102 Y67.700 E37.04000
G1 X132.142 Y67.930 E37.06172
G1 X132.172 Y68.170 E37.08423
G1 X132.192 Y68.400 E37.10571
G1 X132.192 Y101.580 E40.19292
G1 X132.172 Y101.810 E40.21440
G1 X132.142 Y102.050 E40.23690
G1 X132.102 Y102.280 E40.25862
G1 X131.982 Y102.740 E40.30285
G1 X131.902 Y102.960 E40.32464
G1 X131.812 Y103.180 E40.34675
G1 X131.712 Y103.400 E40.36924
G1 X131.602 Y103.610 E40.39129
G1 X131.482 Y103.810 E40.41300
G1 X131.352 Y104.010 E40.43519
G1 X131.212 Y104.200 E40.45715
G1 X131.062 Y104.380 E40.47895
G1 X130.902 Y104.560 E40.50136
G1 X130.732 Y104.730 E40.52373
G1 X130.562 Y104.890 E40.54545
G1 X130.372 Y105.040 E40.56797
G1 X130.182 Y105.170 E40.58939
G1 X129.982 Y105.300 E40.61159
G1 X98.152 Y125.000 E44.09452
G1 X97.932 Y125.130 E44.11830
G1 X97.702 Y125.250 E44.14244
G1 X97.462 Y125.360 E44.16700
G1 X97.222 Y125.450 E44.19085
G1 X96.982 Y125.520 E44.21411
G1 X96.732 Y125.590 E44.23827
G1 X96.472 Y125.640 E44.26290
G1 X96.222 Y125.670 E44.28633
G1 X95.962 Y125.700 E44.31068
G1 X81.202 Y125.700 E45.68401
G1 X80.932 Y125.690 E45.70915
G1 X79.562 Y125.610 E45.83684
G1 X79.322 Y125.590 E45.85925
G1 X79.082 Y125.560 E45.88175
G1 X78.852 Y125.520 E45.90347
G1 X78.612 Y125.460 E45.92649
G1 X78.382 Y125.390 E45.94886
G1 X76.452 Y124.760 E46.13776
G1 X76.242 Y124.690 E46.15836
G1 X75.842 Y124.510 E46.19917
G1 X75.642 Y124.410 E46.21997
G1 X75.452 Y124.290 E46.24088
G1 X43.622 Y104.590 E49.72382
G1 X43.332 Y104.400 E49.75607
G1 X41.692 Y103.210 E49.94461
G1 X41.462 Y103.030 E49.97178
G1 X41.242 Y102.840 E49.99883
G1 X41.032 Y102.630 E50.02646
G1 X40.842 Y102.410 E50.05351
G1 X40.662 Y102.180 E50.08068
G1 X39.462 Y100.530 E50.27051
G1 X39.292 Y100.290 E50.29788
G1 X39.142 Y100.030 E50.32581
G1 X39.012 Y99.770 E50.35285
G1 X38.892 Y99.500 E50.38034
G1 X38.792 Y99.220 E50.40801
G1 X38.172 Y97.290 E50.59662
G1 X38.092 Y97.010 E50.62372
G1 X38.032 Y96.720 E50.65127
G1 X37.982 Y96.440 E50.67773
G1 X37.962 Y96.150 E50.70478
G1 X37.952 Y95.860 E50.73178
G1 X37.952 Y74.130 E52.75363
G1 X37.962 Y73.840 E52.78063
G1 X37.982 Y73.550 E52.80768
G1 X38.032 Y73.270 E52.83414
G1 X38.092 Y72.980 E52.86169
G1 X38.172 Y72.700 E52.88879
G1 X38.792 Y70.770 E53.07740
G1 X38.892 Y70.490 E53.10507
G1 X39.012 Y70.220 E53.13256
G1 X39.142 Y69.960 E53.15961
G1 X39.292 Y69.700 E53.18753
G1 X39.462 Y69.460 E53.21490
G1 X40.662 Y67.810 E53.40473
G1 X40.842 Y67.580 E53.43190
G1 X41.032 Y67.360 E53.45895
G1 X41.242 Y67.150 E53.48658
G1 X41.462 Y66.960 E53.51363
G1 X41.692 Y66.780 E53.54081
G1 X43.332 Y65.590 E53.72934
G1 X43.622 Y65.400 E53.76159
G1 F1800.000 E52.76159
G92 E0
G1 X84.835 Y100.025 F7800.000
G1 F1800.000 E1.00000
G1 X84.732 Y99.804 F1080.000 E1.02267
G1 X85.386 Y99.025 E1.11734
G1 X94.384 Y99.025 E1.95458
G1 X94.384 Y100.025 E2.04765
G1 X84.835 Y100.025 E2.93616
G1 F1800.000 E1.93616
G92 E0
G1 X85.386 Y90.675 F7800.000
G1 F1800.000 E1.00000
G1 X84.732 Y89.896 F1080.000 E1.09466
G1 X84.835 Y89.675 E1.11734
G1 X94.384 Y89.675 E2.00585
G1 X94.384 Y90.675 E2.09891
G1 X85.386 Y90.675 E2.93616
G1 F1800.000 E1.93616
G92 E0
G1 X85.077 Y98.362 F7800.000
G1 F1800.000 E1.00000
G1 X95.046 Y98.362 F1080.000 E1.92762
G1 X95.046 Y100.688 E2.14396
G1 X82.457 Y100.688 E3.31538
G1 X82.359 Y100.324 E3.35043
G1 X84.439 Y99.123 E3.57385
G1 X85.077 Y98.362 E3.66623
G1 F1800.000 E2.66623
G92 E0
G1 X85.077 Y91.338 F7800.000
G1 F1800.000 E1.00000
G1 X84.439 Y90.577 F1080.000 E1.09238
G1 X82.359 Y89.376 E1.31580
G1 X82.457 Y89.012 E1.35085
G1 X95.046 Y89.012 E2.52227
G1 X95.046 Y91.338 E2.73861
G1 X85.077 Y91.338 E3.66623
G1 X84.768 Y92.000 F7800.000
G1 X84.006 Y91.092 F1080.000 E3.77649
G1 X82.531 Y90.240 E3.93500
G1 X80.853 Y89.945 E4.09351
G1 X79.175 Y90.240 E4.25203
G1 X77.700 Y91.092 E4.41054
G1 X76.605 Y92.397 E4.56905
G1 X76.022 Y93.998 E4.72757
G1 X76.022 Y95.702 E4.88608
G1 X76.605 Y97.303 E5.04459
G1 X77.700 Y98.608 E5.20310
G1 X79.175 Y99.460 E5.36161
G1 X80.853 Y99.755 E5.52013
G1 X82.531 Y99.460 E5.67865
G1 X84.006 Y98.608 E5.83715
G1 X84.768 Y97.700 E5.94741
G1 X95.709 Y97.700 E6.96541
G1 X95.709 Y101.350 E7.30502
G1 X81.203 Y101.350 E8.65471
G1 X81.203 Y101.266 E8.66256
G1 X79.837 Y101.266 E8.78967
G1 X77.904 Y100.638 E8.97876
G1 X76.260 Y99.443 E9.16785
G1 X75.065 Y97.799 E9.35694
G1 X74.437 Y95.866 E9.54604
G1 X74.437 Y93.834 E9.73513
G1 X75.065 Y91.901 E9.92422
G1 X76.260 Y90.257 E10.11331
G1 X77.904 Y89.062 E10.30240
G1 X79.837 Y88.434 E10.49150
G1 X81.203 Y88.434 E10.61861
G1 X81.203 Y88.350 E10.62646
G1 X95.709 Y88.350 E11.97614
G1 X95.709 Y92.000 E12.31575
G1 X84.768 Y92.000 E13.33376
G1 X84.185 Y91.664 F7800.000
G1 F1800.000 E12.33376
G92 E0
G1 X75.829 Y97.745 F7800.000
G1 F1800.000 E1.00000
G1 X75.531 Y97.227 F1080.000 E1.05652
G1 X75.490 Y95.811 F7800.000
G1 X74.969 Y94.910 F1080.000 E1.15502
G1 X75.490 Y94.466 F7800.000
G1 X74.994 Y93.607 F1080.000 E1.24881
G1 X75.717 Y93.513 F7800.000
G1 X75.274 Y92.746 F1080.000 E1.33258
G1 X76.017 Y92.688 F7800.000
G1 X75.566 Y91.907 F1080.000 E1.41787
G1 X76.404 Y92.012 F7800.000
G1 X75.999 Y91.311 F1080.000 E1.49448
G1 X76.864 Y91.464 F7800.000
G1 X76.432 Y90.715 F1080.000 E1.57626
G1 X77.325 Y90.916 F7800.000
G1 X76.936 Y90.241 F1080.000 E1.64987
G1 X77.886 Y90.542 F7800.000
G1 X77.483 Y89.844 F1080.000 E1.72617
G1 X78.469 Y90.206 F7800.000
G1 X78.030 Y89.446 F1080.000 E1.80916
G1 X79.051 Y89.870 F7800.000
G1 X78.677 Y89.221 F1080.000 E1.88002
G1 X79.749 Y89.732 F7800.000
G1 X79.331 Y89.008 F1080.000 E1.95907
G1 X80.454 Y89.608 F7800.000
G1 X80.021 Y88.857 F1080.000 E2.04104
G1 X81.195 Y89.545 F7800.000
G1 X80.798 Y88.857 F1080.000 E2.11616
G1 X81.873 Y89.374 F7800.000
G1 X81.575 Y88.857 F1080.000 E2.17258
G1 X83.697 Y89.655 F7800.000
G1 X83.539 Y89.382 F1080.000 E2.20069
G1 X84.428 Y89.655 F7800.000
G1 X84.270 Y89.382 F1080.000 E2.22881
G1 F1800.000 E1.22881
G92 E0
G1 X84.273 Y99.986 F7800.000
G1 F1800.000 E1.00000
G1 X84.115 Y99.712 F1080.000 E1.02954
G1 X83.697 Y100.318 F7800.000
G1 X83.539 Y100.045 F1080.000 E1.05898
G1 X81.502 Y100.843 F7800.000
G1 X81.086 Y100.121 F1080.000 E1.13775
G1 X80.725 Y100.843 F7800.000
G1 X80.308 Y100.119 F1080.000 E1.21679
G1 X79.915 Y100.785 F7800.000
G1 X79.443 Y99.966 F1080.000 E1.30615
G1 X78.959 Y100.474 F7800.000
G1 X78.504 Y99.687 F1080.000 E1.39215
G1 X77.857 Y99.912 F7800.000
G1 X77.339 Y99.014 F1080.000 E1.49022
G1 F1800.000 E0.49022
G92 E0
G1 X84.732 Y80.104 F7800.000
G1 F1800.000 E1.00000
G1 X85.386 Y79.325 F1080.000 E1.09466
G1 X94.384 Y79.325 E1.93191
G1 X94.384 Y80.325 E2.02497
G1 X84.835 Y80.325 E2.91349
G1 X84.732 Y80.104 E2.93616
G1 F1800.000 E1.93616
G92 E0
G1 X85.386 Y70.975 F7800.000
G1 F1800.000 E1.00000
G1 X84.732 Y70.196 F1080.000 E1.09466
G1 X84.835 Y69.975 E1.11734
G1 X94.384 Y69.975 E2.00585
G1 X94.384 Y70.975 E2.09891
G1 X85.386 Y70.975 E2.93616
G1 F1800.000 E1.93616
G92 E0
G1 X85.077 Y78.662 F7800.000
G1 F1800.000 E1.00000
G1 X95.046 Y78.662 F1080.000 E1.92762
G1 X95.046 Y80.988 E2.14396
G1 X82.457 Y80.988 E3.31538
G1 X82.359 Y80.624 E3.35043
G1 X84.439 Y79.423 E3.57385
G1 X85.077 Y78.662 E3.66623
G1 F1800.000 E2.66623
G92 E0
G1 X85.077 Y71.638 F7800.000
G1 F1800.000 E1.00000
G1 X84.439 Y70.877 F1080.000 E1.09238
G1 X82.359 Y69.676 E1.31580
G1 X82.457 Y69.312 E1.35085
G1 X95.046 Y69.312 E2.52227
G1 X95.046 Y71.638 E2.73861
G1 X85.077 Y71.638 E3.66623
G1 X84.768 Y72.300 F7800.000
G1 X84.006 Y71.392 F1080.000 E3.77649
G1 X82.531 Y70.540 E3.93500
G1 X80.853 Y70.245 E4.09351
G1 X79.175 Y70.540 E4.25203
G1 X77.700 Y71.392 E4.41054
G1 X76.605 Y72.697 E4.56905
G1 X76.022 Y74.298 E4.72757
G1 X76.022 Y76.002 E4.88608
G1 X76.605 Y77.603 E5.04459
G1 X77.700 Y78.908 E5.20310
G1 X79.175 Y79.760 E5.36161
G1 X80.853 Y80.055 E5.52013
G1 X82.531 Y79.760 E5.67865
G1 X84.006 Y78.908 E5.83715
G1 X84.768 Y78.000 E5.94741
G1 X95.709 Y78.000 E6.96541
G1 X95.709 Y81.650 E7.30502
G1 X81.203 Y81.650 E8.65471
G1 X81.203 Y81.566 E8.66256
G1 X79.837 Y81.566 E8.78967
G1 X77.904 Y80.938 E8.97876
G1 X76.260 Y79.743 E9.16785
G1 X75.065 Y78.099 E9.35694
G1 X74.437 Y76.166 E9.54604
G1 X74.437 Y74.134 E9.73513
G1 X75.065 Y72.201 E9.92422
G1 X76.260 Y70.557 E10.11331
G1 X77.904 Y69.362 E10.30240
G1 X79.837 Y68.734 E10.49150
G1 X81.203 Y68.734 E10.61861
G1 X81.203 Y68.650 E10.62646
G1 X95.709 Y68.650 E11.97614
G1 X95.709 Y72.300 E12.31575
G1 X84.768 Y72.300 E13.33376
G1 X84.185 Y71.964 F7800.000
G1 F1800.000 E12.33376
G92 E0
G1 X75.829 Y78.045 F7800.000
G1 F1800.000 E1.00000
G1 X75.531 Y77.527 F1080.000 E1.05652
G1 X75.490 Y76.111 F7800.000
G1 X74.969 Y75.210 F1080.000 E1.15502
G1 X75.490 Y74.766 F7800.000
G1 X74.994 Y73.907 F1080.000 E1.24881
G1 X75.717 Y73.813 F7800.000
G1 X75.274 Y73.046 F1080.000 E1.33258
G1 X76.017 Y72.988 F7800.000
G1 X75.566 Y72.207 F1080.000 E1.41787
G1 X76.404 Y72.312 F7800.000
G1 X75.999 Y71.611 F1080.000 E1.49448
G1 X76.864 Y71.764 F7800.000
G1 X76.432 Y71.015 F1080.000 E1.57626
G1 X77.325 Y71.216 F7800.000
G1 X76.936 Y70.541 F1080.000 E1.64987
G1 X77.886 Y70.842 F7800.000
G1 X77.483 Y70.144 F1080.000 E1.72617
G1 X78.469 Y70.506 F7800.000
G1 X78.030 Y69.746 F1080.000 E1.80916
G1 X79.051 Y70.170 F7800.000
G1 X78.677 Y69.521 F1080.000 E1.88002
G1 X79.749 Y70.032 F7800.000
G1 X79.331 Y69.308 F1080.000 E1.95907
G1 X80.454 Y69.908 F7800.000
G1 X80.021 Y69.157 F1080.000 E2.04104
G1 X81.195 Y69.845 F7800.000
G1 X80.798 Y69.157 F1080.000 E2.11616
G1 X81.873 Y69.674 F7800.000
G1 X81.575 Y69.157 F1080.000 E2.17258
G1 X83.697 Y69.955 F7800.000
G1 X83.539 Y69.682 F1080.000 E2.20069
G1 X84.428 Y69.955 F7800.000
G1 X84.270 Y69.682 F1080.000 E2.22881
G1 F1800.000 E1.22881
G92 E0
G1 X84.273 Y80.286 F7800.000
G1 F1800.000 E1.00000
