; generated by Slic3r 0.9.3 on 2012-11-10 at 11:22:34

; layer_height = 0.35
; perimeters = 3
; solid_layers = 3
; fill_density = 0.20
; perimeter_speed = 50
; infill_speed = 75
; travel_speed = 160
; scale = 1
; nozzle_diameter = 0.35
; filament_diameter = 1.74
; extrusion_multiplier = 1
; single wall width = 0.37mm

G28 ; home all axes
M106;
G90 ; use absolute coordinates
G21 ; set units to millimeters
G92 E0
M82 ; use absolute distances for extrusion
G1 F1200.000 E-1.00000
G92 E0
G1 Z0.350 F9600.000
G1 X47.462 Y80.340
G1 F1200.000 E1.00000
G1 X79.552 Y60.480 F900.000 E3.02050
G1 X80.122 Y60.190 E3.05474
G1 X82.702 Y59.310 E3.20069
G1 X83.692 Y59.070 E3.25523
G1 X84.022 Y59.020 E3.27310
G1 X86.032 Y58.900 E3.38091
G1 X132.962 Y58.900 E5.89353
G1 X133.502 Y58.950 E5.92256
G1 X134.042 Y59.030 E5.95179
G1 X134.562 Y59.160 E5.98048
G1 X135.332 Y59.440 E6.02435
G1 X135.822 Y59.670 E6.05333
G1 X136.292 Y59.940 E6.08235
G1 X136.952 Y60.420 E6.12605
G1 X137.152 Y60.590 E6.14010
G1 X137.732 Y61.170 E6.18401
G1 X138.232 Y61.810 E6.22750
G1 X138.522 Y62.260 E6.25616
G1 X138.772 Y62.740 E6.28514
G1 X138.982 Y63.240 E6.31417
G1 X139.162 Y63.760 E6.34363
G1 X139.292 Y64.280 E6.37233
G1 X139.402 Y65.090 E6.41610
G1 X139.422 Y65.360 E6.43059
G1 X139.422 Y118.630 E9.28265
G1 X139.372 Y119.170 E9.31169
G1 X139.292 Y119.710 E9.34091
G1 X139.162 Y120.230 E9.36961
G1 X138.882 Y121.000 E9.41348
G1 X138.652 Y121.490 E9.44246
G1 X138.382 Y121.960 E9.47148
G1 X137.902 Y122.620 E9.51517
G1 X137.732 Y122.820 E9.52923
G1 X137.152 Y123.400 E9.57314
G1 X136.512 Y123.900 E9.61662
G1 X136.062 Y124.190 E9.64529
G1 X135.582 Y124.440 E9.67426
G1 X135.082 Y124.650 E9.70330
G1 X134.562 Y124.830 E9.73276
G1 X134.042 Y124.960 E9.76146
G1 X133.232 Y125.070 E9.80522
G1 X132.962 Y125.090 E9.81972
G1 X53.762 Y125.080 E14.06006
G1 X52.202 Y124.970 E14.14379
G1 X51.872 Y124.920 E14.16166
G1 X51.202 Y124.770 E14.19842
G1 X48.582 Y123.910 E14.34606
G1 X48.262 Y123.780 E14.36455
G1 X47.942 Y123.630 E14.38347
G1 X47.062 Y123.090 E14.43875
G1 X44.892 Y121.490 E14.58310
G1 X44.452 Y121.070 E14.61567
G1 X44.052 Y120.610 E14.64830
G1 X42.462 Y118.430 E14.79277
G1 X42.152 Y117.910 E14.82518
G1 X42.012 Y117.640 E14.84146
G1 X41.782 Y117.080 E14.87387
G1 X40.952 Y114.520 E15.01796
G1 X40.822 Y113.940 E15.04978
G1 X40.772 Y113.640 E15.06607
G1 X40.712 Y112.740 E15.11436
G1 X40.722 Y90.650 E16.29705
G1 X40.772 Y90.050 E16.32929
G1 X40.882 Y89.460 E16.36142
G1 X40.952 Y89.170 E16.37739
G1 X41.782 Y86.610 E16.52148
G1 X42.012 Y86.050 E16.55389
G1 X42.462 Y85.260 E16.60257
G1 X44.052 Y83.080 E16.74703
G1 X44.452 Y82.620 E16.77967
G1 X44.892 Y82.200 E16.81223
G1 X47.062 Y80.600 E16.95658
G1 X47.154 Y80.540 E16.96245
G1 X47.272 Y80.900 F9600.000
G1 X79.732 Y60.790 F900.000 E19.00684
G1 X80.002 Y60.650 E19.02313
G1 X80.552 Y60.410 E19.05525
G1 X83.122 Y59.570 E19.20001
G1 X83.432 Y59.490 E19.21716
G1 X83.752 Y59.430 E19.23459
G1 X86.032 Y59.260 E19.35700
G1 X132.952 Y59.270 E21.86908
G1 X133.482 Y59.310 E21.89754
G1 X134.002 Y59.400 E21.92579
G1 X134.512 Y59.530 E21.95397
G1 X135.252 Y59.800 E21.99614
G1 X135.722 Y60.030 E22.02416
G1 X136.172 Y60.300 E22.05226
G1 X136.392 Y60.450 E22.06651
G1 X136.802 Y60.770 E22.09436
G1 X137.192 Y61.130 E22.12277
G1 X137.552 Y61.520 E22.15119
G1 X137.872 Y61.930 E22.17904
G1 X138.162 Y62.370 E22.20725
G1 X138.412 Y62.830 E22.23528
G1 X138.712 Y63.560 E22.27754
G1 X138.922 Y64.320 E22.31975
G1 X139.012 Y64.840 E22.34801
G1 X139.062 Y65.630 E22.39039
G1 X139.052 Y118.620 E25.22746
G1 X139.012 Y119.150 E25.25591
G1 X138.922 Y119.670 E25.28417
G1 X138.792 Y120.180 E25.31235
G1 X138.522 Y120.920 E25.35452
G1 X138.292 Y121.390 E25.38253
G1 X138.022 Y121.840 E25.41063
G1 X137.872 Y122.060 E25.42489
G1 X137.552 Y122.470 E25.45273
G1 X137.192 Y122.860 E25.48115
G1 X136.802 Y123.220 E25.50957
G1 X136.392 Y123.540 E25.53741
G1 X135.952 Y123.830 E25.56563
G1 X135.492 Y124.080 E25.59366
G1 X134.762 Y124.380 E25.63591
G1 X134.002 Y124.590 E25.67813
G1 X133.482 Y124.680 E25.70638
G1 X132.692 Y124.730 E25.74876
G1 X53.782 Y124.710 E29.97358
G1 X52.242 Y124.600 E30.05624
G1 X51.932 Y124.560 E30.07298
G1 X51.612 Y124.500 E30.09041
G1 X48.712 Y123.570 E30.25346
G1 X48.402 Y123.440 E30.27146
G1 X47.822 Y123.150 E30.30618
G1 X47.542 Y122.980 E30.32372
G1 X45.322 Y121.370 E30.47054
G1 X45.062 Y121.150 E30.48878
G1 X44.592 Y120.680 E30.52436
G1 X44.162 Y120.160 E30.56049
G1 X42.742 Y118.190 E30.69051
G1 X42.412 Y117.610 E30.72624
G1 X42.262 Y117.300 E30.74467
G1 X42.132 Y116.990 E30.76267
G1 X41.292 Y114.380 E30.90947
G1 X41.212 Y114.060 E30.92713
G1 X41.152 Y113.730 E30.94509
G1 X41.082 Y113.070 E30.98062
G1 X41.082 Y90.620 E32.18259
G1 X41.152 Y89.960 E32.21812
G1 X41.212 Y89.630 E32.23608
G1 X41.382 Y88.990 E32.27153
G1 X42.132 Y86.700 E32.40055
G1 X42.262 Y86.390 E32.41854
G1 X42.412 Y86.080 E32.43698
G1 X42.742 Y85.500 E32.47271
G1 X44.162 Y83.530 E32.60273
G1 X44.592 Y83.010 E32.63885
G1 X45.062 Y82.540 E32.67444
G1 X45.582 Y82.120 E32.71023
G1 X46.974 Y81.115 E32.80215
G1 F1200.000 E31.80215
G92 E0
G1 X86.532 Y97.851 F9600.000
G1 F1200.000 E1.00000
G1 X86.532 Y97.359 F900.000 E1.02631
G1 X88.152 Y97.074 E1.11438
G1 X88.152 Y96.903 E1.12352
G1 X89.375 Y96.197 E1.19909
G1 X90.031 Y95.415 E1.25376
G1 X100.144 Y95.415 E1.79519
G1 X100.144 Y97.935 E1.93011
G1 X86.816 Y97.935 E2.64370
G1 X86.206 Y97.851 F9600.000
G1 X84.681 Y97.851 F900.000 E2.72531
G1 X84.628 Y97.650 E2.73645
G1 X85.141 Y97.354 E2.76817
G1 X86.172 Y97.535 E2.82422
G1 X84.319 Y97.345 F9600.000
G1 X84.199 Y97.615 F900.000 E2.84000
G1 X83.164 Y97.278 E2.89831
G1 X81.664 Y96.189 E2.99754
G1 X80.575 Y94.689 E3.09676
G1 X80.002 Y92.927 E3.19599
G1 X80.002 Y91.073 E3.29521
G1 X80.575 Y89.311 E3.39444
G1 X81.664 Y87.811 E3.49366
G1 X83.164 Y86.722 E3.59289
G1 X84.199 Y86.385 E3.65120
G1 X84.319 Y86.655 E3.66698
G1 X83.971 Y86.856 E3.68853
G1 X83.971 Y86.856 E3.68854
G1 X82.331 Y87.803 E3.78990
G1 X81.108 Y89.260 E3.89179
G1 X80.457 Y91.049 E3.99366
G1 X80.457 Y92.951 E4.09554
G1 X80.689 Y93.588 E4.13179
G1 X80.689 Y93.588 E4.13179
G1 X81.108 Y94.740 E4.19743
G1 X82.331 Y96.197 E4.29930
G1 X83.978 Y97.148 E4.40111
G1 X83.978 Y97.148 E4.40112
G1 X84.001 Y97.161 E4.40255
G1 F1200.000 E3.40255
G92 E0
G1 X90.031 Y88.585 F9600.000
G1 F1200.000 E1.00000
G1 X89.375 Y87.803 F900.000 E1.05467
G1 X89.218 Y87.712 E1.06439
G1 X89.218 Y87.712 E1.06439
G1 X88.152 Y87.097 E1.13025
G1 X88.152 Y86.926 E1.13938
G1 X86.532 Y86.641 E1.22745
G1 X86.532 Y86.149 E1.25376
G1 X86.768 Y86.149 E1.26637
G1 X86.768 Y86.065 E1.27089
G1 X100.144 Y86.065 E1.98703
G1 X100.144 Y88.585 E2.12195
G1 X90.399 Y88.585 E2.64370
G1 X86.232 Y86.454 F9600.000
G1 X84.721 Y86.721 F900.000 E2.72589
G1 X84.312 Y86.484 E2.75118
G1 X84.326 Y86.344 E2.75872
G1 X84.926 Y86.149 E2.79250
G1 X86.144 Y86.149 E2.85769
G1 X86.402 Y85.784 F9600.000
G1 X86.402 Y85.699 F900.000 E2.86221
G1 X100.509 Y85.699 E3.61750
G1 X100.509 Y88.951 E3.79157
G1 X89.861 Y88.951 E4.36170
G1 X89.136 Y88.087 E4.42205
G1 X87.787 Y87.308 E4.50547
G1 X87.787 Y87.233 E4.50949
G1 X86.167 Y86.947 E4.59756
G1 X86.167 Y86.837 E4.60348
G1 X84.653 Y87.104 E4.68578
G1 X84.463 Y86.994 E4.69753
G1 X84.104 Y87.201 E4.71974
G1 X84.104 Y87.201 E4.71974
G1 X82.570 Y88.087 E4.81458
G1 X81.429 Y89.446 E4.90956
G1 X80.823 Y91.113 E5.00453
G1 X80.823 Y92.887 E5.09951
G1 X81.211 Y93.953 E5.16026
G1 X81.211 Y93.953 E5.16026
G1 X81.429 Y94.554 E5.19449
G1 X82.570 Y95.913 E5.28946
G1 X84.105 Y96.799 E5.38438
G1 X84.105 Y96.799 E5.38439
G1 X84.737 Y97.164 E5.42346
G1 X84.829 Y97.112 E5.42912
G1 X84.829 Y96.927 E5.43898
G1 X86.167 Y97.163 E5.51173
G1 X86.167 Y97.053 E5.51766
G1 X87.787 Y96.767 E5.60573
G1 X87.787 Y96.692 E5.60974
G1 X89.136 Y95.913 E5.69317
G1 X89.861 Y95.049 E5.75351
G1 X100.509 Y95.049 E6.32364
G1 X100.509 Y98.301 E6.49771
G1 X86.402 Y98.301 E7.25301
G1 X86.402 Y98.216 E7.25752
G1 X84.868 Y98.216 E7.33965
G1 X82.996 Y97.608 E7.44507
G1 X81.403 Y96.450 E7.55050
G1 X80.245 Y94.857 E7.65593
G1 X79.637 Y92.985 E7.76135
G1 X79.637 Y91.015 E7.86678
G1 X80.245 Y89.143 E7.97221
G1 X81.403 Y87.550 E8.07763
G1 X82.996 Y86.392 E8.18306
G1 X84.868 Y85.784 E8.28849
G1 X86.035 Y85.784 E8.35094
G1 X86.037 Y85.418 F9600.000
G1 X86.037 Y85.334 F900.000 E8.35545
G1 X100.875 Y85.334 E9.14990
G1 X100.875 Y89.316 E9.36312
G1 X89.690 Y89.316 E9.96195
G1 X88.898 Y88.372 E10.02798
G1 X87.473 Y87.549 E10.11605
G1 X87.421 Y87.540 E10.11886
G1 X87.421 Y87.540 E10.11886
G1 X85.853 Y87.263 E10.20412
G1 X85.801 Y87.273 E10.20694
G1 X85.801 Y87.273 E10.20694
G1 X84.585 Y87.487 E10.27303
G1 X84.463 Y87.416 E10.28060
G1 X84.234 Y87.548 E10.29476
G1 X84.234 Y87.548 E10.29476
G1 X82.808 Y88.372 E10.38290
G1 X81.751 Y89.632 E10.47097
G1 X81.188 Y91.178 E10.55904
G1 X81.188 Y92.822 E10.64711
G1 X81.733 Y94.319 E10.73237
G1 X81.733 Y94.319 E10.73237
G1 X81.751 Y94.368 E10.73519
G1 X82.808 Y95.628 E10.82326
G1 X84.233 Y96.451 E10.91135
G1 X84.233 Y96.451 E10.91135
G1 X84.463 Y96.584 E10.92556
G1 X84.463 Y96.492 E10.93050
G1 X85.801 Y96.727 E11.00325
G1 X85.801 Y96.727 E11.00325
G1 X85.853 Y96.737 E11.00606
G1 X87.421 Y96.460 E11.09132
G1 X87.421 Y96.460 E11.09132
G1 X87.473 Y96.451 E11.09414
G1 X88.898 Y95.628 E11.18221
G1 X89.690 Y94.684 E11.24823
G1 X100.875 Y94.684 E11.84706
G1 X100.875 Y98.666 E12.06029
G1 X86.037 Y98.666 E12.85473
G1 X86.037 Y98.582 E12.85924
G1 X84.811 Y98.582 E12.92490
G1 X82.828 Y97.938 E13.03652
G1 X81.141 Y96.712 E13.14815
G1 X79.915 Y95.025 E13.25978
G1 X79.271 Y93.042 E13.37140
G1 X79.271 Y90.958 E13.48303
G1 X79.915 Y88.975 E13.59466
G1 X81.141 Y87.288 E13.70629
G1 X82.828 Y86.062 E13.81791
G1 X84.811 Y85.418 E13.92954
G1 X85.669 Y85.418 E13.97552
G1 F1200.000 E12.97552
G92 E0
G1 X89.916 Y95.584 F9600.000
G1 F1200.000 E1.00000
G1 X91.245 Y97.888 F1350.000 E1.14291
G1 X91.669 Y97.888 F9600.000
G1 X90.269 Y95.462 F1350.000 E1.29340
G1 X90.693 Y95.462 F9600.000
G1 X92.093 Y97.888 F1350.000 E1.44389
G1 X92.517 Y97.888 F9600.000
G1 X91.116 Y95.462 F1350.000 E1.59437
G1 X91.540 Y95.462 F9600.000
G1 X92.941 Y97.888 F1350.000 E1.74486
G1 X93.364 Y97.888 F9600.000
G1 X91.964 Y95.462 F1350.000 E1.89535
G1 X92.388 Y95.462 F9600.000
G1 X93.788 Y97.888 F1350.000 E2.04584
G1 X94.213 Y97.888 F9600.000
G1 X92.812 Y95.462 F1350.000 E2.19633
G1 X93.236 Y95.462 F9600.000
G1 X94.637 Y97.888 F1350.000 E2.34681
G1 X95.060 Y97.888 F9600.000
G1 X93.660 Y95.462 F1350.000 E2.49731
G1 X94.084 Y95.462 F9600.000
G1 X95.484 Y97.888 F1350.000 E2.64779
G1 X95.908 Y97.888 F9600.000
G1 X94.508 Y95.462 F1350.000 E2.79828
G1 X94.932 Y95.462 F9600.000
G1 X96.332 Y97.888 F1350.000 E2.94877
G1 X96.756 Y97.888 F9600.000
G1 X95.355 Y95.462 F1350.000 E3.09926
G1 X95.779 Y95.462 F9600.000
G1 X97.179 Y97.888 F1350.000 E3.24975
G1 X97.603 Y97.888 F9600.000
G1 X96.203 Y95.462 F1350.000 E3.40024
G1 X96.628 Y95.462 F9600.000
G1 X98.028 Y97.888 F1350.000 E3.55072
G1 X98.452 Y97.888 F9600.000
G1 X97.051 Y95.462 F1350.000 E3.70122
G1 X97.475 Y95.462 F9600.000
G1 X98.876 Y97.888 F1350.000 E3.85170
G1 X99.299 Y97.888 F9600.000
G1 X97.899 Y95.462 F1350.000 E4.00219
G1 X98.323 Y95.462 F9600.000
G1 X99.723 Y97.888 F1350.000 E4.15268
G1 X99.962 Y97.567 F9600.000
G1 X98.747 Y95.462 F1350.000 E4.28330
G1 X99.170 Y95.462 F9600.000
G1 X99.962 Y96.833 F1350.000 E4.36835
G1 X99.962 Y96.099 F9600.000
G1 X99.594 Y95.462 F1350.000 E4.40786
G1 F1200.000 E3.40786
G92 E0
G1 X90.822 Y97.888 F9600.000
G1 F1200.000 E1.00000
G1 X89.665 Y95.884 F1350.000 E1.12434
G1 X89.409 Y96.175 F9600.000
G1 X90.398 Y97.888 F1350.000 E1.23059
G1 X89.974 Y97.888 F9600.000
G1 X89.091 Y96.359 F1350.000 E1.32545
G1 X88.773 Y96.543 F9600.000
G1 X89.549 Y97.888 F1350.000 E1.40892
G1 X89.125 Y97.888 F9600.000
G1 X88.455 Y96.726 F1350.000 E1.48099
G1 X88.334 Y97.251 F9600.000
G1 X88.702 Y97.888 F1350.000 E1.52050
G1 F1200.000 E0.52050
G92 E0
G1 X90.752 Y88.538 F9600.000
G1 F1200.000 E1.00000
G1 X89.352 Y86.112 F1350.000 E1.15139
G1 X89.778 Y86.112 F9600.000
G1 X91.179 Y88.538 F1350.000 E1.30278
G1 X91.606 Y88.538 F9600.000
G1 X90.205 Y86.112 F1350.000 E1.45418
G1 X90.632 Y86.112 F9600.000
G1 X92.033 Y88.538 F1350.000 E1.60557
G1 X92.459 Y88.538 F9600.000
G1 X91.059 Y86.112 F1350.000 E1.75696
G1 X91.486 Y86.112 F9600.000
G1 X92.886 Y88.538 F1350.000 E1.90835
G1 X93.312 Y88.538 F9600.000
G1 X91.912 Y86.112 F1350.000 E2.05975
G1 X92.339 Y86.112 F9600.000
G1 X93.740 Y88.538 F1350.000 E2.21115
G1 X94.167 Y88.538 F9600.000
G1 X92.766 Y86.112 F1350.000 E2.36255
G1 X93.193 Y86.112 F9600.000
G1 X94.593 Y88.538 F1350.000 E2.51394
G1 X95.020 Y88.538 F9600.000
G1 X93.620 Y86.112 F1350.000 E2.66534
G1 X94.046 Y86.112 F9600.000
G1 X95.446 Y88.538 F1350.000 E2.81673
G1 X95.873 Y88.538 F9600.000
G1 X94.473 Y86.112 F1350.000 E2.96812
G1 X94.900 Y86.112 F9600.000
G1 X96.301 Y88.538 F1350.000 E3.11951
G1 X96.727 Y88.538 F9600.000
G1 X95.326 Y86.112 F1350.000 E3.27091
G1 X95.754 Y86.112 F9600.000
G1 X97.154 Y88.538 F1350.000 E3.42230
G1 X97.580 Y88.538 F9600.000
G1 X96.180 Y86.112 F1350.000 E3.57370
G1 X96.607 Y86.112 F9600.000
G1 X98.007 Y88.538 F1350.000 E3.72509
G1 X98.434 Y88.538 F9600.000
G1 X97.034 Y86.112 F1350.000 E3.87649
G1 X97.460 Y86.112 F9600.000
G1 X98.861 Y88.538 F1350.000 E4.02789
G1 X99.288 Y88.538 F9600.000
G1 X97.887 Y86.112 F1350.000 E4.17929
G1 X98.314 Y86.112 F9600.000
G1 X99.714 Y88.538 F1350.000 E4.33068
G1 X99.962 Y88.227 F9600.000
G1 X98.741 Y86.112 F1350.000 E4.46270
G1 X99.168 Y86.112 F9600.000
G1 X99.962 Y87.488 F1350.000 E4.54859
G1 X99.962 Y86.749 F9600.000
G1 X99.594 Y86.112 F1350.000 E4.58833
G1 F1200.000 E3.58833
G92 E0
G1 X90.193 Y88.308 F9600.000
G1 F1200.000 E1.00000
G1 X88.925 Y86.112 F1350.000 E1.13706
G1 X88.499 Y86.112 F9600.000
G1 X89.342 Y87.574 F1350.000 E1.22830
G1 X88.702 Y87.204 F9600.000
G1 X88.334 Y86.567 F1350.000 E1.26805
G1 F1200.000 E0.26805
G92 E0
G1 X90.031 Y115.115 F9600.000
G1 F1200.000 E1.00000
G1 X100.144 Y115.115 F900.000 E1.54143
G1 X100.144 Y117.635 E1.67635
G1 X86.768 Y117.635 E2.39249
G1 X86.768 Y117.551 E2.39700
G1 X86.532 Y117.551 E2.40961
G1 X86.532 Y117.059 E2.43592
G1 X88.152 Y116.774 E2.52400
G1 X88.152 Y116.603 E2.53313
G1 X89.375 Y115.897 E2.60871
G1 X89.795 Y115.397 E2.64370
G1 X86.232 Y117.246 F9600.000
G1 X86.206 Y117.551 F900.000 E2.66007
G1 X84.681 Y117.551 E2.74169
G1 X84.628 Y117.350 E2.75282
G1 X85.141 Y117.054 E2.78455
G1 X85.870 Y117.182 E2.82422
G1 X84.319 Y117.045 F9600.000
G1 X84.199 Y117.315 F900.000 E2.84000
G1 X83.164 Y116.978 E2.89831
G1 X81.664 Y115.889 E2.99754
G1 X80.575 Y114.389 E3.09676
G1 X80.002 Y112.627 E3.19599
G1 X80.002 Y110.773 E3.29521
G1 X80.575 Y109.011 E3.39444
G1 X81.664 Y107.511 E3.49366
G1 X83.164 Y106.422 E3.59289
G1 X84.199 Y106.085 E3.65120
G1 X84.319 Y106.355 E3.66698
G1 X83.971 Y106.556 E3.68853
G1 X83.971 Y106.556 E3.68854
G1 X82.331 Y107.503 E3.78990
G1 X81.108 Y108.960 E3.89179
G1 X80.457 Y110.749 E3.99366
G1 X80.457 Y112.651 E4.09554
G1 X80.689 Y113.288 E4.13179
G1 X80.689 Y113.288 E4.13179
G1 X81.108 Y114.440 E4.19743
G1 X82.331 Y115.897 E4.29930
G1 X83.978 Y116.848 E4.40111
G1 X83.978 Y116.848 E4.40112
G1 X84.001 Y116.861 E4.40255
G1 F1200.000 E3.40255
G92 E0
G1 X90.031 Y108.285 F9600.000
G1 F1200.000 E1.00000
G1 X89.375 Y107.503 F900.000 E1.05467
G1 X89.218 Y107.412 E1.06439
G1 X89.218 Y107.412 E1.06439
G1 X88.152 Y106.797 E1.13025
G1 X88.152 Y106.626 E1.13938
G1 X86.532 Y106.341 E1.22745
G1 X86.532 Y105.849 E1.25376
G1 X86.768 Y105.849 E1.26637
G1 X86.768 Y105.765 E1.27089
G1 X100.144 Y105.765 E1.98703
G1 X100.144 Y108.285 E2.12195
