; generated by Slic3r 0.9.5 on 2012-11-08 at 19:41:43

; layer_height = 0.33
; perimeters = 3
; top_solid_layers = 3
; bottom_solid_layers = 3
; fill_density = 0.2
; perimeter_speed = 60
; infill_speed = 70
; travel_speed = 130
; scale = 1
; nozzle_diameter = 0.35
; filament_diameter = 1.73
; extrusion_multiplier = 1
; perimeters extrusion width = 0.37mm
; infill extrusion width = 0.37mm
; first layer extrusion width = 0.70mm

M190 S5 ; wait for bed temperature to be reached
G28 ; home all axes
G90 ; use absolute coordinates
G21 ; set units to millimeters
G92 E0
M82 ; use absolute distances for extrusion
G1 F1800.000 E-1.00000
G92 E0
G1 Z0.350 F7800.000
G1 X53.390 Y85.580
G1 F1800.000 E1.00000
G1 X89.390 Y26.580 F1080.000 E7.43082
G1 X89.530 Y26.370 E7.45431
G1 X89.670 Y26.170 E7.47702
G1 X89.820 Y25.970 E7.50028
G1 X89.990 Y25.780 E7.52401
G1 X90.160 Y25.600 E7.54704
G1 X90.330 Y25.430 E7.56941
G1 X90.710 Y25.110 E7.61564
G1 X90.910 Y24.970 E7.63835
G1 X91.120 Y24.830 E7.66183
G1 X91.330 Y24.710 E7.68434
G1 X91.550 Y24.590 E7.70765
G1 X91.780 Y24.480 E7.73138
G1 X92.000 Y24.390 E7.75349
G1 X92.240 Y24.300 E7.77734
G1 X92.470 Y24.230 E7.79971
G1 X92.710 Y24.170 E7.82273
G1 X92.960 Y24.120 E7.84645
G1 X93.200 Y24.080 E7.86909
G1 X93.450 Y24.050 E7.89252
G1 X93.690 Y24.030 E7.91493
G1 X116.290 Y24.030 E10.01772
G1 X116.770 Y24.070 E10.06254
G1 X117.010 Y24.110 E10.08518
G1 X117.250 Y24.160 E10.10799
G1 X117.490 Y24.220 E10.13101
G1 X117.720 Y24.290 E10.15337
G1 X117.950 Y24.370 E10.17603
G1 X118.390 Y24.570 E10.22100
G1 X118.600 Y24.680 E10.24306
G1 X118.810 Y24.800 E10.26556
G1 X119.020 Y24.930 E10.28855
G1 X119.220 Y25.070 E10.31126
G1 X119.410 Y25.220 E10.33378
G1 X119.590 Y25.370 E10.35558
G1 X119.770 Y25.540 E10.37862
G1 X119.940 Y25.710 E10.40099
G1 X120.100 Y25.890 E10.42340
G1 X120.400 Y26.270 E10.46845
G1 X120.530 Y26.480 E10.49143
G1 X120.660 Y26.680 E10.51362
G1 X124.260 Y32.900 E11.18230
G1 X124.380 Y33.130 E11.20644
G1 X124.490 Y33.350 E11.22932
G1 X124.590 Y33.590 E11.25351
G1 X124.680 Y33.820 E11.27649
G1 X124.760 Y34.070 E11.30092
G1 X124.820 Y34.310 E11.32394
G1 X124.880 Y34.560 E11.34786
G1 X124.920 Y34.810 E11.37141
G1 X124.950 Y35.060 E11.39484
G1 X124.970 Y35.320 E11.41910
G1 X124.970 Y134.670 E20.66304
G1 X124.950 Y134.930 E20.68730
G1 X124.920 Y135.180 E20.71073
G1 X124.880 Y135.430 E20.73429
G1 X124.820 Y135.680 E20.75821
G1 X124.760 Y135.920 E20.78123
G1 X124.680 Y136.160 E20.80477
G1 X124.590 Y136.400 E20.82862
G1 X124.490 Y136.630 E20.85195
G1 X124.380 Y136.860 E20.87567
G1 X124.260 Y137.080 E20.89899
G1 X120.660 Y143.310 E21.56847
G1 X120.530 Y143.520 E21.59145
G1 X120.400 Y143.720 E21.61365
G1 X120.250 Y143.920 E21.63691
G1 X120.100 Y144.100 E21.65871
G1 X119.940 Y144.290 E21.68182
G1 X119.770 Y144.460 E21.70419
G1 X119.410 Y144.780 E21.74901
G1 X119.220 Y144.930 E21.77153
G1 X119.020 Y145.070 E21.79425
G1 X118.820 Y145.200 E21.81644
G1 X118.610 Y145.320 E21.83894
G1 X118.390 Y145.430 E21.86183
G1 X117.950 Y145.630 E21.90680
G1 X117.720 Y145.710 E21.92946
G1 X117.490 Y145.780 E21.95183
G1 X117.250 Y145.840 E21.97485
G1 X117.010 Y145.890 E21.99766
G1 X116.770 Y145.930 E22.02029
G1 X116.290 Y145.970 E22.06511
G1 X57.700 Y145.970 E27.51657
G1 X57.460 Y145.950 E27.53898
G1 X57.210 Y145.930 E27.56231
G1 X56.970 Y145.890 E27.58495
G1 X56.740 Y145.840 E27.60685
G1 X56.500 Y145.780 E27.62987
G1 X56.270 Y145.710 E27.65224
G1 X56.040 Y145.620 E27.67522
G1 X55.820 Y145.530 E27.69733
G1 X55.600 Y145.430 E27.71982
G1 X55.380 Y145.320 E27.74270
G1 X55.170 Y145.200 E27.76521
G1 X54.970 Y145.070 E27.78740
G1 X54.770 Y144.930 E27.81012
G1 X54.580 Y144.780 E27.83264
G1 X54.390 Y144.620 E27.85575
G1 X54.220 Y144.460 E27.87747
G1 X53.880 Y144.100 E27.92355
G1 X53.730 Y143.910 E27.94607
G1 X53.590 Y143.720 E27.96803
G1 X53.450 Y143.520 E27.99075
G1 X53.330 Y143.310 E28.01325
G1 X49.740 Y137.080 E28.68227
G1 X49.620 Y136.860 E28.70559
G1 X49.500 Y136.630 E28.72972
G1 X49.410 Y136.400 E28.75270
G1 X49.320 Y136.160 E28.77655
G1 X49.240 Y135.920 E28.80009
G1 X49.170 Y135.670 E28.82425
G1 X49.120 Y135.430 E28.84706
G1 X49.080 Y135.180 E28.87061
G1 X49.050 Y134.930 E28.89404
G1 X49.030 Y134.670 E28.91830
G1 X49.030 Y94.320 E32.67264
G1 X49.050 Y94.060 E32.69690
G1 X49.080 Y93.810 E32.72033
G1 X49.120 Y93.560 E32.74388
G1 X49.180 Y93.310 E32.76781
G1 X49.240 Y93.070 E32.79082
G1 X49.320 Y92.830 E32.81436
G1 X49.410 Y92.590 E32.83821
G1 X49.510 Y92.360 E32.86155
G1 X49.620 Y92.130 E32.88527
G1 X49.740 Y91.910 E32.90858
G1 X53.330 Y85.690 E33.57680
G1 X53.390 Y85.580 E33.58846
G1 X53.960 Y85.920 F7800.000
G1 X89.960 Y26.920 F1080.000 E40.01928
G1 X90.080 Y26.730 E40.04019
G1 X90.360 Y26.370 E40.08262
G1 X90.660 Y26.030 E40.12481
G1 X91.000 Y25.730 E40.16700
G1 X91.180 Y25.590 E40.18822
G1 X91.370 Y25.460 E40.20964
G1 X91.560 Y25.340 E40.23055
G1 X91.760 Y25.230 E40.25179
G1 X91.960 Y25.130 E40.27259
G1 X92.170 Y25.040 E40.29385
G1 X92.380 Y24.960 E40.31476
G1 X92.600 Y24.890 E40.33624
G1 X92.820 Y24.830 E40.35746
G1 X93.040 Y24.780 E40.37845
G1 X93.260 Y24.740 E40.39926
G1 X93.490 Y24.710 E40.42084
G1 X93.710 Y24.690 E40.44139
G1 X116.280 Y24.690 E42.54140
G1 X116.510 Y24.710 E42.56288
G1 X116.740 Y24.740 E42.58446
G1 X116.970 Y24.780 E42.60618
G1 X117.200 Y24.830 E42.62808
G1 X117.420 Y24.890 E42.64930
G1 X117.860 Y25.050 E42.69286
G1 X118.280 Y25.250 E42.73614
G1 X118.480 Y25.370 E42.75785
G1 X118.860 Y25.630 E42.80069
G1 X119.220 Y25.930 E42.84429
G1 X119.390 Y26.090 E42.86601
G1 X119.540 Y26.260 E42.88710
G1 X119.690 Y26.440 E42.90890
G1 X119.830 Y26.620 E42.93012
G1 X119.960 Y26.820 E42.95232
G1 X120.090 Y27.010 E42.97374
G1 X123.690 Y33.230 E43.64242
G1 X123.910 Y33.670 E43.68819
G1 X124.000 Y33.900 E43.71117
G1 X124.080 Y34.130 E43.73383
G1 X124.150 Y34.360 E43.75619
G1 X124.210 Y34.600 E43.77921
G1 X124.290 Y35.080 E43.82449
G1 X124.310 Y35.330 E43.84782
G1 X124.310 Y134.660 E53.08990
G1 X124.290 Y134.910 E53.11324
G1 X124.210 Y135.390 E53.15851
G1 X124.150 Y135.630 E53.18153
G1 X124.080 Y135.860 E53.20390
G1 X124.000 Y136.090 E53.22656
G1 X123.910 Y136.320 E53.24954
G1 X123.800 Y136.540 E53.27242
G1 X123.690 Y136.750 E53.29448
G1 X120.090 Y142.980 E53.96397
G1 X119.970 Y143.180 E53.98567
G1 X119.690 Y143.560 E54.02959
G1 X119.540 Y143.740 E54.05139
G1 X119.390 Y143.910 E54.07248
G1 X119.220 Y144.070 E54.09420
G1 X119.050 Y144.220 E54.11530
G1 X118.860 Y144.370 E54.13782
G1 X118.680 Y144.500 E54.15848
G1 X118.480 Y144.630 E54.18067
G1 X118.280 Y144.750 E54.20238
G1 X117.860 Y144.950 E54.24566
G1 X117.420 Y145.110 E54.28922
G1 X117.200 Y145.170 E54.31044
G1 X116.970 Y145.220 E54.33234
G1 X116.740 Y145.260 E54.35406
G1 X116.510 Y145.290 E54.37564
G1 X116.280 Y145.310 E54.39712
G1 X57.710 Y145.310 E59.84672
G1 X57.480 Y145.290 E59.86820
G1 X57.240 Y145.260 E59.89070
G1 X57.020 Y145.220 E59.91151
G1 X56.790 Y145.170 E59.93341
G1 X56.560 Y145.100 E59.95578
G1 X56.340 Y145.030 E59.97726
G1 X56.130 Y144.950 E59.99817
G1 X55.920 Y144.850 E60.01981
G1 X55.710 Y144.740 E60.04187
G1 X55.510 Y144.630 E60.06310
G1 X55.310 Y144.500 E60.08530
G1 X55.120 Y144.370 E60.10672
G1 X54.940 Y144.220 E60.12852
G1 X54.770 Y144.070 E60.14961
G1 X54.600 Y143.900 E60.17198
G1 X54.440 Y143.730 E60.19371
G1 X54.290 Y143.550 E60.21551
G1 X54.150 Y143.370 E60.23672
G1 X54.020 Y143.180 E60.25814
G1 X53.900 Y142.980 E60.27985
G1 X50.310 Y136.750 E60.94886
G1 X50.190 Y136.530 E60.97218
G1 X50.090 Y136.310 E60.99467
G1 X50.000 Y136.090 E61.01678
G1 X49.920 Y135.860 E61.03944
G1 X49.850 Y135.620 E61.06270
G1 X49.790 Y135.390 E61.08482
G1 X49.740 Y135.150 E61.10763
G1 X49.710 Y134.910 E61.13013
G1 X49.690 Y134.660 E61.15347
G1 X49.690 Y94.330 E64.90594
G1 X49.710 Y94.080 E64.92927
G1 X49.740 Y93.840 E64.95178
G1 X49.790 Y93.600 E64.97459
G1 X49.850 Y93.360 E64.99761
G1 X49.920 Y93.130 E65.01998
G1 X50.000 Y92.900 E65.04263
G1 X50.090 Y92.670 E65.06561
G1 X50.200 Y92.450 E65.08850
G1 X50.310 Y92.240 E65.11056
G1 X53.900 Y86.020 E65.77877
G1 X53.960 Y85.920 E65.78962
G1 F1800.000 E64.78962
G92 E0
G1 X79.900 Y136.637 F7800.000
G1 F1800.000 E1.00000
G1 X77.340 Y138.679 F1080.000 E1.30468
G1 X74.147 Y137.950 E1.60937
G1 X72.726 Y135.000 E1.91405
G1 X74.147 Y132.050 E2.21873
G1 X77.340 Y131.321 E2.52342
G1 X79.900 Y133.363 E2.82810
G1 X79.900 Y136.637 E3.13278
G1 X79.237 Y136.318 F7800.000
G1 X77.176 Y137.962 F1080.000 E3.37809
G1 X74.606 Y137.375 E3.62341
G1 X73.462 Y135.000 E3.86873
G1 X74.606 Y132.625 E4.11405
G1 X77.176 Y132.038 E4.35937
G1 X79.237 Y133.682 E4.60468
G1 X79.237 Y136.318 E4.85000
G1 X78.575 Y135.999 F7800.000
G1 X77.012 Y137.245 F1080.000 E5.03595
G1 X75.064 Y136.801 E5.22190
G1 X74.197 Y135.000 E5.40785
G1 X75.064 Y133.199 E5.59381
G1 X77.012 Y132.755 E5.77976
G1 X78.575 Y134.001 E5.96571
G1 X78.575 Y135.999 E6.15166
G1 F1800.000 E5.15166
G92 E0
G1 X77.340 Y125.679 F7800.000
G1 F1800.000 E1.00000
G1 X74.147 Y124.950 F1080.000 E1.30468
G1 X72.726 Y122.000 E1.60936
G1 X74.147 Y119.050 E1.91405
G1 X77.340 Y118.321 E2.21873
G1 X79.900 Y120.363 E2.52341
G1 X79.900 Y123.637 E2.82810
G1 X77.340 Y125.679 E3.13278
G1 X77.176 Y124.962 F7800.000
G1 X74.606 Y124.375 F1080.000 E3.37810
G1 X73.462 Y122.000 E3.62341
G1 X74.606 Y119.625 E3.86873
G1 X77.176 Y119.038 E4.11405
G1 X79.237 Y120.682 E4.35936
G1 X79.237 Y123.318 E4.60468
G1 X77.176 Y124.962 E4.85000
G1 X77.012 Y124.245 F7800.000
G1 X75.064 Y123.801 F1080.000 E5.03595
G1 X74.197 Y122.000 E5.22190
G1 X75.064 Y120.199 E5.40786
G1 X77.012 Y119.755 E5.59381
G1 X78.575 Y121.001 E5.77976
G1 X78.575 Y122.999 E5.96571
G1 X77.012 Y124.245 E6.15166
G1 F1800.000 E5.15166
G92 E0
G1 X64.900 Y123.637 F7800.000
G1 F1800.000 E1.00000
G1 X62.340 Y125.679 F1080.000 E1.30468
G1 X59.147 Y124.950 E1.60936
G1 X57.726 Y122.000 E1.91405
G1 X59.147 Y119.050 E2.21873
G1 X62.340 Y118.321 E2.52341
G1 X64.900 Y120.363 E2.82809
G1 X64.900 Y123.637 E3.13278
G1 X64.237 Y123.318 F7800.000
G1 X62.176 Y124.962 F1080.000 E3.37809
G1 X59.606 Y124.375 E3.62341
G1 X58.462 Y122.000 E3.86873
G1 X59.606 Y119.625 E4.11405
G1 X62.176 Y119.038 E4.35936
G1 X64.237 Y120.682 E4.60468
G1 X64.237 Y123.318 E4.85000
G1 X63.575 Y122.999 F7800.000
G1 X62.012 Y124.245 F1080.000 E5.03595
G1 X60.064 Y123.801 E5.22190
G1 X59.197 Y122.000 E5.40786
G1 X60.064 Y120.199 E5.59381
G1 X62.012 Y119.755 E5.77976
G1 X63.575 Y121.001 E5.96571
G1 X63.575 Y122.999 E6.15166
G1 F1800.000 E5.15166
G92 E0
G1 X62.340 Y131.321 F7800.000
G1 F1800.000 E1.00000
G1 X64.900 Y133.363 F1080.000 E1.30468
G1 X64.900 Y136.637 E1.60936
G1 X62.340 Y138.679 E1.91404
G1 X59.147 Y137.950 E2.21873
G1 X57.726 Y135.000 E2.52341
G1 X59.147 Y132.050 E2.82809
G1 X62.340 Y131.321 E3.13278
G1 X62.176 Y132.038 F7800.000
G1 X64.237 Y133.682 F1080.000 E3.37809
G1 X64.237 Y136.318 E3.62341
G1 X62.176 Y137.962 E3.86873
G1 X59.606 Y137.375 E4.11404
G1 X58.462 Y135.000 E4.35936
G1 X59.606 Y132.625 E4.60468
G1 X62.176 Y132.038 E4.85000
G1 X62.012 Y132.755 F7800.000
G1 X63.575 Y134.001 F1080.000 E5.03595
G1 X63.575 Y135.999 E5.22190
G1 X62.012 Y137.245 E5.40785
G1 X60.064 Y136.801 E5.59380
G1 X59.197 Y135.000 E5.77975
G1 X60.064 Y133.199 E5.96571
G1 X62.012 Y132.755 E6.15166
G1 F1800.000 E5.15166
G92 E0
G1 X55.675 Y122.930 F7800.000
G1 F1800.000 E1.00000
G1 X58.709 Y117.675 F1080.000 E1.56455
G1 X79.291 Y117.675 E3.47964
G1 X82.325 Y122.930 E4.04420
G1 X82.325 Y134.070 E5.08079
G1 X79.291 Y139.325 E5.64534
G1 X58.709 Y139.325 E7.56043
G1 X55.675 Y134.070 E8.12499
G1 X55.675 Y122.930 E9.16158
G1 X55.012 Y122.752 F7800.000
G1 X58.326 Y117.012 F1080.000 E9.77823
G1 X79.674 Y117.012 E11.76450
G1 X82.988 Y122.752 E12.38115
G1 X82.988 Y134.248 E13.45077
G1 X79.674 Y139.988 E14.06743
G1 X58.326 Y139.988 E16.05369
G1 X55.012 Y134.248 E16.67035
G1 X55.012 Y122.752 E17.73997
G1 X54.350 Y122.575 F7800.000
G1 X57.944 Y116.350 F1080.000 E18.40873
G1 X80.056 Y116.350 E20.46616
G1 X83.650 Y122.575 E21.13492
G1 X83.650 Y134.425 E22.23757
G1 X80.056 Y140.650 E22.90633
G1 X57.944 Y140.650 E24.96377
G1 X54.350 Y134.425 E25.63252
G1 X54.350 Y122.575 E26.73518
G1 X54.681 Y122.001 F7800.000
G1 F1800.000 E25.73518
G92 E0
G1 X74.085 Y111.182 F7800.000
G1 F1800.000 E1.00000
G1 X71.671 Y107.000 F1080.000 E1.44935
G1 X74.085 Y102.818 E1.89871
G1 X78.915 Y102.818 E2.34806
G1 X81.329 Y107.000 E2.79742
G1 X78.915 Y111.182 E3.24677
G1 X74.085 Y111.182 E3.69612
G1 X74.468 Y110.520 F7800.000
G1 X72.435 Y107.000 F1080.000 E4.07431
G1 X74.468 Y103.480 E4.45249
G1 X78.532 Y103.480 E4.83067
G1 X80.565 Y107.000 E5.20885
G1 X78.532 Y110.520 E5.58703
G1 X74.468 Y110.520 E5.96522
G1 F1800.000 E4.96522
G92 E0
G1 X74.085 Y98.182 F7800.000
G1 F1800.000 E1.00000
G1 X71.671 Y94.000 F1080.000 E1.44935
G1 X74.085 Y89.818 E1.89871
G1 X78.915 Y89.818 E2.34806
G1 X81.329 Y94.000 E2.79742
G1 X78.915 Y98.182 E3.24677
G1 X74.085 Y98.182 E3.69612
G1 X74.468 Y97.520 F7800.000
G1 X72.435 Y94.000 F1080.000 E4.07431
G1 X74.468 Y90.480 E4.45249
G1 X78.532 Y90.480 E4.83067
G1 X80.565 Y94.000 E5.20885
G1 X78.532 Y97.520 E5.58704
G1 X74.468 Y97.520 E5.96522
G1 F1800.000 E4.96522
G92 E0
G1 X66.329 Y94.000 F7800.000
G1 F1800.000 E1.00000
G1 X63.915 Y98.182 F1080.000 E1.44935
G1 X59.085 Y98.182 E1.89871
G1 X56.671 Y94.000 E2.34806
G1 X59.085 Y89.818 E2.79742
G1 X63.915 Y89.818 E3.24677
G1 X66.329 Y94.000 E3.69612
G1 X65.565 Y94.000 F7800.000
G1 X65.154 Y94.711 F1080.000 E3.77246
G1 X65.154 Y94.711 E3.77246
G1 X63.532 Y97.520 E4.07431
G1 X59.468 Y97.520 E4.45249
G1 X57.435 Y94.000 E4.83067
G1 X59.468 Y90.480 E5.20885
G1 X63.532 Y90.480 E5.58703
G1 X65.565 Y94.000 E5.96522
G1 F1800.000 E4.96522
G92 E0
G1 X63.915 Y102.818 F7800.000
G1 F1800.000 E1.00000
G1 X66.329 Y107.000 F1080.000 E1.44935
G1 X63.915 Y111.182 E1.89871
G1 X59.085 Y111.182 E2.34806
G1 X56.671 Y107.000 E2.79742
G1 X59.085 Y102.818 E3.24677
G1 X63.915 Y102.818 E3.69612
G1 X63.532 Y103.480 F7800.000
G1 X65.565 Y107.000 F1080.000 E4.07431
G1 X63.532 Y110.520 E4.45249
G1 X59.468 Y110.520 E4.83067
G1 X57.435 Y107.000 E5.20885
G1 X59.468 Y103.480 E5.58704
G1 X63.532 Y103.480 E5.96522
G1 F1800.000 E4.96522
G92 E0
G1 X64.789 Y89.675 F7800.000
G1 F1800.000 E1.00000
G1 X73.211 Y89.675 F1080.000 E1.78371
G1 X73.307 Y89.841 E1.80150
G1 X70.906 Y94.000 E2.24839
G1 X73.703 Y98.845 E2.76891
G1 X79.297 Y98.845 E3.28944
G1 X81.941 Y94.265 E3.78150
G1 X82.325 Y94.930 E3.85290
G1 X82.325 Y106.070 E4.88949
G1 X81.941 Y106.735 E4.96089
G1 X79.297 Y102.155 E5.45295
G1 X73.703 Y102.155 E5.97348
G1 X70.906 Y107.000 E6.49400
G1 X73.403 Y111.325 E6.95868
G1 X64.789 Y111.325 E7.76018
G1 X64.693 Y111.159 E7.77798
G1 X67.094 Y107.000 E8.22486
G1 X64.297 Y102.155 E8.74539
G1 X58.703 Y102.155 E9.26592
G1 X56.059 Y106.735 E9.75797
G1 X55.675 Y106.070 E9.82937
G1 X55.675 Y94.930 E10.86597
G1 X56.059 Y94.265 E10.93737
G1 X58.703 Y98.845 E11.42943
G1 X64.297 Y98.845 E11.94995
G1 X67.094 Y94.000 E12.47048
G1 X64.693 Y89.840 E12.91737
G1 X64.789 Y89.675 E12.93516
G1 F1800.000 E11.93516
G92 E0
G1 X58.326 Y89.012 F7800.000
G1 F1800.000 E1.00000
G1 X79.674 Y89.012 F1080.000 E2.98626
G1 X82.988 Y94.752 E3.60292
G1 X82.988 Y106.248 E4.67254
G1 X79.674 Y111.988 E5.28920
G1 X58.326 Y111.988 E7.27546
G1 X55.012 Y106.248 E7.89211
G1 X55.012 Y94.752 E8.96174
G1 X58.326 Y89.012 E9.57839
G1 X57.944 Y88.350 F7800.000
G1 X80.056 Y88.350 F1080.000 E11.63583
G1 X83.650 Y94.575 E12.30459
G1 X83.650 Y106.425 E13.40724
G1 X80.056 Y112.650 E14.07599
G1 X57.944 Y112.650 E16.13343
G1 X54.350 Y106.425 E16.80218
G1 X54.350 Y94.575 E17.90484
G1 X57.944 Y88.350 E18.57360
G1 X58.521 Y88.017 F7800.000
