; generated by Slic3r 0.9.6-dev on 2012-11-17 at 02:21:46

; layer_height = 0.33
; perimeters = 3
; top_solid_layers = 3
; bottom_solid_layers = 3
; fill_density = 0.20
; perimeter_speed = 50
; infill_speed = 75
; travel_speed = 160
; scale = 1
; nozzle_diameter = 0.35
; filament_diameter = 1.74
; extrusion_multiplier = 1
; perimeters extrusion width = 0.37mm
; infill extrusion width = 0.37mm
; first layer extrusion width = 0.37mm

G28 ; home all axes
M106;
G90 ; use absolute coordinates
G21 ; set units to millimeters
G92 E0
M82 ; use absolute distances for extrusion
G1 F1200.000 E-1.00000
G92 E0
G1 Z0.330 F9600.000
G1 X38.002 Y47.617
G1 F1200.000 E1.00000
G1 X87.762 Y47.617 F900.000 E3.51190
G1 X88.092 Y47.627 E3.52857
G1 X88.422 Y47.647 E3.54526
G1 X88.742 Y47.687 E3.56153
G1 X89.072 Y47.747 E3.57847
G1 X89.392 Y47.817 E3.59500
G1 X89.702 Y47.907 E3.61130
G1 X90.022 Y48.007 E3.62822
G1 X147.982 Y68.627 E6.73370
G1 X148.232 Y68.727 E6.74729
G1 X148.492 Y68.827 E6.76136
G1 X148.742 Y68.947 E6.77535
G1 X148.982 Y69.077 E6.78913
G1 X149.222 Y69.217 E6.80316
G1 X149.452 Y69.367 E6.81702
G1 X149.682 Y69.527 E6.83116
G1 X149.902 Y69.687 E6.84490
G1 X150.322 Y70.047 E6.87282
G1 X150.512 Y70.237 E6.88638
G1 X150.702 Y70.437 E6.90031
G1 X150.882 Y70.647 E6.91427
G1 X151.062 Y70.867 E6.92862
G1 X151.222 Y71.087 E6.94235
G1 X151.522 Y71.547 E6.97008
G1 X151.652 Y71.787 E6.98385
G1 X151.782 Y72.037 E6.99808
G1 X152.002 Y72.537 E7.02565
G1 X152.092 Y72.797 E7.03954
G1 X152.182 Y73.067 E7.05391
G1 X152.252 Y73.327 E7.06750
G1 X152.312 Y73.597 E7.08146
G1 X152.362 Y73.867 E7.09533
G1 X152.402 Y74.137 E7.10910
G1 X152.432 Y74.417 E7.12332
G1 X152.452 Y74.687 E7.13699
G1 X152.452 Y89.317 E7.87551
G1 X152.442 Y89.647 E7.89218
G1 X150.592 Y127.197 E9.79001
G1 X150.572 Y127.477 E9.80419
G1 X150.542 Y127.767 E9.81890
G1 X150.502 Y128.037 E9.83268
G1 X150.382 Y128.597 E9.86159
G1 X150.302 Y128.867 E9.87581
G1 X150.212 Y129.137 E9.89017
G1 X150.112 Y129.397 E9.90424
G1 X149.872 Y129.917 E9.93315
G1 X149.742 Y130.167 E9.94737
G1 X149.442 Y130.647 E9.97594
G1 X149.282 Y130.877 E9.99009
G1 X148.922 Y131.317 E10.01879
G1 X148.732 Y131.527 E10.03308
G1 X148.532 Y131.727 E10.04736
G1 X145.632 Y134.507 E10.25015
G1 X145.422 Y134.697 E10.26445
G1 X145.202 Y134.887 E10.27912
G1 X144.742 Y135.227 E10.30800
G1 X144.502 Y135.377 E10.32229
G1 X144.252 Y135.527 E10.33700
G1 X144.002 Y135.657 E10.35123
G1 X143.482 Y135.897 E10.38014
G1 X143.212 Y135.997 E10.39467
G1 X142.942 Y136.087 E10.40904
G1 X142.672 Y136.157 E10.42312
G1 X142.392 Y136.227 E10.43769
G1 X141.832 Y136.327 E10.46641
G1 X141.542 Y136.357 E10.48112
G1 X141.262 Y136.377 E10.49529
G1 X135.422 Y136.377 E10.79010
G1 X135.112 Y136.367 E10.80576
G1 X134.812 Y136.347 E10.82093
G1 X134.512 Y136.317 E10.83615
G1 X134.202 Y136.267 E10.85200
G1 X133.912 Y136.207 E10.86695
G1 X133.612 Y136.127 E10.88263
G1 X133.322 Y136.037 E10.89795
G1 X92.282 Y122.537 E13.07887
G1 X92.242 Y122.527 E13.08096
G1 X36.742 Y103.957 E16.03528
G1 X36.482 Y103.867 E16.04917
G1 X36.232 Y103.767 E16.06276
G1 X35.732 Y103.527 E16.09076
G1 X35.252 Y103.247 E16.11881
G1 X35.022 Y103.097 E16.13267
G1 X34.582 Y102.757 E16.16074
G1 X34.372 Y102.577 E16.17470
G1 X34.172 Y102.387 E16.18863
G1 X33.792 Y101.987 E16.21648
G1 X33.452 Y101.547 E16.24455
G1 X33.292 Y101.327 E16.25828
G1 X33.142 Y101.097 E16.27214
G1 X33.002 Y100.857 E16.28617
G1 X32.872 Y100.607 E16.30039
G1 X32.752 Y100.357 E16.31439
G1 X32.642 Y100.107 E16.32818
G1 X32.542 Y99.847 E16.34224
G1 X32.462 Y99.587 E16.35598
G1 X32.382 Y99.317 E16.37019
G1 X32.312 Y99.047 E16.38427
G1 X32.212 Y98.507 E16.41199
G1 X32.182 Y98.237 E16.42571
G1 X32.162 Y97.957 E16.43988
G1 X32.152 Y97.677 E16.45402
G1 X31.542 Y58.077 E18.45328
G1 X31.542 Y54.077 E18.65520
G1 X31.562 Y53.807 E18.66887
G1 X31.592 Y53.537 E18.68258
G1 X31.672 Y52.997 E18.71014
G1 X31.732 Y52.737 E18.72361
G1 X31.802 Y52.477 E18.73720
G1 X31.982 Y51.957 E18.76498
G1 X32.082 Y51.707 E18.77857
G1 X32.192 Y51.457 E18.79236
G1 X32.312 Y51.217 E18.80590
G1 X32.442 Y50.977 E18.81968
G1 X32.582 Y50.747 E18.83327
G1 X32.732 Y50.527 E18.84671
G1 X32.892 Y50.307 E18.86045
G1 X33.062 Y50.087 E18.87448
G1 X33.232 Y49.887 E18.88773
G1 X33.422 Y49.687 E18.90166
G1 X33.612 Y49.497 E18.91522
G1 X33.812 Y49.307 E18.92915
G1 X34.012 Y49.137 E18.94240
G1 X34.232 Y48.967 E18.95643
G1 X34.452 Y48.807 E18.97016
G1 X34.672 Y48.657 E18.98361
G1 X34.902 Y48.517 E18.99720
G1 X35.142 Y48.387 E19.01098
G1 X35.382 Y48.267 E19.02452
G1 X35.632 Y48.157 E19.03831
G1 X35.882 Y48.057 E19.05190
G1 X36.402 Y47.877 E19.07968
G1 X36.662 Y47.807 E19.09327
G1 X36.922 Y47.747 E19.10674
G1 X37.462 Y47.667 E19.13430
G1 X37.732 Y47.637 E19.14801
G1 X38.002 Y47.617 E19.16168
G1 X38.012 Y47.987 F9600.000
G1 X38.272 Y47.977 F900.000 E19.17481
G1 X87.762 Y47.977 E21.67308
G1 X88.072 Y47.987 E21.68874
G1 X88.382 Y48.007 E21.70442
G1 X88.692 Y48.047 E21.72020
G1 X89.002 Y48.107 E21.73614
G1 X89.302 Y48.167 E21.75158
G1 X89.602 Y48.257 E21.76740
G1 X89.892 Y48.347 E21.78272
G1 X147.852 Y68.967 E24.88820
G1 X148.102 Y69.067 E24.90180
G1 X148.342 Y69.167 E24.91492
G1 X148.572 Y69.277 E24.92779
G1 X148.802 Y69.397 E24.94089
G1 X149.032 Y69.527 E24.95422
G1 X149.252 Y69.667 E24.96739
G1 X149.462 Y69.817 E24.98041
G1 X149.672 Y69.977 E24.99374
G1 X149.872 Y70.137 E25.00667
G1 X150.072 Y70.317 E25.02025
G1 X150.252 Y70.497 E25.03310
G1 X150.432 Y70.687 E25.04632
G1 X150.772 Y71.087 E25.07282
G1 X150.922 Y71.297 E25.08584
G1 X151.072 Y71.517 E25.09929
G1 X151.202 Y71.737 E25.11219
G1 X151.332 Y71.967 E25.12552
G1 X151.452 Y72.197 E25.13862
G1 X151.562 Y72.427 E25.15149
G1 X151.662 Y72.677 E25.16508
G1 X151.752 Y72.917 E25.17802
G1 X151.832 Y73.167 E25.19127
G1 X151.892 Y73.417 E25.20425
G1 X151.952 Y73.677 E25.21772
G1 X152.002 Y73.927 E25.23059
G1 X152.042 Y74.187 E25.24387
G1 X152.082 Y74.707 E25.27020
G1 X152.092 Y74.967 E25.28333
G1 X152.092 Y89.317 E26.00772
G1 X152.082 Y89.627 E26.02338
G1 X150.232 Y127.177 E27.92121
G1 X150.212 Y127.447 E27.93488
G1 X150.182 Y127.717 E27.94859
G1 X150.142 Y127.977 E27.96187
G1 X150.092 Y128.237 E27.97524
G1 X149.952 Y128.757 E28.00242
G1 X149.862 Y129.017 E28.01631
G1 X149.772 Y129.267 E28.02973
G1 X149.552 Y129.747 E28.05638
G1 X149.422 Y129.987 E28.07016
G1 X149.282 Y130.217 E28.08375
G1 X149.142 Y130.437 E28.09691
G1 X148.982 Y130.657 E28.11065
G1 X148.822 Y130.867 E28.12397
G1 X148.652 Y131.077 E28.13761
G1 X148.282 Y131.467 E28.16475
G1 X145.382 Y134.247 E28.36754
G1 X145.182 Y134.427 E28.38113
G1 X144.762 Y134.767 E28.40840
G1 X144.542 Y134.917 E28.42184
G1 X144.312 Y135.067 E28.43571
G1 X144.072 Y135.207 E28.44973
G1 X143.842 Y135.327 E28.46283
G1 X143.592 Y135.447 E28.47683
G1 X143.342 Y135.557 E28.49061
G1 X143.092 Y135.647 E28.50403
G1 X142.832 Y135.737 E28.51792
G1 X142.572 Y135.807 E28.53151
G1 X142.312 Y135.867 E28.54498
G1 X142.052 Y135.917 E28.55834
G1 X141.782 Y135.957 E28.57212
G1 X141.512 Y135.987 E28.58584
G1 X141.242 Y136.007 E28.59950
G1 X140.972 Y136.017 E28.61314
G1 X135.422 Y136.017 E28.89331
G1 X135.132 Y136.007 E28.90796
G1 X134.842 Y135.987 E28.92263
G1 X134.562 Y135.957 E28.93684
G1 X134.272 Y135.907 E28.95170
G1 X133.992 Y135.847 E28.96616
G1 X133.712 Y135.777 E28.98072
G1 X133.432 Y135.697 E28.99542
G1 X92.392 Y122.197 E31.17634
G1 X36.862 Y103.617 E34.13227
G1 X36.612 Y103.527 E34.14568
G1 X36.372 Y103.427 E34.15880
G1 X36.132 Y103.317 E34.17213
G1 X35.672 Y103.077 E34.19832
G1 X35.232 Y102.797 E34.22465
G1 X35.022 Y102.637 E34.23798
G1 X34.822 Y102.477 E34.25091
G1 X34.622 Y102.307 E34.26416
G1 X34.432 Y102.127 E34.27737
G1 X34.242 Y101.937 E34.29093
G1 X34.072 Y101.747 E34.30380
G1 X33.902 Y101.547 E34.31705
G1 X33.742 Y101.337 E34.33038
G1 X33.592 Y101.117 E34.34382
G1 X33.452 Y100.897 E34.35698
G1 X33.322 Y100.677 E34.36988
G1 X33.202 Y100.447 E34.38298
G1 X33.082 Y100.207 E34.39653
G1 X32.982 Y99.967 E34.40965
G1 X32.892 Y99.727 E34.42259
G1 X32.802 Y99.477 E34.43600
G1 X32.732 Y99.227 E34.44911
G1 X32.672 Y98.967 E34.46258
G1 X32.622 Y98.717 E34.47545
G1 X32.542 Y98.197 E34.50201
G1 X32.522 Y97.937 E34.51517
G1 X32.522 Y97.677 E34.52829
G1 X31.912 Y58.077 E36.52755
G1 X31.902 Y57.977 E36.53263
G1 X31.902 Y54.347 E36.71587
G1 X31.912 Y54.087 E36.72900
G1 X31.932 Y53.817 E36.74267
G1 X31.952 Y53.557 E36.75583
G1 X31.992 Y53.297 E36.76911
G1 X32.042 Y53.037 E36.78248
G1 X32.102 Y52.787 E36.79546
G1 X32.172 Y52.527 E36.80905
G1 X32.252 Y52.277 E36.82230
G1 X32.342 Y52.037 E36.83524
G1 X32.442 Y51.787 E36.84883
G1 X32.552 Y51.547 E36.86216
G1 X32.672 Y51.317 E36.87525
G1 X32.802 Y51.087 E36.88859
G1 X32.942 Y50.867 E36.90175
G1 X33.092 Y50.647 E36.91520
G1 X33.252 Y50.437 E36.92852
G1 X33.412 Y50.237 E36.94145
G1 X33.592 Y50.037 E36.95504
G1 X33.772 Y49.847 E36.96825
G1 X33.962 Y49.667 E36.98146
G1 X34.162 Y49.487 E36.99504
G1 X34.362 Y49.327 E37.00797
G1 X34.572 Y49.167 E37.02130
G1 X34.792 Y49.017 E37.03474
G1 X35.012 Y48.877 E37.04790
G1 X35.242 Y48.747 E37.06124
G1 X35.472 Y48.627 E37.07434
G1 X35.712 Y48.517 E37.08766
G1 X35.962 Y48.417 E37.10126
G1 X36.202 Y48.327 E37.11419
G1 X36.452 Y48.247 E37.12744
G1 X36.712 Y48.177 E37.14104
G1 X36.962 Y48.117 E37.15402
G1 X37.222 Y48.067 E37.16738
G1 X37.482 Y48.027 E37.18066
G1 X37.742 Y48.007 E37.19382
G1 X38.012 Y47.987 E37.20749
G1 F1200.000 E36.20749
G92 E0
G1 X84.746 Y110.352 F9600.000
G1 F1200.000 E1.00000
G1 X80.659 Y110.352 F900.000 E1.20631
G1 X80.659 Y107.577 E1.34640
G1 X73.137 Y107.577 E1.72611
G1 X71.076 Y107.250 E1.83144
G1 X69.282 Y106.336 E1.93309
G1 X67.858 Y104.912 E2.03474
G1 X66.943 Y103.118 E2.13639
G1 X66.628 Y101.129 E2.23804
G1 X66.943 Y99.140 E2.33969
G1 X68.110 Y96.852 E2.46935
G1 X39.617 Y96.852 E3.90767
G1 X39.617 Y94.682 E4.01721
G1 X87.650 Y94.682 E6.44190
G1 X87.650 Y96.902 E6.55397
G1 X75.866 Y96.902 E7.14883
G1 X75.623 Y96.698 E7.16482
G1 X73.953 Y96.090 E7.25453
G1 X72.176 Y96.090 E7.34423
G1 X70.506 Y96.698 E7.43393
G1 X69.145 Y97.840 E7.52363
G1 X68.257 Y99.379 E7.61334
G1 X67.948 Y101.129 E7.70304
G1 X68.256 Y102.879 E7.79274
G1 X69.145 Y104.418 E7.88244
G1 X70.506 Y105.560 E7.97214
G1 X72.176 Y106.168 E8.06185
G1 X73.953 Y106.168 E8.15155
G1 X75.623 Y105.560 E8.24125
G1 X75.866 Y105.357 E8.25725
G1 X87.650 Y105.357 E8.85211
G1 X87.650 Y107.577 E8.96417
G1 X84.746 Y107.577 E9.11077
G1 X84.746 Y110.352 E9.25085
G1 X85.111 Y110.717 F9600.000
G1 X80.293 Y110.717 F900.000 E9.49408
G1 X80.293 Y107.942 E9.63416
G1 X73.108 Y107.942 E9.99687
G1 X70.961 Y107.602 E10.10658
G1 X69.064 Y106.636 E10.21407
G1 X67.558 Y105.130 E10.32157
G1 X66.591 Y103.232 E10.42907
G1 X66.258 Y101.129 E10.53656
G1 X66.591 Y99.026 E10.64406
G1 X67.513 Y97.217 E10.74653
G1 X39.251 Y97.217 E12.17318
G1 X39.251 Y94.316 E12.31963
G1 X88.015 Y94.316 E14.78124
G1 X88.015 Y97.267 E14.93022
G1 X75.732 Y97.267 E15.55026
G1 X75.437 Y97.020 E15.56971
G1 X73.889 Y96.456 E15.65291
G1 X72.241 Y96.456 E15.73610
G1 X70.692 Y97.020 E15.81929
G1 X69.429 Y98.079 E15.90249
G1 X68.605 Y99.506 E15.98568
G1 X68.319 Y101.129 E16.06887
G1 X68.605 Y102.752 E16.15206
G1 X69.429 Y104.179 E16.23526
G1 X70.692 Y105.239 E16.31845
G1 X72.241 Y105.802 E16.40165
G1 X73.889 Y105.802 E16.48484
G1 X75.437 Y105.239 E16.56804
G1 X75.732 Y104.991 E16.58749
G1 X88.015 Y104.991 E17.20753
G1 X88.015 Y107.942 E17.35651
G1 X85.111 Y107.942 E17.50310
G1 X85.111 Y110.717 E17.64318
G1 X85.477 Y111.083 F9600.000
G1 X79.927 Y111.083 F900.000 E17.92333
G1 X79.927 Y108.308 E18.06341
G1 X73.079 Y108.308 E18.40911
G1 X70.847 Y107.954 E18.52319
G1 X68.846 Y106.935 E18.63654
G1 X67.259 Y105.347 E18.74988
G1 X66.239 Y103.347 E18.86322
G1 X65.888 Y101.129 E18.97657
G1 X66.239 Y98.912 E19.08991
G1 X66.916 Y97.583 E19.16518
G1 X38.886 Y97.583 E20.58017
G1 X38.886 Y93.950 E20.76354
G1 X88.381 Y93.950 E23.26206
G1 X88.381 Y97.633 E23.44796
G1 X75.599 Y97.633 E24.09317
G1 X75.252 Y97.341 E24.11608
G1 X73.824 Y96.822 E24.19277
G1 X72.305 Y96.822 E24.26945
G1 X70.878 Y97.341 E24.34614
G1 X69.714 Y98.318 E24.42282
G1 X68.954 Y99.633 E24.49951
G1 X68.690 Y101.129 E24.57619
G1 X68.954 Y102.625 E24.65288
G1 X69.714 Y103.941 E24.72956
G1 X70.878 Y104.917 E24.80625
G1 X72.305 Y105.437 E24.88293
G1 X73.824 Y105.437 E24.95962
G1 X75.252 Y104.917 E25.03630
G1 X75.599 Y104.625 E25.05922
G1 X88.381 Y104.625 E25.70443
G1 X88.381 Y108.308 E25.89033
G1 X85.477 Y108.308 E26.03692
G1 X85.477 Y111.083 E26.17700
G1 X84.462 Y107.711 F9600.000
G1 X83.232 Y105.580 F1350.000 E26.30124
G1 X82.810 Y105.580 E26.32255
G1 X84.462 Y108.442 E26.48942
G1 X84.462 Y109.174 E26.52633
G1 X82.387 Y105.580 E26.73583
G1 X81.965 Y105.580 E26.75714
G1 X84.462 Y109.905 E27.00927
G1 X84.169 Y110.129 E27.02789
G1 X81.543 Y105.580 E27.29306
G1 X81.121 Y105.580 E27.31438
G1 X83.747 Y110.129 E27.57955
G1 X83.325 Y110.129 E27.60087
G1 X80.699 Y105.580 E27.86604
G1 X80.276 Y105.580 E27.88736
G1 X82.903 Y110.129 E28.15253
G1 X82.481 Y110.129 E28.17385
G1 X80.942 Y107.464 E28.32920
G1 X80.878 Y107.354 F9600.000
G1 X79.854 Y105.580 F1350.000 E28.43261
G1 X79.432 Y105.580 E28.45393
G1 X80.456 Y107.354 E28.55734
G1 X80.034 Y107.354 E28.57865
G1 X79.010 Y105.580 E28.68206
G1 X78.588 Y105.580 E28.70338
G1 X79.612 Y107.354 E28.80678
G1 X79.190 Y107.354 E28.82810
G1 X78.165 Y105.580 E28.93150
G1 X77.743 Y105.580 E28.95282
G1 X78.767 Y107.354 E29.05623
G1 X78.345 Y107.354 E29.07754
G1 X77.321 Y105.580 E29.18095
G1 X76.899 Y105.580 E29.20226
G1 X77.923 Y107.354 E29.30567
G1 X77.501 Y107.354 E29.32698
G1 X76.476 Y105.580 E29.43039
G1 X76.054 Y105.580 E29.45170
G1 X77.078 Y107.354 E29.55511
G1 X76.656 Y107.354 E29.57643
G1 X75.725 Y105.740 E29.67050
G1 X75.376 Y105.867 E29.68924
G1 X76.234 Y107.354 E29.77592
G1 X75.812 Y107.354 E29.79723
G1 X75.027 Y105.994 E29.87650
G1 X74.678 Y106.121 E29.89524
G1 X75.390 Y107.354 E29.96711
G1 X74.967 Y107.354 E29.98842
G1 X74.329 Y106.248 E30.05289
G1 X73.980 Y106.375 E30.07163
G1 X74.545 Y107.354 E30.12869
G1 X74.123 Y107.354 E30.15001
G1 X73.567 Y106.391 E30.20612
G1 X73.145 Y106.391 E30.22743
G1 X73.701 Y107.354 E30.28354
G1 X73.279 Y107.354 E30.30486
G1 X72.723 Y106.391 E30.36097
G1 X72.301 Y106.391 E30.38229
G1 X72.817 Y107.285 E30.43442
G1 X72.352 Y107.212 E30.45817
G1 X71.838 Y106.321 E30.51007
G1 X71.304 Y106.127 E30.53879
G1 X71.888 Y107.138 E30.59774
G1 X71.423 Y107.065 E30.62148
G1 X70.769 Y105.932 E30.68749
G1 X70.233 Y105.734 E30.71636
G1 X70.868 Y106.835 E30.78051
G1 X69.414 Y105.047 F9600.000
G1 X70.270 Y106.530 F1350.000 E30.86695
G1 X69.672 Y106.225 E30.90084
G1 X67.018 Y101.629 E31.16876
G1 X67.178 Y102.637 F9600.000
G1 X68.733 Y105.331 F1350.000 E31.32580
G1 F1200.000 E30.32580
G92 E0
G1 X68.618 Y96.356 F9600.000
G1 F1200.000 E1.00000
G1 X69.264 Y97.475 F1350.000 E1.06525
G1 X68.980 Y97.714 E1.08399
G1 X68.420 Y96.744 E1.14050
G1 X68.222 Y97.133 E1.16251
G1 X68.759 Y98.063 E1.21675
G1 X68.548 Y98.428 E1.23806
G1 X68.024 Y97.521 E1.29096
G1 X67.826 Y97.909 E1.31297
G1 X68.337 Y98.794 E1.36454
G1 X68.126 Y99.160 E1.38585
G1 X67.628 Y98.298 E1.43610
G1 X67.430 Y98.686 E1.45810
G1 X67.955 Y99.595 E1.51107
G1 X67.856 Y100.155 E1.53979
G1 X67.232 Y99.075 E1.60276
G1 X67.131 Y99.631 E1.63130
G1 X67.757 Y100.715 E1.69451
G1 X67.660 Y101.279 E1.72339
G1 X67.040 Y100.205 E1.78602
G1 X66.949 Y100.779 E1.81535
G1 X67.846 Y102.332 E1.90590
G1 F1200.000 E0.90590
G92 E0
G1 X40.065 Y96.629 F9600.000
G1 F1200.000 E1.00000
G1 X39.900 Y96.343 F1350.000 E1.01663
G1 X40.487 Y96.629 E1.04957
G1 X39.900 Y95.612 E1.10883
G1 X39.914 Y94.905 E1.14455
G1 X40.909 Y96.629 E1.24504
