; generated by Slic3r 0.9.3 on 2012-11-04 at 14:02:00

; layer_height = 0.3
; perimeters = 3
; solid_layers = 3
; fill_density = 0.20
; perimeter_speed = 60
; infill_speed = 75
; travel_speed = 180
; scale = 1
; nozzle_diameter = 0.35
; filament_diameter = 1.74
; extrusion_multiplier = 1
; single wall width = 0.37mm

G28 ; home all axes
G90 ; use absolute coordinates
G21 ; set units to millimeters
G92 E0
M82 ; use absolute distances for extrusion
G1 F1200.000 E-1.00000
G92 E0
G1 Z0.300 F10800.000
G1 X62.399 Y78.770
G1 F1200.000 E1.00000
G1 X62.789 Y78.390 F1080.000 E1.02499
G1 X63.429 Y77.890 E1.06226
G1 X63.879 Y77.600 E1.08683
G1 X64.359 Y77.350 E1.11166
G1 X64.859 Y77.140 E1.13655
G1 X65.379 Y76.960 E1.16180
G1 X65.899 Y76.830 E1.18640
G1 X66.709 Y76.720 E1.22391
G1 X66.979 Y76.700 E1.23634
G1 X117.009 Y76.700 E3.53228
G1 X117.549 Y76.750 E3.55716
G1 X118.089 Y76.830 E3.58221
G1 X118.609 Y76.960 E3.60681
G1 X119.379 Y77.240 E3.64441
G1 X119.869 Y77.470 E3.66925
G1 X120.339 Y77.740 E3.69413
G1 X120.999 Y78.220 E3.73158
G1 X121.199 Y78.390 E3.74362
G1 X121.779 Y78.970 E3.78127
G1 X122.279 Y79.610 E3.81854
G1 X122.569 Y80.060 E3.84310
G1 X122.819 Y80.540 E3.86794
G1 X123.029 Y81.040 E3.89283
G1 X123.209 Y81.560 E3.91808
G1 X123.339 Y82.080 E3.94268
G1 X123.449 Y82.890 E3.98019
G1 X123.469 Y83.160 E3.99262
G1 X123.469 Y98.060 E4.67640
G1 X123.419 Y98.610 E4.70174
G1 X123.329 Y99.160 E4.72732
G1 X123.199 Y99.690 E4.75236
G1 X123.119 Y99.950 E4.76484
G1 X122.919 Y100.460 E4.78998
G1 X122.679 Y100.960 E4.81543
G1 X122.249 Y101.660 E4.85314
G1 X121.729 Y102.310 E4.89134
G1 X121.349 Y102.700 E4.91632
G1 X120.929 Y103.060 E4.94171
G1 X120.259 Y103.530 E4.97927
G1 X113.849 Y106.790 E5.30929
G1 X113.589 Y106.900 E5.32224
G1 X112.809 Y107.160 E5.35997
G1 X112.539 Y107.230 E5.37277
G1 X111.729 Y107.360 E5.41042
G1 X111.179 Y107.390 E5.43570
G1 X110.629 Y107.380 E5.46094
G1 X110.079 Y107.320 E5.48633
G1 X109.539 Y107.220 E5.51154
G1 X64.929 Y93.380 E7.65500
G1 X64.419 Y93.170 E7.68031
G1 X63.699 Y92.780 E7.71789
G1 X63.029 Y92.310 E7.75545
G1 X62.619 Y91.950 E7.78049
G1 X62.239 Y91.560 E7.80548
G1 X61.889 Y91.130 E7.83092
G1 X61.579 Y90.690 E7.85562
G1 X61.299 Y90.210 E7.88112
G1 X60.959 Y89.470 E7.91850
G1 X60.789 Y88.950 E7.94360
G1 X60.659 Y88.420 E7.96864
G1 X60.569 Y87.880 E7.99377
G1 X60.519 Y87.330 E8.01911
G1 X60.519 Y83.160 E8.21048
G1 X60.569 Y82.620 E8.23537
G1 X60.649 Y82.080 E8.26042
G1 X60.779 Y81.560 E8.28502
G1 X61.059 Y80.790 E8.32262
G1 X61.289 Y80.300 E8.34746
G1 X61.559 Y79.830 E8.37233
G1 X62.039 Y79.170 E8.40978
G1 X62.149 Y79.040 E8.41762
G1 X62.389 Y79.320 F10800.000
G1 X62.749 Y78.930 F1080.000 E8.44198
G1 X63.139 Y78.570 E8.46634
G1 X63.549 Y78.250 E8.49020
G1 X63.989 Y77.960 E8.51439
G1 X64.449 Y77.710 E8.53841
G1 X65.179 Y77.410 E8.57463
G1 X65.939 Y77.200 E8.61082
G1 X66.459 Y77.110 E8.63504
G1 X67.249 Y77.060 E8.67136
G1 X116.999 Y77.070 E10.95445
G1 X117.529 Y77.110 E10.97884
G1 X118.049 Y77.200 E11.00306
G1 X118.559 Y77.330 E11.02721
G1 X119.299 Y77.600 E11.06336
G1 X119.769 Y77.830 E11.08737
G1 X120.219 Y78.100 E11.11146
G1 X120.439 Y78.250 E11.12368
G1 X120.849 Y78.570 E11.14754
G1 X121.239 Y78.930 E11.17190
G1 X121.599 Y79.320 E11.19626
G1 X121.919 Y79.730 E11.22013
G1 X122.209 Y80.170 E11.24431
G1 X122.459 Y80.630 E11.26833
G1 X122.759 Y81.360 E11.30455
G1 X122.969 Y82.120 E11.34074
G1 X123.059 Y82.640 E11.36496
G1 X123.109 Y83.430 E11.40128
G1 X123.099 Y98.060 E12.07267
G1 X123.049 Y98.600 E12.09756
G1 X122.959 Y99.130 E12.12223
G1 X122.829 Y99.650 E12.14683
G1 X122.649 Y100.160 E12.17165
G1 X122.429 Y100.650 E12.19630
G1 X122.159 Y101.130 E12.22157
G1 X122.019 Y101.350 E12.23354
G1 X121.689 Y101.790 E12.25878
G1 X121.339 Y102.190 E12.28317
G1 X120.949 Y102.570 E12.30816
G1 X120.529 Y102.910 E12.33295
G1 X120.079 Y103.210 E12.35777
G1 X113.679 Y106.460 E12.68718
G1 X113.169 Y106.670 E12.71249
G1 X112.639 Y106.830 E12.73789
G1 X112.099 Y106.940 E12.76318
G1 X111.559 Y107.010 E12.78817
G1 X111.009 Y107.030 E12.81343
G1 X110.449 Y107.000 E12.83917
G1 X109.909 Y106.920 E12.86422
G1 X65.049 Y93.030 E15.01932
G1 X64.549 Y92.830 E15.04403
G1 X64.079 Y92.580 E15.06846
G1 X63.409 Y92.140 E15.10525
G1 X62.799 Y91.620 E15.14203
G1 X62.439 Y91.230 E15.16639
G1 X61.949 Y90.590 E15.20338
G1 X61.549 Y89.900 E15.23998
G1 X61.329 Y89.410 E15.26463
G1 X61.019 Y88.390 E15.31355
G1 X60.929 Y87.860 E15.33822
G1 X60.879 Y87.060 E15.37501
G1 X60.889 Y83.170 E15.55353
G1 X60.929 Y82.640 E15.57792
G1 X61.019 Y82.120 E15.60214
G1 X61.149 Y81.610 E15.62629
G1 X61.419 Y80.870 E15.66244
G1 X61.649 Y80.400 E15.68645
G1 X61.919 Y79.950 E15.71053
G1 X62.069 Y79.730 E15.72275
G1 X62.161 Y79.609 E15.72976
G1 F1200.000 E14.72976
G92 E0
G1 X116.016 Y97.060 F10800.000
G1 F1200.000 E1.00000
G1 X102.346 Y97.060 F1080.000 E1.62733
G1 X102.346 Y96.969 E1.63149
G1 X100.424 Y96.969 E1.71969
G1 X98.509 Y96.347 E1.81210
G1 X96.880 Y95.164 E1.90451
G1 X95.697 Y93.534 E1.99692
G1 X95.074 Y91.619 E2.08932
G1 X95.074 Y89.606 E2.18173
G1 X96.137 Y86.335 E2.33955
G1 X67.984 Y86.335 E3.63154
G1 X67.984 Y84.165 E3.73113
G1 X116.016 Y84.165 E5.93540
G1 X116.016 Y86.385 E6.03727
G1 X104.187 Y86.385 E6.58014
G1 X103.181 Y85.804 E6.63342
G1 X102.572 Y85.697 E6.66183
G1 X102.572 Y85.697 E6.66183
G1 X102.109 Y85.615 E6.68339
G1 X102.109 Y85.376 E6.69436
G1 X100.421 Y85.674 E6.77304
G1 X100.164 Y85.526 E6.78665
G1 X99.683 Y85.803 E6.81213
G1 X99.683 Y85.803 E6.81213
G1 X98.142 Y86.693 E6.89377
G1 X97.000 Y88.054 E6.97531
G1 X96.392 Y89.724 E7.05687
G1 X96.392 Y91.501 E7.13841
G1 X97.000 Y93.171 E7.21997
G1 X98.142 Y94.532 E7.30151
G1 X99.681 Y95.421 E7.38306
G1 X102.109 Y95.849 E7.49619
G1 X102.109 Y95.610 E7.50716
G1 X103.001 Y95.452 E7.54872
G1 X103.001 Y95.452 E7.54872
G1 X103.181 Y95.421 E7.55712
G1 X104.187 Y94.840 E7.61041
G1 X116.016 Y94.840 E8.15327
G1 X116.016 Y96.693 E8.23829
G1 X116.382 Y97.426 F10800.000
G1 X101.981 Y97.426 F1080.000 E8.89918
G1 X101.981 Y97.335 E8.90334
G1 X100.367 Y97.335 E8.97741
G1 X98.341 Y96.677 E9.07514
G1 X96.618 Y95.425 E9.17286
G1 X95.367 Y93.702 E9.27059
G1 X94.709 Y91.677 E9.36831
G1 X94.709 Y89.548 E9.46603
G1 X95.634 Y86.701 E9.60342
G1 X67.618 Y86.701 E10.88909
G1 X67.618 Y83.799 E11.02223
G1 X116.382 Y83.799 E13.26006
G1 X116.382 Y86.751 E13.39550
G1 X104.089 Y86.751 E13.95964
G1 X103.054 Y86.153 E14.01446
G1 X102.937 Y86.133 E14.01991
G1 X102.937 Y86.133 E14.01991
G1 X101.743 Y85.922 E14.07554
G1 X101.743 Y85.812 E14.08059
G1 X100.353 Y86.057 E14.14538
G1 X100.164 Y85.948 E14.15541
G1 X99.811 Y86.152 E14.17411
G1 X99.811 Y86.152 E14.17411
G1 X98.381 Y86.977 E14.24989
G1 X97.322 Y88.240 E14.32552
G1 X96.758 Y89.788 E14.40115
G1 X96.758 Y91.437 E14.47678
G1 X97.322 Y92.985 E14.55241
G1 X98.381 Y94.248 E14.62804
G1 X99.808 Y95.072 E14.70367
G1 X101.743 Y95.413 E14.79385
G1 X101.743 Y95.303 E14.79891
G1 X103.054 Y95.072 E14.85999
G1 X104.089 Y94.474 E14.91481
G1 X116.382 Y94.474 E15.47895
G1 X116.382 Y97.058 E15.59752
G1 X116.748 Y97.791 F10800.000
G1 X101.615 Y97.791 F1080.000 E16.29197
G1 X101.615 Y97.701 E16.29613
G1 X100.309 Y97.701 E16.35608
G1 X98.173 Y97.007 E16.45912
G1 X96.357 Y95.687 E16.56216
G1 X95.037 Y93.871 E16.66520
G1 X94.343 Y91.735 E16.76824
G1 X94.343 Y89.490 E16.87128
G1 X95.131 Y87.066 E16.98822
G1 X67.252 Y87.066 E18.26758
G1 X67.252 Y83.434 E18.43428
G1 X116.748 Y83.434 E20.70567
G1 X116.748 Y87.116 E20.87466
G1 X103.991 Y87.116 E21.46008
G1 X102.927 Y86.502 E21.51644
G1 X101.431 Y86.238 E21.58615
G1 X101.378 Y86.248 E21.58864
G1 X101.378 Y86.248 E21.58864
G1 X100.286 Y86.440 E21.63954
G1 X100.164 Y86.370 E21.64599
G1 X99.936 Y86.502 E21.65808
G1 X99.936 Y86.502 E21.65808
G1 X98.620 Y87.262 E21.72782
G1 X97.643 Y88.425 E21.79753
G1 X97.124 Y89.853 E21.86725
G1 X97.124 Y91.372 E21.93696
G1 X97.643 Y92.800 E22.00667
G1 X98.620 Y93.963 E22.07639
G1 X99.935 Y94.723 E22.14610
G1 X101.378 Y94.977 E22.21332
G1 X101.378 Y94.977 E22.21332
G1 X101.431 Y94.987 E22.21581
G1 X102.927 Y94.723 E22.28553
G1 X103.991 Y94.109 E22.34188
G1 X116.748 Y94.109 E22.92730
G1 X116.748 Y97.424 E23.07943
G1 F1200.000 E22.07943
G92 E0
G1 X111.020 Y99.276 F10800.000
G1 F1200.000 E1.00000
G1 X110.988 Y98.235 F1080.000 E1.04778
G1 X111.020 Y99.276 F10800.000
G1 X111.047 Y100.143 F1080.000 E1.08759
G1 X111.058 Y100.490 E1.10352
G1 X111.063 Y100.663 E1.11148
G1 X111.035 Y97.013 F10800.000
G1 X109.808 Y94.887 F1350.000 E1.22412
G1 X109.386 Y94.887 F10800.000
G1 X110.613 Y97.013 F1350.000 E1.33677
G1 X110.191 Y97.013 F10800.000
G1 X108.964 Y94.887 F1350.000 E1.44940
G1 X108.542 Y94.887 F10800.000
G1 X109.769 Y97.013 F1350.000 E1.56204
G1 X109.346 Y97.013 F10800.000
G1 X108.119 Y94.887 F1350.000 E1.67468
G1 X107.697 Y94.887 F10800.000
G1 X108.925 Y97.013 F1350.000 E1.78731
G1 X108.502 Y97.013 F10800.000
G1 X107.275 Y94.887 F1350.000 E1.89995
G1 X106.852 Y94.887 F10800.000
G1 X108.080 Y97.013 F1350.000 E2.01259
G1 X107.658 Y97.013 F10800.000
G1 X106.431 Y94.887 F1350.000 E2.12523
G1 X106.008 Y94.887 F10800.000
G1 X107.235 Y97.013 F1350.000 E2.23786
G1 X106.813 Y97.013 F10800.000
G1 X105.586 Y94.887 F1350.000 E2.35050
G1 X105.164 Y94.887 F10800.000
G1 X106.391 Y97.013 F1350.000 E2.46314
G1 X105.969 Y97.013 F10800.000
G1 X104.742 Y94.887 F1350.000 E2.57577
G1 X104.319 Y94.888 F10800.000
G1 X105.546 Y97.013 F1350.000 E2.68841
G1 X105.125 Y97.013 F10800.000
G1 X103.948 Y94.975 F1350.000 E2.79637
G1 X103.631 Y95.158 F10800.000
G1 X104.702 Y97.013 F1350.000 E2.89465
G1 X104.280 Y97.013 F10800.000
G1 X103.315 Y95.341 F1350.000 E2.98324
G1 X102.972 Y95.478 F10800.000
G1 X103.858 Y97.013 F1350.000 E3.06458
G1 X103.435 Y97.013 F10800.000
G1 X102.588 Y95.546 F1350.000 E3.14233
G1 X102.291 Y95.761 F10800.000
G1 X103.014 Y97.013 F1350.000 E3.20865
G1 X102.539 Y96.922 F10800.000
G1 X101.952 Y95.906 F1350.000 E3.26248
G1 X101.482 Y95.824 F10800.000
G1 X102.116 Y96.922 F1350.000 E3.32071
G1 X101.695 Y96.922 F10800.000
G1 X101.012 Y95.740 F1350.000 E3.38332
G1 X100.542 Y95.658 F10800.000
G1 X101.272 Y96.922 F1350.000 E3.45033
G1 X100.850 Y96.922 F10800.000
G1 X100.072 Y95.575 F1350.000 E3.52174
G1 X99.602 Y95.492 F10800.000
G1 X100.373 Y96.827 F1350.000 E3.59248
G1 X99.853 Y96.658 F10800.000
G1 X99.049 Y95.265 F1350.000 E3.66628
G1 X98.415 Y94.900 F10800.000
G1 X99.333 Y96.489 F1350.000 E3.75050
G1 X98.795 Y96.287 F10800.000
G1 X97.783 Y94.534 F1350.000 E3.84341
G1 X97.340 Y95.230 F10800.000
G1 X95.537 Y92.107 F1350.000 E4.00891
G1 X96.211 Y91.812 F10800.000
G1 X95.256 Y90.158 F1350.000 E4.09652
G1 X95.256 Y89.427 F10800.000
G1 X96.210 Y91.081 F1350.000 E4.18413
G1 X96.211 Y90.349 F10800.000
G1 X95.391 Y88.930 F1350.000 E4.25934
G1 X95.543 Y88.462 F10800.000
G1 X96.291 Y89.757 F1350.000 E4.32798
G1 X96.454 Y89.309 F10800.000
G1 X95.695 Y87.994 F1350.000 E4.39764
G1 X95.847 Y87.526 F10800.000
G1 X96.617 Y88.860 F1350.000 E4.46834
G1 X96.781 Y88.411 F10800.000
G1 X96.000 Y87.058 F1350.000 E4.54006
G1 X96.151 Y86.590 F10800.000
G1 X96.987 Y88.038 F1350.000 E4.61680
G1 X97.237 Y87.740 F10800.000
G1 X96.303 Y86.122 F1350.000 E4.70253
G1 X96.399 Y86.288 F10800.000
G1 X95.201 Y84.212 F1350.000 E4.81252
G1 X95.623 Y84.212 F10800.000
G1 X96.822 Y86.288 F1350.000 E4.92251
G1 X96.456 Y85.654 F10800.000
G1 X97.488 Y87.442 F1350.000 E5.01724
G1 X97.738 Y87.144 F10800.000
G1 X96.045 Y84.212 F1350.000 E5.17260
G1 X96.467 Y84.212 F10800.000
G1 X97.988 Y86.846 F1350.000 E5.31215
G1 X98.278 Y86.617 F10800.000
G1 X96.890 Y84.212 F1350.000 E5.43959
G1 X97.312 Y84.212 F10800.000
G1 X98.594 Y86.434 F1350.000 E5.55733
G1 X98.911 Y86.251 F10800.000
G1 X97.734 Y84.212 F1350.000 E5.66539
G1 X98.156 Y84.212 F10800.000
G1 X99.227 Y86.069 F1350.000 E5.76376
G1 X99.544 Y85.886 F10800.000
G1 X98.578 Y84.212 F1350.000 E5.85244
G1 X99.001 Y84.212 F10800.000
G1 X99.861 Y85.703 F1350.000 E5.93143
G1 X100.178 Y85.520 F10800.000
G1 X99.422 Y84.212 F1350.000 E6.00073
G1 X99.845 Y84.212 F10800.000
G1 X100.641 Y85.592 F1350.000 E6.07384
G1 X101.037 Y85.545 F10800.000
G1 X100.268 Y84.212 F1350.000 E6.14446
G1 X100.689 Y84.212 F10800.000
G1 X101.420 Y85.478 F1350.000 E6.21150
G1 X101.803 Y85.410 F10800.000
G1 X101.112 Y84.212 F1350.000 E6.27496
G1 X101.534 Y84.212 F10800.000
G1 X102.187 Y85.342 F1350.000 E6.33485
G1 X102.569 Y85.275 F10800.000
G1 X101.956 Y84.212 F1350.000 E6.39115
G1 X102.378 Y84.212 F10800.000
G1 X103.256 Y85.732 F1350.000 E6.47170
G1 X102.786 Y85.649 F10800.000
G1 X102.291 Y84.792 F1350.000 E6.51714
G1 X102.801 Y84.212 F10800.000
G1 X103.808 Y85.956 F1350.000 E6.60955
G1 X104.440 Y86.322 F10800.000
G1 X103.223 Y84.212 F1350.000 E6.72133
G1 X103.645 Y84.212 F10800.000
G1 X104.872 Y86.338 F1350.000 E6.83397
G1 X105.295 Y86.337 F10800.000
G1 X104.068 Y84.212 F1350.000 E6.94661
G1 X104.489 Y84.212 F10800.000
G1 X105.716 Y86.338 F1350.000 E7.05925
G1 X106.139 Y86.338 F10800.000
G1 X104.912 Y84.212 F1350.000 E7.17188
G1 X105.333 Y84.212 F10800.000
G1 X106.561 Y86.338 F1350.000 E7.28452
G1 X106.983 Y86.338 F10800.000
G1 X105.756 Y84.212 F1350.000 E7.39717
G1 X106.178 Y84.212 F10800.000
G1 X107.406 Y86.338 F1350.000 E7.50981
G1 X107.827 Y86.338 F10800.000
G1 X106.600 Y84.212 F1350.000 E7.62245
G1 X107.023 Y84.212 F10800.000
G1 X108.250 Y86.338 F1350.000 E7.73509
G1 X108.672 Y86.338 F10800.000
G1 X107.445 Y84.212 F1350.000 E7.84773
G1 X107.867 Y84.212 F10800.000
G1 X109.094 Y86.338 F1350.000 E7.96037
G1 X109.516 Y86.338 F10800.000
G1 X108.289 Y84.212 F1350.000 E8.07301
G1 X108.712 Y84.212 F10800.000
G1 X109.939 Y86.338 F1350.000 E8.18565
G1 X110.361 Y86.338 F10800.000
G1 X109.134 Y84.212 F1350.000 E8.29828
G1 X109.556 Y84.212 F10800.000
G1 X110.783 Y86.338 F1350.000 E8.41092
G1 X111.206 Y86.338 F10800.000
G1 X109.979 Y84.212 F1350.000 E8.52356
G1 X110.400 Y84.212 F10800.000
G1 X111.627 Y86.338 F1350.000 E8.63619
G1 X112.050 Y86.338 F10800.000
G1 X110.823 Y84.212 F1350.000 E8.74883
G1 X111.244 Y84.212 F10800.000
G1 X112.471 Y86.338 F1350.000 E8.86147
G1 X112.894 Y86.338 F10800.000
G1 X111.667 Y84.212 F1350.000 E8.97411
G1 X112.089 Y84.212 F10800.000
G1 X113.317 Y86.338 F1350.000 E9.08674
G1 X113.738 Y86.338 F10800.000
G1 X112.511 Y84.212 F1350.000 E9.19938
G1 X112.934 Y84.212 F10800.000
G1 X114.161 Y86.338 F1350.000 E9.31202
G1 X114.583 Y86.338 F10800.000
G1 X113.356 Y84.212 F1350.000 E9.42466
G1 X113.778 Y84.212 F10800.000
G1 X115.005 Y86.338 F1350.000 E9.53730
G1 X115.427 Y86.338 F10800.000
G1 X114.200 Y84.212 F1350.000 E9.64994
G1 X114.623 Y84.212 F10800.000
G1 X115.835 Y86.311 F1350.000 E9.76119
G1 X115.834 Y85.580 F10800.000
G1 X115.044 Y84.212 F1350.000 E9.83369
G1 X115.467 Y84.212 F10800.000
G1 X115.835 Y84.849 F1350.000 E9.86744
G1 F1200.000 E8.86744
G92 E0
G1 X115.297 Y94.887 F10800.000
G1 F1200.000 E1.00000
G1 X115.834 Y95.818 F1350.000 E1.04934
G1 X115.835 Y96.549 F10800.000
G1 X114.875 Y94.887 F1350.000 E1.13743
G1 X114.453 Y94.887 F10800.000
G1 X115.680 Y97.013 F1350.000 E1.25007
G1 X115.257 Y97.013 F10800.000
G1 X114.030 Y94.887 F1350.000 E1.36271
G1 X113.608 Y94.887 F10800.000
G1 X114.836 Y97.013 F1350.000 E1.47534
G1 X114.413 Y97.013 F10800.000
G1 X113.186 Y94.887 F1350.000 E1.58798
G1 X112.763 Y94.887 F10800.000
G1 X113.990 Y97.013 F1350.000 E1.70062
G1 X113.569 Y97.013 F10800.000
G1 X112.342 Y94.887 F1350.000 E1.81325
G1 X111.919 Y94.887 F10800.000
G1 X113.146 Y97.013 F1350.000 E1.92590
G1 X112.724 Y97.013 F10800.000
G1 X111.497 Y94.887 F1350.000 E2.03854
G1 X111.075 Y94.887 F10800.000
G1 X112.302 Y97.013 F1350.000 E2.15118
G1 X111.880 Y97.013 F10800.000
G1 X110.652 Y94.887 F1350.000 E2.26382
G1 X110.231 Y94.887 F10800.000
