; generated by Slic3r 0.9.5 on 2012-11-27 at 16:05:24

; layer_height = 0.3
; perimeters = 3
; top_solid_layers = 3
; bottom_solid_layers = 3
; fill_density = 0.3
; perimeter_speed = 50
; infill_speed = 85
; travel_speed = 180
; scale = 1
; nozzle_diameter = 0.35
; filament_diameter = 1.73
; extrusion_multiplier = .98
; perimeters extrusion width = 0.37mm
; infill extrusion width = 0.37mm
; first layer extrusion width = 0.60mm

G28 ; home all axes
G90 ; use absolute coordinates
G21 ; set units to millimeters
G92 E0
M82 ; use absolute distances for extrusion
G1 F1800.000 E-0.80000
G92 E0
G1 Z0.300 F10800.000
G1 X33.210 Y54.199
G1 F1800.000 E0.80000
G1 X33.290 Y54.029 F1200.000 E0.81284
G1 X33.390 Y53.858 E0.82632
G1 X33.490 Y53.699 E0.83921
G1 X33.730 Y53.399 E0.86546
G1 X33.870 Y53.259 E0.87899
G1 X34.010 Y53.129 E0.89205
G1 X34.160 Y53.009 E0.90517
G1 X34.310 Y52.899 E0.91788
G1 X34.650 Y52.699 E0.94484
G1 X35.340 Y52.349 E0.99771
G1 X35.510 Y52.269 E1.01055
G1 X35.700 Y52.199 E1.02438
G1 X35.880 Y52.139 E1.03735
G1 X36.070 Y52.089 E1.05078
G1 X36.270 Y52.049 E1.06471
G1 X37.280 Y51.889 E1.13459
G1 X37.770 Y51.849 E1.16819
G1 X107.720 Y51.849 E5.94814
G1 X107.910 Y51.859 E5.96114
G1 X135.920 Y53.509 E7.87849
G1 X135.940 Y53.509 E7.87985
G1 X136.530 Y53.549 E7.92026
G1 X137.070 Y53.629 E7.95757
G1 X137.640 Y53.769 E7.99767
G1 X138.100 Y53.919 E8.03074
G1 X138.630 Y54.139 E8.06995
G1 X139.040 Y54.349 E8.10143
G1 X139.540 Y54.649 E8.14127
G1 X139.980 Y54.969 E8.17845
G1 X140.420 Y55.349 E8.21818
G1 X140.740 Y55.669 E8.24910
G1 X141.120 Y56.108 E8.28883
G1 X141.440 Y56.549 E8.32601
G1 X141.740 Y57.049 E8.36585
G1 X141.950 Y57.459 E8.39733
G1 X142.170 Y57.989 E8.43655
G1 X142.320 Y58.449 E8.46961
G1 X142.460 Y59.019 E8.50972
G1 X142.540 Y59.499 E8.54297
G1 X142.590 Y60.089 E8.58343
G1 X142.600 Y60.359 E8.60189
G1 X142.600 Y92.969 E10.83026
G1 X142.590 Y93.189 E10.84531
G1 X142.570 Y93.398 E10.85972
G1 X142.530 Y93.619 E10.87500
G1 X142.480 Y93.828 E10.88975
G1 X142.410 Y94.029 E10.90423
G1 X142.330 Y94.228 E10.91895
G1 X142.240 Y94.429 E10.93394
G1 X142.130 Y94.619 E10.94894
G1 X142.010 Y94.799 E10.96373
G1 X128.070 Y114.328 E12.60337
G1 X127.730 Y114.719 E12.63873
G1 X126.250 Y116.199 E12.78176
G1 X126.100 Y116.328 E12.79532
G1 X125.940 Y116.439 E12.80859
G1 X125.770 Y116.548 E12.82242
G1 X125.600 Y116.638 E12.83557
G1 X123.910 Y117.499 E12.96514
G1 X123.730 Y117.589 E12.97890
G1 X123.540 Y117.659 E12.99273
G1 X123.350 Y117.719 E13.00635
G1 X123.160 Y117.769 E13.01977
G1 X122.960 Y117.809 E13.03371
G1 X121.100 Y118.099 E13.16235
G1 X120.940 Y118.119 E13.17337
G1 X120.780 Y118.129 E13.18432
G1 X120.610 Y118.138 E13.19596
G1 X120.450 Y118.129 E13.20691
G1 X120.280 Y118.119 E13.21855
G1 X67.510 Y112.449 E16.84528
G1 X67.140 Y112.388 E16.87090
G1 X44.650 Y107.179 E18.44842
G1 X44.530 Y107.149 E18.45688
G1 X44.420 Y107.108 E18.46487
G1 X44.300 Y107.069 E18.47352
G1 X44.190 Y107.029 E18.48152
G1 X44.080 Y106.979 E18.48977
G1 X41.990 Y106.048 E18.64609
G1 X41.870 Y105.999 E18.65497
G1 X41.750 Y105.939 E18.66414
G1 X41.640 Y105.869 E18.67305
G1 X41.520 Y105.798 E18.68254
G1 X41.420 Y105.719 E18.69130
G1 X39.460 Y104.289 E18.85709
G1 X39.360 Y104.209 E18.86584
G1 X39.260 Y104.119 E18.87503
G1 X39.170 Y104.029 E18.88373
G1 X37.550 Y102.229 E19.04921
G1 X37.470 Y102.138 E19.05744
G1 X37.390 Y102.029 E19.06673
G1 X37.310 Y101.929 E19.07548
G1 X37.170 Y101.709 E19.09330
G1 X36.020 Y99.728 E19.24977
G1 X35.950 Y99.608 E19.25926
G1 X35.890 Y99.489 E19.26843
G1 X35.840 Y99.368 E19.27732
G1 X35.740 Y99.108 E19.29635
G1 X35.040 Y96.929 E19.45281
G1 X35.010 Y96.809 E19.46126
G1 X34.980 Y96.679 E19.47038
G1 X34.950 Y96.559 E19.47883
G1 X34.910 Y96.299 E19.49681
G1 X34.670 Y94.019 E19.65347
G1 X34.660 Y93.858 E19.66442
G1 X32.930 Y61.049 E21.90957
G1 X32.920 Y60.879 E21.92121
G1 X32.920 Y55.509 E22.28816
G1 X32.930 Y55.319 E22.30116
G1 X32.950 Y55.129 E22.31422
G1 X32.980 Y54.939 E22.32736
G1 X33.020 Y54.749 E22.34063
G1 X33.070 Y54.559 E22.35406
G1 X33.130 Y54.379 E22.36702
G1 X33.210 Y54.199 E22.38048
G1 X33.710 Y54.479 F10800.000
G1 X33.790 Y54.319 F1200.000 E22.39271
G1 X33.880 Y54.159 E22.40525
G1 X34.080 Y53.879 E22.42876
G1 X34.200 Y53.739 E22.44136
G1 X34.460 Y53.499 E22.46554
G1 X34.600 Y53.399 E22.47730
G1 X34.750 Y53.299 E22.48962
G1 X34.910 Y53.219 E22.50184
G1 X35.600 Y52.869 E22.55471
G1 X35.740 Y52.799 E22.56541
G1 X35.890 Y52.739 E22.57645
G1 X36.040 Y52.689 E22.58725
G1 X36.200 Y52.649 E22.59852
G1 X36.360 Y52.619 E22.60965
G1 X37.370 Y52.459 E22.67952
G1 X37.770 Y52.429 E22.70693
G1 X107.870 Y52.429 E27.49714
G1 X135.880 Y54.079 E29.41448
G1 X135.900 Y54.079 E29.41585
G1 X136.490 Y54.119 E29.45626
G1 X136.930 Y54.189 E29.48671
G1 X137.500 Y54.329 E29.52681
G1 X137.880 Y54.449 E29.55404
G1 X138.410 Y54.669 E29.59326
G1 X138.740 Y54.839 E29.61862
G1 X139.240 Y55.139 E29.65847
G1 X139.600 Y55.399 E29.68881
G1 X140.040 Y55.779 E29.72854
G1 X140.310 Y56.049 E29.75463
G1 X140.690 Y56.489 E29.79436
G1 X140.950 Y56.849 E29.82471
G1 X141.250 Y57.349 E29.86455
G1 X141.420 Y57.679 E29.88992
G1 X141.640 Y58.209 E29.92913
G1 X141.760 Y58.589 E29.95636
G1 X141.900 Y59.159 E29.99647
G1 X141.960 Y59.549 E30.02343
G1 X142.010 Y60.139 E30.06390
G1 X142.020 Y60.359 E30.07895
G1 X142.020 Y93.168 E32.32098
G1 X141.990 Y93.369 E32.33480
G1 X141.950 Y93.559 E32.34807
G1 X141.900 Y93.749 E32.36149
G1 X141.830 Y93.939 E32.37533
G1 X141.750 Y94.119 E32.38879
G1 X141.650 Y94.299 E32.40286
G1 X141.540 Y94.459 E32.41613
G1 X127.600 Y113.989 E34.05578
G1 X127.330 Y114.319 E34.08491
G1 X125.990 Y115.659 E34.21441
G1 X125.870 Y115.769 E34.22553
G1 X125.750 Y115.869 E34.23621
G1 X125.620 Y115.969 E34.24741
G1 X125.480 Y116.059 E34.25879
G1 X125.340 Y116.129 E34.26948
G1 X123.650 Y116.989 E34.39906
G1 X123.500 Y117.059 E34.41037
G1 X123.350 Y117.119 E34.42141
G1 X123.190 Y117.168 E34.43286
G1 X123.040 Y117.209 E34.44347
G1 X122.880 Y117.239 E34.45460
G1 X121.020 Y117.529 E34.58323
G1 X120.880 Y117.548 E34.59290
G1 X120.750 Y117.559 E34.60181
G1 X120.480 Y117.559 E34.62026
G1 X120.350 Y117.548 E34.62917
G1 X67.580 Y111.879 E38.25590
G1 X67.270 Y111.828 E38.27736
G1 X44.780 Y106.619 E39.85488
G1 X44.680 Y106.589 E39.86202
G1 X44.590 Y106.569 E39.86832
G1 X44.500 Y106.529 E39.87505
G1 X44.400 Y106.499 E39.88218
G1 X42.220 Y105.529 E40.04523
G1 X42.130 Y105.479 E40.05227
G1 X41.930 Y105.379 E40.06755
G1 X41.750 Y105.259 E40.08233
G1 X39.900 Y103.909 E40.23883
G1 X39.820 Y103.839 E40.24609
G1 X39.740 Y103.779 E40.25292
G1 X39.660 Y103.699 E40.26066
G1 X39.580 Y103.629 E40.26792
G1 X39.510 Y103.548 E40.27518
G1 X37.980 Y101.849 E40.43147
G1 X37.840 Y101.689 E40.44600
G1 X37.660 Y101.418 E40.46817
G1 X36.510 Y99.439 E40.62464
G1 X36.460 Y99.349 E40.63168
G1 X36.410 Y99.249 E40.63932
G1 X36.370 Y99.138 E40.64731
G1 X36.290 Y98.939 E40.66203
G1 X35.590 Y96.758 E40.81849
G1 X35.560 Y96.659 E40.82563
G1 X35.530 Y96.549 E40.83342
G1 X35.510 Y96.448 E40.84039
G1 X35.490 Y96.339 E40.84803
G1 X35.480 Y96.239 E40.85489
G1 X35.240 Y93.959 E41.01156
G1 X35.230 Y93.828 E41.02047
G1 X33.500 Y61.019 E43.26561
G1 X33.500 Y55.329 E43.65443
G1 X33.520 Y55.159 E43.66613
G1 X33.550 Y54.979 E43.67860
G1 X33.590 Y54.809 E43.69053
G1 X33.650 Y54.639 E43.70285
G1 X33.710 Y54.479 E43.71453
G1 F1800.000 E42.91453
G92 E0
G1 X62.026 Y59.199 F10800.000
G1 F1800.000 E0.80000
G1 X62.488 Y57.777 F1200.000 E0.90212
G1 X63.697 Y56.899 E1.00425
G1 X65.192 Y56.899 E1.10637
G1 X66.401 Y57.777 E1.20849
G1 X66.863 Y59.199 E1.31062
G1 X66.401 Y60.620 E1.41274
G1 X65.192 Y61.498 E1.51486
G1 X63.697 Y61.498 E1.61699
G1 X62.488 Y60.620 E1.71911
G1 X62.026 Y59.199 E1.82123
G1 X62.629 Y59.199 F10800.000
G1 X62.976 Y58.131 F1200.000 E1.89790
G1 X63.883 Y57.472 E1.97457
G1 X65.005 Y57.472 E2.05124
G1 X65.913 Y58.131 E2.12791
G1 X66.260 Y59.199 E2.20458
G1 X65.913 Y60.266 E2.28126
G1 X65.005 Y60.925 E2.35793
G1 X63.883 Y60.925 E2.43460
G1 X62.976 Y60.266 E2.51127
G1 X62.629 Y59.199 E2.58794
G1 F1800.000 E1.78794
G92 E0
G1 X75.726 Y59.199 F10800.000
G1 F1800.000 E0.80000
G1 X76.188 Y57.777 F1200.000 E0.90213
G1 X77.397 Y56.899 E1.00425
G1 X78.892 Y56.899 E1.10637
G1 X80.101 Y57.777 E1.20849
G1 X80.563 Y59.199 E1.31061
G1 X80.101 Y60.620 E1.41274
G1 X78.892 Y61.498 E1.51486
G1 X77.397 Y61.498 E1.61698
G1 X76.188 Y60.620 E1.71910
G1 X75.726 Y59.199 E1.82123
G1 X76.329 Y59.199 F10800.000
G1 X76.676 Y58.131 F1200.000 E1.89790
G1 X77.584 Y57.472 E1.97457
G1 X78.705 Y57.472 E2.05124
G1 X79.613 Y58.131 E2.12791
G1 X79.960 Y59.199 E2.20458
G1 X79.613 Y60.266 E2.28125
G1 X78.705 Y60.925 E2.35792
G1 X77.584 Y60.925 E2.43459
G1 X76.676 Y60.266 E2.51126
G1 X76.329 Y59.199 E2.58793
G1 F1800.000 E1.78793
G92 E0
G1 X87.294 Y64.548 F10800.000
G1 F1800.000 E0.80000
G1 X87.653 Y63.995 F1200.000 E0.84507
G1 X88.068 Y63.483 E0.89013
G1 X88.534 Y63.016 E0.93519
G1 X89.047 Y62.601 E0.98026
G1 X89.600 Y62.242 E1.02532
G1 X90.187 Y61.943 E1.07038
G1 X90.803 Y61.706 E1.11545
G1 X91.440 Y61.536 E1.16051
G1 X92.091 Y61.433 E1.20558
G1 X92.742 Y61.398 E1.25011
G1 X102.658 Y61.398 E1.92768
G1 X100.668 Y65.221 E2.22214
G1 X100.787 Y65.287 E2.23145
G1 X100.049 Y66.734 E2.34251
G1 X99.941 Y67.076 E2.36699
G1 X95.541 Y77.698 E3.15267
G1 X86.450 Y77.698 E3.77390
G1 X86.450 Y67.691 E4.45777
G1 X86.484 Y67.040 E4.50230
G1 X86.587 Y66.389 E4.54736
G1 X86.758 Y65.752 E4.59243
G1 X86.994 Y65.136 E4.63749
G1 X87.294 Y64.548 E4.68256
G1 X87.774 Y64.236 F10800.000
G1 F1800.000 E3.88256
G92 E0
G1 X91.968 Y92.170 F10800.000
G1 F1800.000 E0.80000
G1 X95.027 Y92.170 F1200.000 E1.00904
G1 X96.492 Y92.461 E1.11112
G1 X97.759 Y93.308 E1.21526
G1 X98.506 Y94.426 E1.30711
G1 X98.571 Y94.402 E1.31186
G1 X98.903 Y96.070 E1.42806
G1 X98.606 Y97.565 E1.53220
G1 X97.759 Y98.832 E1.63634
G1 X96.492 Y99.678 E1.74049
G1 X95.027 Y99.970 E1.84256
G1 X91.968 Y99.970 E2.05160
G1 X90.502 Y99.678 E2.15369
G1 X89.235 Y98.832 E2.25783
G1 X88.389 Y97.565 E2.36197
G1 X88.091 Y96.070 E2.46611
G1 X88.389 Y94.575 E2.57025
G1 X89.235 Y93.308 E2.67439
G1 X90.502 Y92.461 E2.77853
G1 X91.968 Y92.170 E2.88061
G1 F1800.000 E2.08061
G92 E0
G1 X37.217 Y56.247 F10800.000
G1 F1800.000 E0.80000
G1 X37.864 Y56.145 F1200.000 E0.84474
G1 X63.294 Y56.145 E2.58249
G1 X63.383 Y56.419 E2.60216
G1 X62.001 Y57.423 E2.71892
G1 X61.424 Y59.199 E2.84650
G1 X62.001 Y60.974 E2.97408
G1 X63.511 Y62.071 E3.10165
G1 X65.378 Y62.071 E3.22923
G1 X66.888 Y60.974 E3.35680
G1 X67.465 Y59.199 E3.48438
G1 X66.888 Y57.423 E3.61196
G1 X65.506 Y56.419 E3.72872
G1 X65.595 Y56.145 E3.74839
G1 X76.994 Y56.145 E4.52735
G1 X77.083 Y56.419 E4.54702
G1 X75.701 Y57.423 E4.66378
G1 X75.124 Y59.199 E4.79136
G1 X75.701 Y60.974 E4.91894
G1 X77.211 Y62.071 E5.04651
G1 X79.078 Y62.071 E5.17409
G1 X80.588 Y60.974 E5.30166
G1 X81.165 Y59.199 E5.42924
G1 X80.588 Y57.423 E5.55682
G1 X79.206 Y56.419 E5.67358
G1 X79.295 Y56.145 E5.69325
G1 X107.636 Y56.145 E7.62992
G1 X108.379 Y56.263 E7.68132
G1 X108.515 Y56.332 E7.69172
G1 X108.515 Y56.332 E7.69172
G1 X108.946 Y56.552 E7.72484
G1 X109.397 Y57.002 E7.76835
G1 X109.483 Y57.171 E7.78131
G1 X109.483 Y57.171 E7.78133
G1 X109.686 Y57.569 E7.81188
G1 X109.864 Y58.691 E7.88949
G1 X110.025 Y62.386 E8.14219
G1 X110.216 Y63.836 E8.24214
G1 X108.021 Y63.399 E8.39506
G1 X104.736 Y63.399 E8.61952
G1 X102.930 Y63.759 E8.74539
G1 X102.807 Y63.595 E8.75938
G1 X104.547 Y60.252 E9.01689
G1 X92.712 Y60.252 E9.82560
G1 X91.971 Y60.291 E9.87630
G1 X91.201 Y60.413 E9.92958
G1 X90.448 Y60.615 E9.98285
G1 X89.720 Y60.894 E10.03615
G1 X89.026 Y61.248 E10.08942
G1 X88.372 Y61.673 E10.14267
G1 X87.766 Y62.163 E10.19594
G1 X87.215 Y62.715 E10.24922
G1 X86.724 Y63.320 E10.30249
G1 X86.300 Y63.974 E10.35577
G1 X85.946 Y64.669 E10.40905
G1 X85.666 Y65.397 E10.46232
G1 X85.464 Y66.150 E10.51559
G1 X85.343 Y66.920 E10.56887
G1 X85.304 Y67.661 E10.61955
G1 X85.304 Y78.845 E11.38382
G1 X96.307 Y78.845 E12.13572
G1 X99.882 Y70.215 E12.77405
G1 X100.063 Y70.197 E12.78646
G1 X101.290 Y72.034 E12.93745
G1 X102.937 Y73.134 E13.07275
G1 X104.736 Y73.492 E13.19813
G1 X106.534 Y73.492 E13.32096
G1 X106.624 Y73.749 E13.33957
G1 X104.728 Y75.261 E13.50528
G1 X103.197 Y76.755 E13.65140
G1 X101.823 Y78.392 E13.79749
G1 X100.618 Y80.159 E13.94360
G1 X99.596 Y82.036 E14.08969
G1 X98.765 Y84.007 E14.23583
G1 X98.135 Y86.050 E14.38195
G1 X97.711 Y88.146 E14.52805
G1 X97.499 Y90.274 E14.67417
G1 X97.499 Y91.563 E14.76227
G1 X97.339 Y91.648 E14.77468
G1 X96.939 Y91.382 E14.80750
G1 X95.140 Y91.024 E14.93287
G1 X91.855 Y91.024 E15.15735
G1 X90.055 Y91.382 E15.28273
G1 X88.409 Y92.482 E15.41803
G1 X87.309 Y94.128 E15.55334
G1 X86.923 Y96.070 E15.68863
G1 X87.309 Y98.012 E15.82394
G1 X88.409 Y99.658 E15.95924
G1 X90.055 Y100.758 E16.09455
G1 X91.855 Y101.116 E16.21993
G1 X95.140 Y101.116 E16.44440
G1 X96.939 Y100.758 E16.56977
G1 X98.586 Y99.658 E16.70508
G1 X99.686 Y98.012 E16.84038
G1 X99.794 Y97.467 E16.87833
G1 X99.964 Y97.414 E16.89053
G1 X101.702 Y99.110 E17.05642
G1 X103.374 Y100.443 E17.20256
G1 X105.170 Y101.604 E17.34868
G1 X107.072 Y102.578 E17.49476
G1 X109.063 Y103.360 E17.64087
G1 X111.122 Y103.939 E17.78705
G1 X113.227 Y104.310 E17.93312
G1 X115.359 Y104.470 E18.07921
G1 X116.889 Y104.432 E18.18381
G1 X116.983 Y104.728 E18.20505
G1 X116.033 Y105.363 E18.28314
G1 X114.933 Y107.009 E18.41844
G1 X114.547 Y108.951 E18.55374
G1 X114.933 Y110.893 E18.68905
G1 X115.961 Y112.431 E18.81546
G1 X115.798 Y112.649 E18.83400
G1 X112.814 Y111.707 E19.04782
G1 X104.173 Y109.792 E19.65259
G1 X95.399 Y108.637 E20.25733
G1 X88.187 Y108.322 E20.75062
G1 X88.187 Y108.252 E20.75539
G1 X68.807 Y108.252 E22.07973
G1 X68.038 Y108.192 E22.13241
G1 X67.344 Y108.025 E22.18119
G1 X66.685 Y107.752 E22.22997
G1 X66.076 Y107.379 E22.27875
G1 X65.533 Y106.915 E22.32753
G1 X65.070 Y106.372 E22.37631
G1 X64.697 Y105.764 E22.42509
G1 X64.423 Y105.104 E22.47387
G1 X64.257 Y104.410 E22.52265
G1 X64.196 Y103.642 E22.57532
G1 X64.196 Y97.663 E22.98384
G1 X64.415 Y97.573 E23.00000
G1 X65.014 Y98.172 E23.05792
G1 X66.051 Y99.012 E23.14910
G1 X67.170 Y99.739 E23.24029
G1 X68.359 Y100.345 E23.33149
G1 X69.605 Y100.823 E23.42266
G1 X70.894 Y101.168 E23.51384
G1 X72.212 Y101.377 E23.60503
G1 X73.545 Y101.447 E23.69621
G1 X74.877 Y101.377 E23.78740
G1 X76.195 Y101.168 E23.87859
G1 X77.484 Y100.823 E23.96976
G1 X78.730 Y100.345 E24.06096
G1 X79.919 Y99.739 E24.15213
G1 X81.038 Y99.012 E24.24332
G1 X82.075 Y98.172 E24.33450
G1 X83.018 Y97.229 E24.42568
G1 X83.858 Y96.192 E24.51687
G1 X84.585 Y95.073 E24.60805
G1 X85.191 Y93.884 E24.69925
G1 X85.669 Y92.638 E24.79042
G1 X86.014 Y91.349 E24.88161
G1 X86.223 Y90.031 E24.97279
G1 X86.293 Y88.698 E25.06398
G1 X86.223 Y87.366 E25.15516
G1 X86.014 Y86.048 E25.24634
G1 X85.669 Y84.759 E25.33753
G1 X85.191 Y83.513 E25.42871
G1 X84.585 Y82.324 E25.51990
G1 X83.858 Y81.205 E25.61109
G1 X83.018 Y80.168 E25.70227
G1 X82.075 Y79.225 E25.79345
G1 X81.038 Y78.385 E25.88464
G1 X79.919 Y77.658 E25.97582
G1 X78.730 Y77.052 E26.06701
G1 X77.484 Y76.574 E26.15818
G1 X76.195 Y76.229 E26.24936
G1 X74.877 Y76.020 E26.34056
G1 X73.545 Y75.950 E26.43174
G1 X72.212 Y76.020 E26.52292
G1 X70.894 Y76.229 E26.61411
G1 X69.605 Y76.574 E26.70529
G1 X68.359 Y77.052 E26.79647
G1 X67.170 Y77.658 E26.88766
G1 X66.051 Y78.385 E26.97885
G1 X65.014 Y79.225 E27.07003
G1 X64.415 Y79.824 E27.12796
G1 X64.196 Y79.734 E27.14411
G1 X64.196 Y67.661 E27.96911
G1 X64.158 Y66.920 E28.01980
G1 X64.036 Y66.150 E28.07306
G1 X63.834 Y65.397 E28.12635
G1 X63.554 Y64.669 E28.17962
G1 X63.200 Y63.974 E28.23291
