; generated by Slic3r 0.9.5 on 2012-11-30 at 21:58:35

; layer_height = 0.33
; perimeters = 3
; top_solid_layers = 3
; bottom_solid_layers = 3
; fill_density = 0.26
; perimeter_speed = 50
; infill_speed = 70
; travel_speed = 130
; scale = 1
; nozzle_diameter = 0.35
; filament_diameter = 1.73
; extrusion_multiplier = 1
; perimeters extrusion width = 0.37mm
; infill extrusion width = 0.37mm
; first layer extrusion width = 0.70mm

G28 ; home all axes
G90 ; use absolute coordinates
G21 ; set units to millimeters
G92 E0
M82 ; use absolute distances for extrusion
G1 F1800.000 E-0.80000
G92 E0
G1 Z0.350 F7800.000
G1 X31.243 Y59.422
G1 F1800.000 E0.80000
G1 X31.343 Y59.183 F900.000 E0.82419
G1 X31.453 Y58.933 E0.84960
G1 X31.573 Y58.693 E0.87457
G1 X39.573 Y44.143 E2.41950
G1 X39.833 Y43.723 E2.46546
G1 X39.983 Y43.523 E2.48872
G1 X40.133 Y43.333 E2.51125
G1 X40.293 Y43.143 E2.53436
G1 X40.463 Y42.963 E2.55740
G1 X40.643 Y42.793 E2.58043
G1 X40.823 Y42.633 E2.60284
G1 X41.023 Y42.473 E2.62667
G1 X41.423 Y42.193 E2.67210
G1 X41.643 Y42.063 E2.69588
G1 X42.083 Y41.843 E2.74165
G1 X42.543 Y41.663 E2.78761
G1 X42.783 Y41.593 E2.81087
G1 X43.013 Y41.533 E2.83299
G1 X43.263 Y41.483 E2.85671
G1 X43.503 Y41.443 E2.87935
G1 X43.753 Y41.413 E2.90278
G1 X43.993 Y41.393 E2.92518
G1 X123.983 Y41.393 E10.36779
G1 X124.223 Y41.413 E10.39019
G1 X124.453 Y41.433 E10.41167
G1 X124.693 Y41.473 E10.43431
G1 X124.923 Y41.523 E10.45621
G1 X125.163 Y41.583 E10.47923
G1 X125.393 Y41.653 E10.50160
G1 X125.613 Y41.723 E10.52308
G1 X125.833 Y41.813 E10.54520
G1 X126.053 Y41.913 E10.56768
G1 X126.263 Y42.023 E10.58974
G1 X126.473 Y42.143 E10.61224
G1 X126.873 Y42.403 E10.65663
G1 X127.063 Y42.553 E10.67916
G1 X127.243 Y42.703 E10.70096
G1 X127.423 Y42.863 E10.72337
G1 X127.593 Y43.033 E10.74574
G1 X127.753 Y43.213 E10.76814
G1 X127.903 Y43.393 E10.78994
G1 X128.053 Y43.583 E10.81247
G1 X128.313 Y43.983 E10.85686
G1 X128.433 Y44.193 E10.87936
G1 X128.543 Y44.403 E10.90142
G1 X128.643 Y44.623 E10.92390
G1 X128.733 Y44.843 E10.94602
G1 X128.803 Y45.063 E10.96750
G1 X128.873 Y45.293 E10.98987
G1 X128.933 Y45.533 E11.01289
G1 X128.983 Y45.763 E11.03479
G1 X129.023 Y46.003 E11.05743
G1 X129.043 Y46.233 E11.07891
G1 X129.063 Y46.473 E11.10132
G1 X129.063 Y68.363 E13.13805
G1 X129.003 Y69.633 E13.25635
G1 X128.883 Y70.532 E13.34083
G1 X115.753 Y129.993 E19.00652
G1 X115.563 Y130.643 E19.06953
G1 X114.933 Y132.393 E19.24258
G1 X114.833 Y132.643 E19.26764
G1 X114.723 Y132.893 E19.29305
G1 X114.603 Y133.132 E19.31801
G1 X114.473 Y133.363 E19.34260
G1 X114.323 Y133.593 E19.36815
G1 X114.173 Y133.803 E19.39216
G1 X114.003 Y134.012 E19.41730
G1 X112.803 Y135.443 E19.59099
G1 X112.623 Y135.643 E19.61603
G1 X112.443 Y135.833 E19.64038
G1 X112.243 Y136.023 E19.66605
G1 X112.033 Y136.193 E19.69118
G1 X111.823 Y136.352 E19.71575
G1 X111.603 Y136.503 E19.74052
G1 X111.373 Y136.643 E19.76558
G1 X109.753 Y137.572 E19.93938
G1 X109.523 Y137.693 E19.96352
G1 X109.283 Y137.813 E19.98848
G1 X109.043 Y137.912 E20.01268
G1 X108.793 Y138.003 E20.03740
G1 X108.533 Y138.083 E20.06271
G1 X108.283 Y138.143 E20.08663
G1 X108.023 Y138.202 E20.11146
G1 X106.193 Y138.523 E20.28431
G1 X105.273 Y138.593 E20.37016
G1 X62.723 Y138.593 E24.32919
G1 X61.813 Y138.523 E24.41411
G1 X59.973 Y138.202 E24.58788
G1 X59.453 Y138.083 E24.63753
G1 X59.193 Y138.003 E24.66285
G1 X58.943 Y137.912 E24.68757
G1 X58.693 Y137.803 E24.71298
G1 X58.453 Y137.693 E24.73755
G1 X58.223 Y137.563 E24.76213
G1 X56.613 Y136.632 E24.93512
G1 X56.383 Y136.493 E24.96018
G1 X56.163 Y136.343 E24.98495
G1 X55.953 Y136.183 E25.00952
G1 X55.753 Y136.012 E25.03394
G1 X55.553 Y135.833 E25.05898
G1 X55.373 Y135.643 E25.08333
G1 X55.193 Y135.443 E25.10836
G1 X53.993 Y134.012 E25.28206
G1 X53.933 Y133.943 E25.29063
G1 X32.103 Y106.912 E28.52339
G1 X31.943 Y106.703 E28.54796
G1 X31.793 Y106.493 E28.57197
G1 X31.663 Y106.273 E28.59575
G1 X31.533 Y106.043 E28.62033
G1 X31.413 Y105.813 E28.64447
G1 X31.313 Y105.583 E28.66780
G1 X31.223 Y105.333 E28.69252
G1 X31.143 Y105.093 E28.71606
G1 X31.073 Y104.843 E28.74022
G1 X31.023 Y104.593 E28.76394
G1 X30.973 Y104.333 E28.78857
G1 X30.943 Y104.083 E28.81200
G1 X30.923 Y103.823 E28.83626
G1 X30.923 Y60.993 E32.82135
G1 X30.943 Y60.733 E32.84561
G1 X30.983 Y60.463 E32.87100
G1 X31.023 Y60.203 E32.89548
G1 X31.083 Y59.943 E32.92031
G1 X31.243 Y59.422 E32.97093
G1 X31.843 Y59.733 F7800.000
G1 X31.933 Y59.483 F900.000 E32.99565
G1 X32.043 Y59.253 E33.01937
G1 X32.153 Y59.013 E33.04394
G1 X40.153 Y44.463 E34.58887
G1 X40.393 Y44.083 E34.63069
G1 X40.523 Y43.893 E34.65211
G1 X40.663 Y43.723 E34.67260
G1 X40.813 Y43.553 E34.69369
G1 X40.973 Y43.383 E34.71542
G1 X41.313 Y43.083 E34.75760
G1 X41.673 Y42.823 E34.79892
G1 X41.873 Y42.703 E34.82062
G1 X42.063 Y42.593 E34.84105
G1 X42.273 Y42.493 E34.86269
G1 X42.473 Y42.393 E34.88350
G1 X42.693 Y42.313 E34.90528
G1 X42.903 Y42.243 E34.92588
G1 X43.123 Y42.183 E34.94709
G1 X43.563 Y42.103 E34.98870
G1 X43.793 Y42.073 E35.01029
G1 X44.013 Y42.053 E35.03084
G1 X123.973 Y42.053 E42.47065
G1 X124.203 Y42.073 E42.49213
G1 X124.423 Y42.103 E42.51279
G1 X124.653 Y42.143 E42.53451
G1 X124.873 Y42.193 E42.55550
G1 X125.093 Y42.253 E42.57672
G1 X125.313 Y42.323 E42.59820
G1 X125.523 Y42.403 E42.61911
G1 X125.943 Y42.603 E42.66239
G1 X126.143 Y42.713 E42.68363
G1 X126.333 Y42.833 E42.70454
G1 X126.523 Y42.973 E42.72650
G1 X126.703 Y43.113 E42.74772
G1 X127.043 Y43.413 E42.78991
G1 X127.343 Y43.753 E42.83209
G1 X127.483 Y43.933 E42.85331
G1 X127.623 Y44.123 E42.87527
G1 X127.743 Y44.313 E42.89618
G1 X127.853 Y44.513 E42.91742
G1 X128.053 Y44.933 E42.96070
G1 X128.133 Y45.143 E42.98161
G1 X128.203 Y45.363 E43.00309
G1 X128.263 Y45.583 E43.02431
G1 X128.313 Y45.803 E43.04530
G1 X128.353 Y46.033 E43.06702
G1 X128.383 Y46.253 E43.08768
G1 X128.403 Y46.483 E43.10916
G1 X128.403 Y68.333 E45.14218
G1 X128.343 Y69.603 E45.26047
G1 X128.233 Y70.392 E45.33469
G1 X115.103 Y129.852 E51.00037
G1 X114.943 Y130.423 E51.05546
G1 X114.313 Y132.173 E51.22852
G1 X114.213 Y132.423 E51.25357
G1 X114.093 Y132.673 E51.27937
G1 X113.963 Y132.912 E51.30477
G1 X113.823 Y133.153 E51.33062
G1 X113.663 Y133.373 E51.35593
G1 X113.493 Y133.593 E51.38180
G1 X112.293 Y135.023 E51.55549
G1 X112.113 Y135.223 E51.58053
G1 X111.923 Y135.412 E51.60553
G1 X111.713 Y135.602 E51.63188
G1 X111.503 Y135.762 E51.65644
G1 X111.273 Y135.923 E51.68251
G1 X111.043 Y136.063 E51.70756
G1 X109.423 Y136.993 E51.88137
G1 X109.183 Y137.123 E51.90676
G1 X108.943 Y137.243 E51.93173
G1 X108.693 Y137.333 E51.95645
G1 X108.433 Y137.423 E51.98205
G1 X108.173 Y137.493 E52.00711
G1 X107.903 Y137.542 E52.03265
G1 X106.073 Y137.863 E52.20551
G1 X105.273 Y137.933 E52.28023
G1 X62.723 Y137.933 E56.23926
G1 X61.923 Y137.863 E56.31398
G1 X60.083 Y137.542 E56.48775
G1 X59.813 Y137.493 E56.51330
G1 X59.553 Y137.423 E56.53835
G1 X59.293 Y137.333 E56.56395
G1 X59.043 Y137.232 E56.58900
G1 X58.793 Y137.123 E56.61442
G1 X58.553 Y136.993 E56.63981
G1 X56.943 Y136.063 E56.81281
G1 X56.713 Y135.912 E56.83836
G1 X56.493 Y135.762 E56.86313
G1 X56.273 Y135.593 E56.88900
G1 X56.073 Y135.412 E56.91404
G1 X55.883 Y135.223 E56.93904
G1 X55.703 Y135.023 E56.96407
G1 X54.503 Y133.593 E57.13777
G1 X54.443 Y133.523 E57.14635
G1 X32.613 Y106.493 E60.37910
G1 X32.463 Y106.303 E60.40163
G1 X32.333 Y106.102 E60.42382
G1 X32.203 Y105.893 E60.44680
G1 X32.083 Y105.673 E60.47012
G1 X31.983 Y105.453 E60.49260
G1 X31.893 Y105.233 E60.51472
G1 X31.803 Y105.003 E60.53770
G1 X31.743 Y104.763 E60.56072
G1 X31.683 Y104.533 E60.58284
G1 X31.633 Y104.293 E60.60565
G1 X31.603 Y104.053 E60.62815
G1 X31.583 Y103.803 E60.65149
G1 X31.583 Y61.003 E64.63377
G1 X31.643 Y60.483 E64.68248
G1 X31.693 Y60.233 E64.70620
G1 X31.763 Y59.973 E64.73125
G1 X31.843 Y59.733 E64.75479
G1 F1800.000 E63.95479
G92 E0
G1 X111.095 Y62.847 F7800.000
G1 F1800.000 E0.80000
G1 X118.445 Y62.847 F900.000 E1.48385
G1 X118.445 Y68.506 E2.01041
G1 X111.095 Y68.506 E2.69426
G1 X111.095 Y62.847 E3.22081
G1 X111.758 Y63.510 F7800.000
G1 X117.782 Y63.510 F900.000 E3.78140
G1 X117.782 Y67.844 E4.18468
G1 X111.758 Y67.844 E4.74526
G1 X111.758 Y63.510 E5.14854
G1 X112.420 Y64.172 F7800.000
G1 X117.120 Y64.172 F900.000 E5.58584
G1 X117.120 Y67.181 E5.86585
G1 X112.420 Y67.181 E6.30316
G1 X112.420 Y64.172 E6.58317
G1 F1800.000 E5.78317
G92 E0
G1 X108.824 Y69.174 F7800.000
G1 F1800.000 E0.80000
G1 X110.181 Y70.098 F900.000 E0.95276
G1 X111.081 Y71.471 E1.10552
G1 X111.387 Y73.084 E1.25829
G1 X111.053 Y74.691 E1.41100
G1 X110.129 Y76.049 E1.56379
G1 X108.756 Y76.949 E1.71654
G1 X107.143 Y77.255 E1.86929
G1 X105.913 Y76.999 E1.98616
G1 X106.381 Y79.199 E2.19544
G1 X107.390 Y78.525 E2.30833
G1 X109.000 Y78.205 E2.46109
G1 X110.610 Y78.525 E2.61385
G1 X111.975 Y79.437 E2.76660
G1 X112.887 Y80.802 E2.91936
G1 X113.046 Y81.602 E2.99523
G1 X113.369 Y81.602 E3.02523
G1 X113.206 Y82.423 E3.10311
G1 X113.206 Y82.423 E3.10311
G1 X112.887 Y84.023 E3.25486
G1 X111.975 Y85.388 E3.40762
G1 X110.610 Y86.300 E3.56039
G1 X109.000 Y86.620 E3.71314
G1 X107.390 Y86.300 E3.86589
G1 X106.381 Y85.626 E3.97880
G1 X105.913 Y87.826 E4.18808
G1 X107.143 Y87.570 E4.30495
G1 X108.756 Y87.876 E4.45769
G1 X109.389 Y88.291 E4.52810
G1 X109.389 Y88.291 E4.52810
G1 X110.129 Y88.777 E4.61046
G1 X111.053 Y90.133 E4.76319
G1 X111.387 Y91.741 E4.91599
G1 X111.081 Y93.354 E5.06873
G1 X110.181 Y94.727 E5.22149
G1 X108.824 Y95.651 E5.37424
G1 X107.216 Y95.985 E5.52700
G1 X105.603 Y95.679 E5.67975
G1 X104.230 Y94.779 E5.83250
G1 X103.587 Y93.834 E5.93884
G1 X100.533 Y98.037 E6.42225
G1 X94.175 Y98.037 E7.01387
G1 X94.175 Y101.978 E7.38050
G1 X86.825 Y101.978 E8.06436
G1 X86.825 Y98.037 E8.43099
G1 X81.175 Y98.037 E8.95671
G1 X81.175 Y101.978 E9.32335
G1 X73.825 Y101.978 E10.00720
G1 X73.825 Y98.037 E10.37384
G1 X67.467 Y98.037 E10.96545
G1 X64.413 Y93.834 E11.44886
G1 X63.770 Y94.779 E11.55520
G1 X62.397 Y95.679 E11.70796
G1 X60.784 Y95.985 E11.86071
G1 X59.176 Y95.651 E12.01347
G1 X57.819 Y94.727 E12.16621
G1 X56.919 Y93.354 E12.31898
G1 X56.613 Y91.741 E12.47174
G1 X56.947 Y90.134 E12.62449
G1 X57.871 Y88.777 E12.77725
G1 X59.244 Y87.876 E12.93001
G1 X60.857 Y87.570 E13.08276
G1 X62.087 Y87.826 E13.19963
G1 X61.619 Y85.626 E13.40891
G1 X60.610 Y86.300 E13.52181
G1 X59.000 Y86.620 E13.67456
G1 X57.390 Y86.300 E13.82731
G1 X56.025 Y85.388 E13.98008
G1 X55.113 Y84.023 E14.13283
G1 X54.792 Y82.413 E14.28559
G1 X55.113 Y80.802 E14.43834
G1 X56.025 Y79.437 E14.59111
G1 X57.390 Y78.525 E14.74386
G1 X59.000 Y78.205 E14.89662
G1 X60.610 Y78.525 E15.04938
G1 X61.619 Y79.199 E15.16227
G1 X62.087 Y76.999 E15.37155
G1 X60.857 Y77.255 E15.48842
G1 X59.244 Y76.949 E15.64116
G1 X57.871 Y76.049 E15.79393
G1 X56.947 Y74.691 E15.94669
G1 X56.613 Y73.084 E16.09945
G1 X56.919 Y71.471 E16.25220
G1 X57.819 Y70.098 E16.40497
G1 X59.176 Y69.174 E16.55771
G1 X60.784 Y68.840 E16.71046
G1 X62.397 Y69.146 E16.86322
G1 X63.770 Y70.046 E17.01598
G1 X64.413 Y70.991 E17.12232
G1 X67.467 Y66.788 E17.60572
G1 X73.325 Y66.788 E18.15082
G1 X73.325 Y62.526 E18.54735
G1 X74.773 Y61.690 E18.70296
G1 X79.284 Y60.224 E19.14421
G1 X84.000 Y59.728 E19.58545
G1 X88.716 Y60.224 E20.02669
G1 X88.883 Y60.278 E20.04302
G1 X88.883 Y60.278 E20.04302
G1 X93.227 Y61.690 E20.46795
G1 X94.675 Y62.526 E20.62356
G1 X94.675 Y66.788 E21.02008
G1 X100.533 Y66.788 E21.56518
G1 X103.587 Y70.991 E22.04859
G1 X104.230 Y70.046 E22.15492
G1 X105.604 Y69.146 E22.30769
G1 X107.216 Y68.840 E22.46044
G1 X108.824 Y69.174 E22.61320
G1 X108.560 Y69.796 F7800.000
G1 X109.699 Y70.572 F900.000 E22.74144
G1 X110.455 Y71.724 E22.86967
G1 X110.712 Y73.078 E22.99792
G1 X110.431 Y74.427 E23.12613
G1 X109.655 Y75.567 E23.25438
G1 X108.503 Y76.322 E23.38262
G1 X107.149 Y76.579 E23.51085
G1 X105.799 Y76.299 E23.63908
G1 X105.278 Y75.944 E23.69775
G1 X105.045 Y76.101 E23.72389
G1 X105.940 Y80.311 E24.12439
G1 X106.204 Y80.362 E24.14938
G1 X106.502 Y79.915 E24.19938
G1 X107.648 Y79.149 E24.32761
G1 X109.000 Y78.880 E24.45585
G1 X110.352 Y79.149 E24.58408
G1 X111.498 Y79.915 E24.71232
G1 X112.263 Y81.061 E24.84055
G1 X112.503 Y82.265 E24.95475
G1 X112.562 Y82.265 E24.96023
G1 X112.532 Y82.412 E24.97427
G1 X112.532 Y82.413 E24.97427
G1 X112.263 Y83.764 E25.10250
G1 X111.498 Y84.910 E25.23074
G1 X110.352 Y85.676 E25.35898
G1 X109.000 Y85.945 E25.48721
G1 X107.648 Y85.676 E25.61545
G1 X106.502 Y84.910 E25.74369
G1 X106.204 Y84.463 E25.79368
G1 X105.940 Y84.514 E25.81868
G1 X105.045 Y88.724 E26.21917
G1 X105.278 Y88.881 E26.24531
G1 X105.800 Y88.526 E26.30398
G1 X107.149 Y88.246 E26.43221
G1 X108.503 Y88.503 E26.56044
G1 X109.655 Y89.258 E26.68869
G1 X110.431 Y90.397 E26.81691
G1 X110.712 Y91.747 E26.94517
G1 X110.455 Y93.101 E27.07339
G1 X109.699 Y94.254 E27.20164
G1 X108.560 Y95.029 E27.32987
G1 X107.210 Y95.310 E27.45810
G1 X105.856 Y95.053 E27.58633
G1 X104.704 Y94.297 E27.71456
G1 X103.928 Y93.158 E27.84282
G1 X103.803 Y92.554 E27.90017
G1 X103.470 Y92.519 E27.93127
G1 X103.068 Y93.422 E28.02323
G1 X100.196 Y97.375 E28.47792
G1 X93.512 Y97.375 E29.09976
G1 X93.512 Y101.315 E29.46640
G1 X87.488 Y101.315 E30.02698
G1 X87.488 Y97.375 E30.39361
G1 X80.512 Y97.375 E31.04261
G1 X80.512 Y101.315 E31.40924
G1 X74.488 Y101.315 E31.96982
G1 X74.488 Y97.375 E32.33646
G1 X67.804 Y97.375 E32.95830
G1 X64.932 Y93.422 E33.41298
G1 X64.530 Y92.519 E33.50494
G1 X64.197 Y92.554 E33.53605
G1 X64.072 Y93.158 E33.59341
G1 X63.296 Y94.297 E33.72165
G1 X62.144 Y95.053 E33.84988
G1 X60.790 Y95.310 E33.97812
G1 X59.440 Y95.029 E34.10636
G1 X58.301 Y94.253 E34.23458
G1 X57.545 Y93.101 E34.36282
G1 X57.288 Y91.747 E34.49106
G1 X57.569 Y90.398 E34.61929
G1 X58.345 Y89.258 E34.74753
G1 X59.497 Y88.503 E34.87577
G1 X60.851 Y88.246 E35.00400
G1 X62.200 Y88.526 E35.13224
G1 X62.722 Y88.881 E35.19091
G1 X62.955 Y88.724 E35.21705
G1 X62.060 Y84.514 E35.61754
G1 X61.796 Y84.463 E35.64254
G1 X61.498 Y84.910 E35.69253
G1 X60.352 Y85.676 E35.82077
G1 X59.000 Y85.945 E35.94901
G1 X57.648 Y85.676 E36.07724
G1 X56.502 Y84.910 E36.20548
G1 X55.737 Y83.764 E36.33372
G1 X55.468 Y82.413 E36.46195
G1 X55.737 Y81.061 E36.59018
G1 X56.502 Y79.915 E36.71842
G1 X57.648 Y79.149 E36.84666
G1 X59.000 Y78.880 E36.97490
G1 X60.352 Y79.149 E37.10313
G1 X61.498 Y79.915 E37.23137
G1 X61.796 Y80.362 E37.28136
G1 X62.060 Y80.311 E37.30636
G1 X62.955 Y76.101 E37.70685
G1 X62.722 Y75.944 E37.73300
G1 X62.201 Y76.299 E37.79166
G1 X60.851 Y76.579 E37.91990
G1 X59.497 Y76.322 E38.04812
G1 X58.345 Y75.567 E38.17637
G1 X57.569 Y74.427 E38.30461
G1 X57.288 Y73.078 E38.43284
G1 X57.545 Y71.724 E38.56108
G1 X58.301 Y70.572 E38.68932
G1 X59.440 Y69.796 E38.81754
G1 X60.790 Y69.515 E38.94578
G1 X62.144 Y69.772 E39.07402
G1 X63.296 Y70.528 E39.20226
G1 X64.072 Y71.667 E39.33050
G1 X64.197 Y72.271 E39.38785
G1 X64.530 Y72.306 E39.41896
G1 X64.932 Y71.403 E39.51092
G1 X67.804 Y67.450 E39.96559
G1 X73.988 Y67.450 E40.54093
G1 X73.988 Y62.908 E40.96351
G1 X75.044 Y62.298 E41.07705
G1 X79.422 Y60.876 E41.50535
G1 X84.000 Y60.394 E41.93363
G1 X88.578 Y60.876 E42.36192
G1 X92.956 Y62.298 E42.79021
G1 X94.012 Y62.908 E42.90376
G1 X94.012 Y67.450 E43.32634
G1 X100.196 Y67.450 E43.90167
G1 X103.068 Y71.403 E44.35634
G1 X103.470 Y72.306 E44.44830
G1 X103.802 Y72.271 E44.47940
G1 X103.928 Y71.667 E44.53677
G1 X104.704 Y70.528 E44.66499
G1 X105.856 Y69.772 E44.79324
G1 X107.210 Y69.515 E44.92146
G1 X108.560 Y69.796 E45.04970
G1 X108.296 Y70.418 F7800.000
G1 X109.217 Y71.045 F900.000 E45.15342
G1 X109.828 Y71.977 E45.25714
G1 X110.036 Y73.072 E45.36086
