; generated by Slic3r 0.8.4 on 2012-11-07 at 16:27:37

; layer_height = .3
; perimeters = 3
; solid_layers = 3
; fill_density = .2
; nozzle_diameter = 0.34
; filament_diameter = 1.73
; extrusion_multiplier = 1
; perimeter_speed = 70
; infill_speed = 70
; travel_speed = 150
; scale = 1
; single wall width = 0.36mm

G28 ; home all axes
M106; Turn on fans
G90 ; use absolute coordinates
G21 ; set units to millimeters
G92 E0 ; reset extrusion distance
M82 ; use absolute distances for extrusion
G1 Z0.300 F9000.000
G1 X36.750 Y55.310
G1 F1800.000 E1.00000
G1 X72.960 Y28.160 F1260.000 E3.04099
G1 X73.170 Y28.030 E3.05213
G1 X73.610 Y27.800 E3.07452
G1 X74.080 Y27.610 E3.09738
G1 X74.570 Y27.480 E3.12025
G1 X74.820 Y27.430 E3.13174
G1 X75.320 Y27.380 E3.15440
G1 X75.570 Y27.370 E3.16569
G1 X97.670 Y27.380 E4.16233
G1 X98.170 Y27.430 E4.18499
G1 X98.670 Y27.540 E4.20808
G1 X98.910 Y27.610 E4.21935
G1 X99.380 Y27.800 E4.24221
G1 X99.820 Y28.030 E4.26460
G1 X100.030 Y28.160 E4.27574
G1 X136.420 Y55.450 E6.32702
G1 X136.760 Y55.760 E6.34777
G1 X137.070 Y56.100 E6.36852
G1 X137.210 Y56.280 E6.37880
G1 X137.340 Y56.470 E6.38918
G1 X137.570 Y56.870 E6.40999
G1 X137.770 Y57.280 E6.43056
G1 X137.920 Y57.710 E6.45110
G1 X138.030 Y58.160 E6.47199
G1 X138.100 Y58.610 E6.49253
G1 X138.120 Y58.840 E6.50294
G1 X138.100 Y111.410 E8.87368
G1 X138.020 Y111.890 E8.89563
G1 X137.890 Y112.360 E8.91762
G1 X137.720 Y112.820 E8.93974
G1 X137.620 Y113.040 E8.95063
G1 X137.380 Y113.460 E8.97245
G1 X137.090 Y113.860 E8.99473
G1 X112.610 Y141.380 E10.65575
G1 X112.060 Y141.810 E10.68724
G1 X111.860 Y141.940 E10.69799
G1 X111.450 Y142.160 E10.71898
G1 X111.020 Y142.340 E10.74000
G1 X110.580 Y142.480 E10.76082
G1 X110.120 Y142.570 E10.78196
G1 X109.890 Y142.600 E10.79242
G1 X109.420 Y142.620 E10.81364
G1 X63.100 Y142.600 E12.90252
G1 X62.640 Y142.530 E12.92351
G1 X62.410 Y142.480 E12.93412
G1 X61.970 Y142.340 E12.95494
G1 X61.540 Y142.160 E12.97597
G1 X61.130 Y141.940 E12.99695
G1 X60.930 Y141.810 E13.00771
G1 X60.380 Y141.380 E13.03919
G1 X35.900 Y113.860 E14.70021
G1 X35.610 Y113.460 E14.72249
G1 X35.370 Y113.040 E14.74431
G1 X35.270 Y112.820 E14.75521
G1 X35.100 Y112.360 E14.77732
G1 X34.970 Y111.890 E14.79931
G1 X34.890 Y111.410 E14.82126
G1 X34.870 Y58.840 E17.19200
G1 X34.920 Y58.380 E17.21287
G1 X35.010 Y57.930 E17.23356
G1 X35.070 Y57.710 E17.24385
G1 X35.220 Y57.280 E17.26439
G1 X35.530 Y56.670 E17.29524
G1 X35.650 Y56.470 E17.30576
G1 X35.780 Y56.280 E17.31614
G1 X35.920 Y56.100 E17.32643
G1 X36.230 Y55.760 E17.34718
G1 X36.570 Y55.450 E17.36793
G1 X36.708 Y55.343 E17.37580
G1 X36.960 Y55.590 F9000.000
G1 X73.150 Y28.450 F1260.000 E19.41580
G1 X73.760 Y28.110 E19.44729
G1 X74.190 Y27.940 E19.46814
G1 X74.640 Y27.820 E19.48915
G1 X75.100 Y27.740 E19.51020
G1 X75.570 Y27.720 E19.53142
G1 X97.890 Y27.740 E20.53798
G1 X98.350 Y27.820 E20.55904
G1 X98.800 Y27.940 E20.58004
G1 X99.230 Y28.110 E20.60089
G1 X99.840 Y28.450 E20.63238
G1 X136.210 Y55.730 E22.68267
G1 X136.530 Y56.030 E22.70245
G1 X136.690 Y56.200 E22.71298
G1 X136.970 Y56.550 E22.73319
G1 X137.210 Y56.930 E22.75346
G1 X137.410 Y57.330 E22.77363
G1 X137.490 Y57.530 E22.78334
G1 X137.630 Y57.960 E22.80373
G1 X137.720 Y58.400 E22.82399
G1 X137.750 Y58.620 E22.83400
G1 X137.750 Y111.370 E25.21286
G1 X137.680 Y111.820 E25.23340
G1 X137.490 Y112.470 E25.26394
G1 X137.200 Y113.080 E25.29440
G1 X136.820 Y113.640 E25.32492
G1 X112.510 Y140.980 E26.97478
G1 X112.350 Y141.140 E26.98498
G1 X112.180 Y141.290 E26.99521
G1 X111.810 Y141.560 E27.01587
G1 X111.410 Y141.790 E27.03667
G1 X110.990 Y141.980 E27.05746
G1 X110.550 Y142.120 E27.07828
G1 X110.110 Y142.220 E27.09863
G1 X109.880 Y142.250 E27.10909
G1 X109.420 Y142.270 E27.12986
G1 X63.110 Y142.250 E29.21829
G1 X62.880 Y142.220 E29.22875
G1 X62.440 Y142.120 E29.24910
G1 X62.000 Y141.980 E29.26993
G1 X61.580 Y141.790 E29.29071
G1 X61.180 Y141.560 E29.31152
G1 X60.810 Y141.290 E29.33218
G1 X60.640 Y141.140 E29.34240
G1 X36.170 Y113.640 E31.00245
G1 X35.790 Y113.080 E31.03297
G1 X35.500 Y112.470 E31.06343
G1 X35.310 Y111.820 E31.09397
G1 X35.240 Y111.370 E31.11451
G1 X35.240 Y58.620 E33.49337
G1 X35.310 Y58.180 E33.51346
G1 X35.360 Y57.960 E33.52364
G1 X35.500 Y57.530 E33.54403
G1 X35.580 Y57.330 E33.55374
G1 X35.780 Y56.930 E33.57391
G1 X36.020 Y56.550 E33.59418
G1 X36.300 Y56.200 E33.61439
G1 X36.460 Y56.030 E33.62492
G1 X36.780 Y55.730 E33.64470
G1 X36.918 Y55.623 E33.65257
G1 F1800.000 E32.65257
G92 E0
G1 X80.500 Y94.125 F9000.000
G1 F1800.000 E1.00000
G1 X78.227 Y92.812 F1170.000 E1.11836
G1 X78.227 Y90.188 E1.23673
G1 X80.500 Y88.875 E1.35509
G1 X82.773 Y90.188 E1.47346
G1 X82.773 Y92.812 E1.59182
G1 X80.546 Y94.098 E1.70777
G1 X80.500 Y93.720 F9000.000
G1 X78.577 Y92.610 F1170.000 E1.80790
G1 X78.577 Y90.390 E1.90802
G1 X80.500 Y89.280 E2.00814
G1 X82.423 Y90.390 E2.10826
G1 X82.423 Y92.610 E2.20839
G1 X80.546 Y93.693 E2.30609
G1 X80.500 Y93.316 F9000.000
G1 X78.928 Y92.408 F1170.000 E2.38797
G1 X78.928 Y90.592 E2.46985
G1 X80.500 Y89.684 E2.55173
G1 X82.072 Y90.592 E2.63361
G1 X82.072 Y92.408 E2.71549
G1 X80.546 Y93.289 E2.79496
G1 F1800.000 E1.79496
G92 E0
G1 X79.868 Y102.731 F9000.000
G1 F1800.000 E1.00000
G1 X82.271 Y103.280 F1170.000 E1.11113
G1 X83.340 Y105.500 E1.22226
G1 X82.271 Y107.720 E1.33339
G1 X79.868 Y108.269 E1.44452
G1 X77.941 Y106.732 E1.55566
G1 X77.941 Y104.268 E1.66679
G1 X79.826 Y102.765 E1.77550
G1 X79.955 Y103.110 F9000.000
G1 X82.028 Y103.584 F1170.000 E1.87142
G1 X82.951 Y105.500 E1.96733
G1 X82.028 Y107.416 E2.06325
G1 X79.955 Y107.890 E2.15916
G1 X78.292 Y106.563 E2.25508
G1 X78.292 Y104.437 E2.35099
G1 X79.913 Y103.144 E2.44449
G1 X80.041 Y103.490 F9000.000
G1 X81.786 Y103.888 F1170.000 E2.52519
G1 X82.562 Y105.500 E2.60589
G1 X81.786 Y107.112 E2.68659
G1 X80.041 Y107.510 E2.76729
G1 X78.642 Y106.395 E2.84798
G1 X78.642 Y104.605 E2.92868
G1 X79.999 Y103.523 E3.00697
G1 F1800.000 E2.00697
G92 E0
G1 X84.721 Y110.221 F9000.000
G1 F1800.000 E1.00000
G1 X76.279 Y110.221 F1260.000 E1.38069
G1 X76.279 Y86.779 E2.43784
G1 X84.721 Y86.779 E2.81854
G1 X84.721 Y110.167 E3.87327
G1 X85.071 Y110.571 F9000.000
G1 X75.929 Y110.571 F1260.000 E4.28556
G1 X75.929 Y86.429 E5.37431
G1 X85.071 Y86.429 E5.78660
G1 X85.071 Y110.518 E6.87293
G1 X85.421 Y110.921 F9000.000
G1 X75.579 Y110.921 F1260.000 E7.31681
G1 X75.579 Y86.079 E8.43716
G1 X85.421 Y86.079 E8.88105
G1 X85.421 Y110.868 E9.99897
G1 X83.561 Y105.575 F9000.000
G1 X84.442 Y107.100 F1350.000 E10.07839
G1 X84.442 Y107.809 E10.11035
G1 X83.375 Y105.961 E10.20655
G1 X83.190 Y106.348 E10.22588
G1 X84.442 Y108.517 E10.33887
G1 X84.442 Y109.226 E10.37085
G1 X83.003 Y106.734 E10.50062
G1 X82.817 Y107.120 E10.51995
G1 X84.442 Y109.935 E10.66651
G1 X84.067 Y109.995 E10.68366
G1 X82.631 Y107.507 E10.81318
G1 X82.445 Y107.894 E10.83251
G1 X83.658 Y109.994 E10.94191
G1 X83.249 Y109.994 E10.96035
G1 X82.087 Y107.981 E11.06516
G1 X81.725 Y108.064 E11.08191
G1 X82.839 Y109.994 E11.18243
G1 X82.430 Y109.994 E11.20087
G1 X81.363 Y108.146 E11.29709
G1 X81.001 Y108.229 E11.31384
G1 X82.021 Y109.994 E11.40576
G1 X81.612 Y109.994 E11.42420
G1 X80.640 Y108.312 E11.51182
G1 X80.279 Y108.394 E11.52853
G1 X81.203 Y109.994 E11.61186
G1 X80.793 Y109.994 E11.63034
G1 X79.917 Y108.477 E11.70936
G1 X79.386 Y108.265 E11.73515
G1 X80.384 Y109.994 E11.82521
G1 X79.974 Y109.995 E11.84368
G1 X78.627 Y107.660 E11.96523
G1 X77.869 Y107.055 F9000.000
G1 X79.566 Y109.994 F1350.000 E12.11828
G1 X79.157 Y109.994 E12.13672
G1 X76.558 Y105.494 E12.37107
G1 X76.558 Y106.203 E12.40305
G1 X78.747 Y109.994 E12.60049
G1 X78.338 Y109.994 E12.61893
G1 X76.558 Y106.911 E12.77946
G1 X76.558 Y107.620 E12.81144
G1 X77.928 Y109.995 E12.93506
G1 X77.519 Y109.994 E12.95350
G1 X76.558 Y108.329 E13.04022
G1 X76.558 Y109.038 E13.07217
G1 X77.111 Y109.994 E13.12198
G1 X76.558 Y109.747 E13.14929
G1 X76.701 Y109.994 E13.16219
G1 X77.663 Y106.698 F9000.000
G1 X76.558 Y104.785 F1350.000 E13.26182
G1 X76.558 Y104.076 E13.29378
G1 X77.662 Y105.990 E13.39341
G1 X77.663 Y105.281 E13.42539
G1 X76.558 Y103.367 E13.52502
G1 X76.558 Y102.659 E13.55698
G1 X77.662 Y104.572 E13.65661
G1 X77.805 Y104.109 E13.67846
G1 X76.558 Y101.950 E13.79092
G1 X76.558 Y101.241 E13.82287
G1 X78.085 Y103.886 E13.96061
G1 X78.365 Y103.663 E13.97675
G1 X76.558 Y100.532 E14.13976
G1 X76.558 Y99.823 E14.17174
G1 X78.646 Y103.439 E14.36002
G1 X78.925 Y103.216 E14.37617
G1 X76.558 Y99.115 E14.58972
G1 X76.558 Y98.406 E14.62170
G1 X79.206 Y102.992 E14.86053
G1 X79.486 Y102.769 E14.87667
G1 X76.558 Y97.697 E15.14077
G1 X76.558 Y96.988 E15.17273
G1 X79.766 Y102.545 E15.46211
G1 X80.179 Y102.550 E15.48072
G1 X76.558 Y96.279 E15.80728
G1 X76.558 Y95.571 E15.83923
G1 X80.650 Y102.658 E16.20830
G1 X81.122 Y102.765 E16.23012
G1 X76.558 Y94.862 E16.64169
G1 X76.558 Y94.153 E16.67365
G1 X81.593 Y102.873 E17.12774
G1 X82.064 Y102.981 E17.14953
G1 X76.558 Y93.444 E17.64613
G1 X76.558 Y92.735 E17.67810
G1 X82.535 Y103.088 E18.21721
G1 X82.656 Y103.297 F9000.000
G1 X84.442 Y106.391 F1350.000 E18.37832
G1 X84.442 Y105.682 E18.41028
G1 X76.558 Y92.027 E19.12137
G1 X76.558 Y91.318 E19.15335
G1 X84.442 Y104.973 E19.86445
G1 X84.442 Y104.265 E19.89640
G1 X77.910 Y92.952 E20.48551
G1 X77.948 Y93.017 F9000.000
G1 X76.558 Y90.609 F1350.000 E20.61090
G1 X76.558 Y89.900 E20.64286
G1 X77.948 Y92.308 E20.76825
G1 X77.948 Y91.599 E20.80022
G1 X76.558 Y89.191 E20.92561
G1 X76.558 Y88.483 E20.95757
G1 X77.948 Y90.891 E21.08296
G1 X77.948 Y90.181 E21.11493
G1 X76.558 Y87.774 E21.24032
G1 X76.558 Y87.065 E21.27228
G1 X78.224 Y89.950 E21.42252
G1 X78.530 Y89.773 E21.43848
G1 X76.933 Y87.006 E21.58258
G1 X77.342 Y87.006 E21.60106
G1 X78.838 Y89.596 E21.73593
G1 X79.144 Y89.419 E21.75189
G1 X77.751 Y87.006 E21.87753
G1 X78.161 Y87.006 E21.89601
G1 X79.452 Y89.241 E22.01242
G1 X79.758 Y89.064 E22.02839
G1 X78.570 Y87.006 E22.13557
G1 X78.979 Y87.006 E22.15401
G1 X80.065 Y88.887 E22.25197
G1 X80.372 Y88.710 E22.26798
G1 X79.388 Y87.006 E22.35671
G1 X79.797 Y87.006 E22.37515
G1 X80.786 Y88.719 E22.46437
G1 X81.401 Y89.073 E22.49635
G1 X80.207 Y87.006 E22.60402
G1 X80.616 Y87.006 E22.62246
G1 X82.014 Y89.428 E22.74858
G1 X82.628 Y89.782 E22.78053
G1 X81.025 Y87.006 E22.92511
G1 X81.435 Y87.006 E22.94359
G1 X84.442 Y92.215 E23.21485
G1 X84.442 Y91.506 E23.24680
G1 X81.843 Y87.006 E23.48116
G1 X82.253 Y87.006 E23.49964
G1 X84.442 Y90.797 E23.69708
G1 X84.442 Y90.089 E23.72903
G1 X82.662 Y87.006 E23.88957
G1 X83.071 Y87.006 E23.90801
G1 X84.442 Y89.380 E24.03163
G1 X84.442 Y88.671 E24.06361
G1 X83.481 Y87.006 E24.15032
G1 X83.890 Y87.006 E24.16876
G1 X84.442 Y87.962 E24.21856
G1 X84.442 Y87.253 E24.25054
G1 X84.299 Y87.006 E24.26343
G1 X83.051 Y90.516 F9000.000
G1 X84.442 Y92.924 F1350.000 E24.38882
G1 X84.442 Y93.633 E24.42077
G1 X83.052 Y91.225 E24.54616
G1 X83.052 Y91.933 E24.57812
G1 X84.442 Y94.341 E24.70350
G1 X84.442 Y95.050 E24.73548
G1 X83.052 Y92.642 E24.86087
G1 X82.853 Y93.006 E24.87956
G1 X84.442 Y95.759 E25.02292
G1 X84.442 Y96.468 E25.05490
G1 X82.545 Y93.183 E25.22594
G1 X82.239 Y93.360 E25.24190
G1 X84.442 Y97.177 E25.44063
G1 X84.442 Y97.885 E25.47259
G1 X81.932 Y93.537 E25.69899
G1 X81.625 Y93.715 E25.71500
G1 X84.442 Y98.594 E25.96909
G1 X84.442 Y99.303 E26.00105
G1 X81.318 Y93.892 E26.28282
G1 X81.011 Y94.069 E26.29883
G1 X84.442 Y100.012 E26.60828
G1 X84.442 Y100.721 E26.64024
G1 X80.704 Y94.246 E26.97737
G1 X80.366 Y94.369 E26.99358
G1 X84.442 Y101.429 E27.36124
G1 X84.442 Y102.138 E27.39321
G1 X79.752 Y94.015 E27.81623
G1 X79.138 Y93.660 E27.84818
G1 X84.442 Y102.847 E28.32657
G1 X84.442 Y103.556 E28.35854
G1 X78.524 Y93.306 E28.89229
G1 F1800.000 E27.89229
G92 E0
G1 X90.227 Y65.812 F9000.000
G1 F1800.000 E1.00000
G1 X90.227 Y63.188 F1170.000 E1.11836
G1 X92.500 Y61.875 E1.23673
G1 X94.773 Y63.188 E1.35509
G1 X94.773 Y65.812 E1.47346
G1 X92.500 Y67.125 E1.59182
G1 X90.273 Y65.839 E1.70777
G1 X90.577 Y65.610 F9000.000
G1 X90.577 Y63.390 F1170.000 E1.80790
G1 X92.500 Y62.280 E1.90802
G1 X94.423 Y63.390 E2.00814
G1 X94.423 Y65.610 E2.10826
G1 X92.500 Y66.720 E2.20839
G1 X90.624 Y65.637 E2.30609
G1 X90.928 Y65.408 F9000.000
G1 X90.928 Y63.592 F1170.000 E2.38797
G1 X92.500 Y62.684 E2.46985
G1 X94.072 Y63.592 E2.55173
G1 X94.072 Y65.408 E2.63361
G1 X92.500 Y66.316 E2.71549
G1 X90.974 Y65.435 E2.79496
G1 F1800.000 E1.79496
G92 E0
G1 X91.868 Y75.731 F9000.000
G1 F1800.000 E1.00000
G1 X94.271 Y76.280 F1170.000 E1.11113
G1 X95.340 Y78.500 E1.22226
G1 X94.271 Y80.720 E1.33339
G1 X91.868 Y81.269 E1.44452
G1 X89.941 Y79.732 E1.55566
G1 X89.941 Y77.268 E1.66679
G1 X91.826 Y75.765 E1.77550
G1 X91.955 Y76.110 F9000.000
G1 X94.028 Y76.584 F1170.000 E1.87142
G1 X94.951 Y78.500 E1.96733
G1 X94.028 Y80.416 E2.06325
G1 X91.955 Y80.890 E2.15916
G1 X90.292 Y79.563 E2.25508
G1 X90.292 Y77.437 E2.35099
G1 X91.913 Y76.144 E2.44449
G1 X92.041 Y76.490 F9000.000
G1 X93.786 Y76.888 F1170.000 E2.52519
G1 X94.562 Y78.500 E2.60589
G1 X93.786 Y80.112 E2.68659
G1 X92.041 Y80.510 E2.76729
G1 X90.642 Y79.395 E2.84798
G1 X90.642 Y77.605 E2.92868
G1 X91.999 Y76.523 E3.00697
G1 F1800.000 E2.00697
G92 E0
G1 X96.721 Y83.221 F9000.000
G1 F1800.000 E1.00000
G1 X88.279 Y83.221 F1260.000 E1.38069
G1 X88.279 Y59.779 E2.43784
G1 X96.721 Y59.779 E2.81854
G1 X96.721 Y83.167 E3.87327
G1 X97.071 Y83.571 F9000.000
G1 X87.929 Y83.571 F1260.000 E4.28556
G1 X87.929 Y59.429 E5.37431
G1 X97.071 Y59.429 E5.78660
G1 X97.071 Y83.518 E6.87293
G1 X97.421 Y83.921 F9000.000
G1 X87.579 Y83.921 F1260.000 E7.31681
G1 X87.579 Y59.078 E8.43716
G1 X97.421 Y59.078 E8.88105
G1 X97.421 Y83.868 E9.99897
G1 X95.561 Y78.575 F9000.000
G1 X96.442 Y80.100 F1350.000 E10.07839
G1 X96.442 Y80.809 E10.11035
G1 X95.375 Y78.961 E10.20655
G1 X95.190 Y79.348 E10.22588
G1 X96.442 Y81.517 E10.33887
G1 X96.442 Y82.226 E10.37085
G1 X95.003 Y79.734 E10.50062
G1 X94.817 Y80.120 E10.51995
G1 X96.442 Y82.935 E10.66651
G1 X96.067 Y82.995 E10.68366
G1 X94.631 Y80.507 E10.81318
G1 X94.445 Y80.894 E10.83251
G1 X95.658 Y82.994 E10.94191
G1 X95.249 Y82.994 E10.96035
G1 X94.087 Y80.981 E11.06516
G1 X93.725 Y81.064 E11.08191
G1 X94.839 Y82.994 E11.18243
G1 X94.430 Y82.994 E11.20087
G1 X93.363 Y81.146 E11.29709
G1 X93.001 Y81.229 E11.31384
G1 X94.021 Y82.994 E11.40576
G1 X93.612 Y82.994 E11.42420
G1 X92.640 Y81.312 E11.51182
G1 X92.279 Y81.394 E11.52853
G1 X93.203 Y82.994 E11.61186
G1 X92.793 Y82.994 E11.63034
G1 X91.917 Y81.477 E11.70936
G1 X91.386 Y81.265 E11.73515
G1 X92.384 Y82.994 E11.82521
G1 X91.974 Y82.995 E11.84368
G1 X90.627 Y80.660 E11.96523
G1 X89.869 Y80.055 F9000.000
G1 X91.566 Y82.994 F1350.000 E12.11828
G1 X91.157 Y82.994 E12.13672
G1 X88.558 Y78.494 E12.37107
G1 X88.558 Y79.203 E12.40305
G1 X90.747 Y82.994 E12.60049
G1 X90.338 Y82.994 E12.61893
G1 X88.558 Y79.911 E12.77946
G1 X88.558 Y80.620 E12.81144
G1 X89.928 Y82.995 E12.93506
G1 X89.519 Y82.994 E12.95350
G1 X88.558 Y81.329 E13.04022
G1 X88.558 Y82.038 E13.07217
G1 X89.111 Y82.994 E13.12198
G1 X88.558 Y82.747 E13.14929
G1 X88.701 Y82.994 E13.16219
G1 X89.663 Y79.698 F9000.000
G1 X88.558 Y77.785 F1350.000 E13.26182
G1 X88.558 Y77.076 E13.29378
G1 X89.662 Y78.990 E13.39341
G1 X89.663 Y78.281 E13.42539
G1 X88.558 Y76.367 E13.52502
G1 X88.558 Y75.659 E13.55698
G1 X89.662 Y77.572 E13.65661
G1 X89.805 Y77.109 E13.67846
G1 X88.558 Y74.950 E13.79092
G1 X88.558 Y74.241 E13.82287
G1 X90.085 Y76.886 E13.96061
G1 X90.365 Y76.663 E13.97675
G1 X88.558 Y73.532 E14.13976
G1 X88.558 Y72.823 E14.17174
G1 X90.646 Y76.439 E14.36002
G1 X90.925 Y76.216 E14.37617
G1 X88.558 Y72.115 E14.58972
