; generated by Slic3r 0.8.2 on 2012-11-09 at 21:53:27

; layer_height = .3
; perimeters = 3
; solid_layers = 3
; fill_density = .2
; nozzle_diameter = 0.35
; filament_diameter = 1.8
; extrusion_multiplier = 1
; perimeter_speed = 60
; infill_speed = 90
; travel_speed = 130
; extrusion_width_ratio = 0
; scale = 1
; single wall width = 0.37mm

G28 ; home all axes
M106; Turn on fans
G90 ; use absolute coordinates
G21 ; set units to millimeters
G92 E0 ; reset extrusion distance
M82 ; use absolute distances for extrusion
G1 Z0.300 F7800.000
G1 X39.655 Y50.070
G1 F1800.000 E0.80000
G1 X134.275 Y50.140 F1080.000 E4.85757
G1 X134.795 Y50.210 E4.88007
G1 X135.315 Y50.320 E4.90286
G1 X135.825 Y50.470 E4.92566
G1 X136.565 Y50.780 E4.96006
G1 X136.795 Y50.900 E4.97119
G1 X137.255 Y51.180 E4.99428
G1 X137.685 Y51.490 E5.01701
G1 X138.275 Y52.020 E5.05102
G1 X151.005 Y67.330 E5.90486
G1 X151.455 Y68.020 E5.94019
G1 X151.705 Y68.510 E5.96378
G1 X151.915 Y69.020 E5.98743
G1 X152.085 Y69.550 E6.01130
G1 X152.205 Y70.080 E6.03460
G1 X152.275 Y70.630 E6.05838
G1 X152.275 Y96.350 E7.16132
G1 X152.205 Y96.890 E7.18467
G1 X152.155 Y97.160 E7.19645
G1 X152.015 Y97.680 E7.21954
G1 X151.835 Y98.200 E7.24314
G1 X151.605 Y98.690 E7.26635
G1 X151.195 Y99.390 E7.30114
G1 X150.865 Y99.830 E7.32472
G1 X150.695 Y100.030 E7.33598
G1 X137.145 Y112.890 E8.13707
G1 X136.455 Y113.370 E8.17312
G1 X136.205 Y113.510 E8.18541
G1 X135.445 Y113.860 E8.22129
G1 X134.915 Y114.030 E8.24516
G1 X134.095 Y114.210 E8.28116
G1 X121.435 Y114.920 E8.82491
G1 X51.265 Y114.900 E11.83399
G1 X38.705 Y113.820 E12.37458
G1 X38.425 Y113.780 E12.38671
G1 X37.895 Y113.660 E12.41002
G1 X37.365 Y113.500 E12.43376
G1 X36.615 Y113.170 E12.46889
G1 X36.135 Y112.900 E12.49251
G1 X35.685 Y112.590 E12.51594
G1 X35.265 Y112.240 E12.53939
G1 X22.425 Y99.660 E13.31023
G1 X22.075 Y99.260 E13.33302
G1 X21.915 Y99.050 E13.34435
G1 X21.625 Y98.600 E13.36730
G1 X21.365 Y98.140 E13.38996
G1 X21.055 Y97.400 E13.42437
G1 X20.905 Y96.890 E13.44716
G1 X20.795 Y96.370 E13.46996
G1 X20.725 Y95.840 E13.49288
G1 X20.705 Y95.580 E13.50406
G1 X20.725 Y70.140 E14.59500
G1 X20.795 Y69.600 E14.61835
G1 X20.845 Y69.340 E14.62971
G1 X21.065 Y68.560 E14.66446
G1 X21.385 Y67.810 E14.69943
G1 X21.655 Y67.340 E14.72267
G1 X21.955 Y66.890 E14.74586
G1 X35.075 Y52.020 E15.59625
G1 X35.265 Y51.830 E15.60778
G1 X35.665 Y51.480 E15.63057
G1 X35.885 Y51.310 E15.64249
G1 X36.555 Y50.870 E15.67686
G1 X37.045 Y50.630 E15.70026
G1 X37.545 Y50.430 E15.72335
G1 X38.055 Y50.270 E15.74628
G1 X38.845 Y50.120 E15.78076
G1 X39.115 Y50.090 E15.79241
G1 X39.600 Y50.072 E15.81322
G1 X39.655 Y50.430 F7800.000
G1 X134.265 Y50.500 F1080.000 E19.87036
G1 X134.785 Y50.570 E19.89286
G1 X135.045 Y50.620 E19.90421
G1 X135.555 Y50.760 E19.92689
G1 X136.045 Y50.940 E19.94927
G1 X136.755 Y51.290 E19.98322
G1 X137.195 Y51.580 E20.00582
G1 X137.615 Y51.900 E20.02846
G1 X137.995 Y52.260 E20.05091
G1 X138.355 Y52.650 E20.07367
G1 X150.725 Y67.570 E20.90478
G1 X151.035 Y68.020 E20.92821
G1 X151.305 Y68.510 E20.95220
G1 X151.535 Y69.010 E20.97580
G1 X151.705 Y69.540 E20.99967
G1 X151.835 Y70.080 E21.02349
G1 X151.905 Y70.630 E21.04727
G1 X151.935 Y71.180 E21.07089
G1 X151.915 Y96.350 E22.15025
G1 X151.885 Y96.620 E22.16190
G1 X151.785 Y97.150 E22.18503
G1 X151.635 Y97.670 E22.20823
G1 X151.445 Y98.180 E22.23157
G1 X151.215 Y98.670 E22.25478
G1 X150.935 Y99.130 E22.27788
G1 X150.615 Y99.570 E22.30121
G1 X150.445 Y99.770 E22.31246
G1 X137.115 Y112.440 E23.10111
G1 X136.915 Y112.610 E23.11236
G1 X136.705 Y112.770 E23.12369
G1 X136.265 Y113.060 E23.14628
G1 X135.805 Y113.310 E23.16874
G1 X135.315 Y113.520 E23.19160
G1 X135.065 Y113.610 E23.20299
G1 X134.305 Y113.810 E23.23669
G1 X133.775 Y113.880 E23.25962
G1 X121.435 Y114.560 E23.78959
G1 X51.295 Y114.540 E26.79739
G1 X38.725 Y113.460 E27.33841
G1 X38.455 Y113.420 E27.35012
G1 X37.915 Y113.290 E27.37393
G1 X37.135 Y113.020 E27.40933
G1 X36.645 Y112.780 E27.43273
G1 X36.175 Y112.490 E27.45641
G1 X35.725 Y112.160 E27.48034
G1 X35.315 Y111.800 E27.50374
G1 X22.685 Y99.410 E28.26245
G1 X22.335 Y99.000 E28.28556
G1 X22.175 Y98.790 E28.29689
G1 X21.885 Y98.350 E28.31948
G1 X21.645 Y97.880 E28.34211
G1 X21.435 Y97.390 E28.36498
G1 X21.345 Y97.140 E28.37637
G1 X21.155 Y96.370 E28.41038
G1 X21.085 Y95.840 E28.43330
G1 X21.085 Y70.140 E29.53539
G1 X21.215 Y69.330 E29.57057
G1 X21.365 Y68.810 E29.59378
G1 X21.555 Y68.300 E29.61712
G1 X21.665 Y68.060 E29.62844
G1 X21.925 Y67.580 E29.65185
G1 X22.225 Y67.130 E29.67504
G1 X35.345 Y52.260 E30.52543
G1 X35.725 Y51.890 E30.54817
G1 X36.145 Y51.560 E30.57108
G1 X36.595 Y51.270 E30.59404
G1 X37.065 Y51.020 E30.61687
G1 X37.555 Y50.810 E30.63973
G1 X38.065 Y50.640 E30.66278
G1 X38.855 Y50.480 E30.69735
G1 X39.125 Y50.450 E30.70900
G1 X39.600 Y50.432 E30.72938
G1 F1800.000 E29.92938
G92 E0
G1 X80.625 Y92.244 F7800.000
G1 F1800.000 E0.80000
G1 X78.032 Y90.747 F1080.000 E0.92838
G1 X78.032 Y87.753 E1.05677
G1 X80.625 Y86.256 E1.18515
G1 X83.218 Y87.753 E1.31353
G1 X83.218 Y90.747 E1.44192
G1 X80.673 Y92.216 E1.56794
G1 X80.625 Y91.827 F7800.000
G1 X78.393 Y90.539 F1080.000 E1.67846
G1 X78.393 Y87.961 E1.78899
G1 X80.625 Y86.673 E1.89952
G1 X82.857 Y87.961 E2.01004
G1 X82.857 Y90.539 E2.12057
G1 X80.673 Y91.800 E2.22873
G1 X80.625 Y91.411 F7800.000
G1 X78.754 Y90.330 F1080.000 E2.32140
G1 X78.754 Y88.170 E2.41407
G1 X80.625 Y87.089 E2.50674
G1 X82.496 Y88.170 E2.59941
G1 X82.496 Y90.330 E2.69208
G1 X80.673 Y91.383 E2.78239
G1 F1800.000 E1.98239
G92 E0
G1 X79.914 Y100.137 F7800.000
G1 F1800.000 E0.80000
G1 X82.616 Y100.754 F1080.000 E0.91882
G1 X83.818 Y103.250 E1.03765
G1 X82.616 Y105.746 E1.15647
G1 X79.914 Y106.363 E1.27529
G1 X77.748 Y104.635 E1.39412
G1 X77.748 Y101.865 E1.51294
G1 X79.871 Y100.171 E1.62940
G1 X80.004 Y100.527 F7800.000
G1 X82.366 Y101.066 F1080.000 E1.73333
G1 X83.418 Y103.250 E1.83726
G1 X82.366 Y105.434 E1.94119
G1 X80.004 Y105.973 E2.04512
G1 X78.109 Y104.462 E2.14905
G1 X78.109 Y102.038 E2.25298
G1 X79.960 Y100.562 E2.35454
G1 X80.093 Y100.917 F7800.000
G1 X82.117 Y101.379 F1080.000 E2.44357
G1 X83.018 Y103.250 E2.53261
G1 X82.117 Y105.121 E2.62164
G1 X80.093 Y105.583 E2.71068
G1 X78.469 Y104.288 E2.79971
G1 X78.469 Y102.212 E2.88874
G1 X80.049 Y100.952 E2.97541
G1 F1800.000 E2.17541
G92 E0
G1 X76.530 Y107.845 F7800.000
G1 F1800.000 E0.80000
G1 X76.530 Y84.655 F1080.000 E1.79445
G1 X84.720 Y84.655 E2.14566
G1 X84.720 Y107.845 E3.14011
G1 X76.585 Y107.845 E3.48896
G1 X76.169 Y108.206 F7800.000
G1 X76.169 Y84.294 F1080.000 E4.51434
G1 X85.081 Y84.294 E4.89648
G1 X85.081 Y108.206 E5.92186
G1 X76.225 Y108.206 E6.30163
G1 X75.809 Y108.566 F7800.000
G1 X75.809 Y83.934 F1080.000 E7.35794
G1 X85.441 Y83.934 E7.77101
G1 X85.441 Y108.566 E8.82732
G1 X75.864 Y108.566 E9.23802
G1 X76.964 Y107.612 F7800.000
G1 X76.817 Y107.357 F1620.000 E9.25068
G1 X77.382 Y107.612 F7800.000
G1 X76.817 Y106.634 F1620.000 E9.29922
G1 X76.817 Y105.912 F7800.000
G1 X77.799 Y107.612 F1620.000 E9.38363
G1 X78.216 Y107.612 F7800.000
G1 X76.817 Y105.189 F1620.000 E9.50392
G1 X76.817 Y104.467 F7800.000
G1 X78.632 Y107.612 F1620.000 E9.66009
G1 X79.050 Y107.612 F7800.000
G1 X77.396 Y104.747 F1620.000 E9.80233
G1 X77.461 Y104.860 F7800.000
G1 X76.817 Y103.744 F1620.000 E9.85773
G1 X76.817 Y103.022 F7800.000
G1 X77.461 Y104.137 F1620.000 E9.91312
G1 X77.461 Y103.415 F7800.000
G1 X76.817 Y102.299 F1620.000 E9.96851
G1 X76.817 Y101.576 F7800.000
G1 X77.461 Y102.692 F1620.000 E10.02390
G1 X77.461 Y101.969 F7800.000
G1 X76.817 Y100.854 F1620.000 E10.07929
G1 X76.817 Y100.131 F7800.000
G1 X77.687 Y101.638 F1620.000 E10.15411
G1 X77.972 Y101.411 F7800.000
G1 X76.817 Y99.409 F1620.000 E10.25350
G1 X76.817 Y98.686 F7800.000
G1 X78.259 Y101.182 F1620.000 E10.37745
G1 X78.544 Y100.955 F7800.000
G1 X76.817 Y97.964 F1620.000 E10.52597
G1 X76.817 Y97.241 F7800.000
G1 X78.829 Y100.727 F1620.000 E10.69906
G1 X79.115 Y100.499 F7800.000
G1 X76.817 Y96.519 F1620.000 E10.89671
G1 X76.817 Y95.796 F7800.000
G1 X79.401 Y100.271 F1620.000 E11.11893
G1 X79.686 Y100.044 F7800.000
G1 X76.817 Y95.074 F1620.000 E11.36572
G1 X76.817 Y94.351 F7800.000
G1 X80.022 Y99.902 F1620.000 E11.64137
G1 X80.503 Y100.012 F7800.000
G1 X76.817 Y93.628 F1620.000 E11.95835
G1 X76.817 Y92.906 F7800.000
G1 X80.983 Y100.122 F1620.000 E12.31665
G1 X81.463 Y100.231 F7800.000
G1 X76.817 Y92.183 F1620.000 E12.71628
G1 X76.817 Y91.461 F7800.000
G1 X81.944 Y100.341 F1620.000 E13.15723
G1 X82.425 Y100.450 F7800.000
G1 X76.817 Y90.738 F1620.000 E13.63950
G1 X76.817 Y90.016 F7800.000
G1 X82.905 Y100.560 F1620.000 E14.16310
G1 X82.940 Y100.621 F7800.000
G1 X84.413 Y103.172 F1620.000 E14.28979
G1 X84.064 Y103.290 F7800.000
G1 X84.433 Y103.929 F1620.000 E14.32153
G1 X83.874 Y103.684 F7800.000
G1 X84.433 Y104.652 F1620.000 E14.36958
G1 X84.433 Y105.375 F7800.000
G1 X83.684 Y104.078 F1620.000 E14.43395
G1 X83.495 Y104.472 F7800.000
G1 X84.433 Y106.097 F1620.000 E14.51463
G1 X84.433 Y106.819 F7800.000
G1 X83.306 Y104.866 F1620.000 E14.61163
G1 X83.115 Y105.260 F7800.000
G1 X84.433 Y107.542 F1620.000 E14.72494
G1 X84.056 Y107.612 F7800.000
G1 X82.926 Y105.654 F1620.000 E14.82216
G1 X82.684 Y105.957 F7800.000
G1 X83.639 Y107.611 F1620.000 E14.90433
G1 X83.221 Y107.612 F7800.000
G1 X82.314 Y106.041 F1620.000 E14.98233
G1 X81.946 Y106.125 F7800.000
G1 X82.804 Y107.612 F1620.000 E15.05615
G1 X82.387 Y107.612 F7800.000
G1 X81.578 Y106.209 F1620.000 E15.12580
G1 X81.209 Y106.293 F7800.000
G1 X81.970 Y107.612 F1620.000 E15.19127
G1 X81.553 Y107.612 F7800.000
G1 X80.840 Y106.378 F1620.000 E15.25256
G1 X80.472 Y106.462 F7800.000
G1 X81.136 Y107.612 F1620.000 E15.30968
G1 X80.719 Y107.612 F7800.000
G1 X80.103 Y106.546 F1620.000 E15.36262
G1 X79.716 Y106.597 F7800.000
G1 X80.302 Y107.612 F1620.000 E15.41301
G1 X79.884 Y107.612 F7800.000
G1 X78.942 Y105.980 F1620.000 E15.49403
G1 X78.169 Y105.364 F7800.000
G1 X79.467 Y107.612 F1620.000 E15.60566
G1 F1800.000 E14.80566
G92 E0
G1 X84.433 Y102.484 F7800.000
G1 F1800.000 E0.80000
G1 X77.755 Y90.919 F1620.000 E1.37431
G1 X77.745 Y90.901 F7800.000
G1 X76.817 Y89.293 F1620.000 E1.45414
G1 X76.817 Y88.570 F7800.000
G1 X77.746 Y90.178 F1620.000 E1.53398
G1 X77.745 Y89.456 F7800.000
G1 X76.817 Y87.848 F1620.000 E1.61381
G1 X76.817 Y87.125 F7800.000
G1 X77.745 Y88.733 F1620.000 E1.69365
G1 X77.745 Y88.011 F7800.000
G1 X76.817 Y86.403 F1620.000 E1.77348
G1 X76.817 Y85.680 F7800.000
G1 X77.912 Y87.576 F1620.000 E1.86763
G1 X78.225 Y87.396 F7800.000
G1 X76.817 Y84.958 F1620.000 E1.98868
G1 X77.194 Y84.888 F7800.000
G1 X78.537 Y87.215 F1620.000 E2.10422
G1 X78.850 Y87.035 F7800.000
G1 X77.611 Y84.888 F1620.000 E2.21078
G1 X78.029 Y84.888 F7800.000
G1 X79.163 Y86.854 F1620.000 E2.30838
G1 X79.476 Y86.673 F7800.000
G1 X78.446 Y84.888 F1620.000 E2.39700
G1 X78.862 Y84.888 F7800.000
G1 X79.789 Y86.493 F1620.000 E2.47666
G1 X80.102 Y86.312 F7800.000
G1 X79.280 Y84.888 F1620.000 E2.54735
G1 X79.697 Y84.888 F7800.000
G1 X80.415 Y86.131 F1620.000 E2.60907
G1 X80.756 Y86.001 F7800.000
G1 X80.114 Y84.888 F1620.000 E2.66431
G1 X80.531 Y84.888 F7800.000
G1 X81.382 Y86.362 F1620.000 E2.73749
G1 X82.008 Y86.723 F7800.000
G1 X80.949 Y84.888 F1620.000 E2.82861
G1 X81.366 Y84.888 F7800.000
G1 X82.634 Y87.084 F1620.000 E2.93767
G1 X83.259 Y87.446 F7800.000
G1 X81.783 Y84.888 F1620.000 E3.06467
G1 X82.200 Y84.888 F7800.000
G1 X84.433 Y88.756 F1620.000 E3.25671
G1 X84.433 Y88.033 F7800.000
G1 X82.617 Y84.888 F1620.000 E3.41288
G1 X83.034 Y84.888 F7800.000
G1 X84.433 Y87.311 F1620.000 E3.53317
G1 X84.433 Y86.588 F7800.000
G1 X83.451 Y84.888 F1620.000 E3.61758
G1 X83.869 Y84.888 F7800.000
G1 X84.433 Y85.865 F1620.000 E3.66611
G1 X84.433 Y85.143 F7800.000
G1 X84.286 Y84.888 F1620.000 E3.67877
G1 X83.505 Y87.871 F7800.000
G1 X84.433 Y89.479 F1620.000 E3.75860
G1 X84.433 Y90.201 F7800.000
G1 X83.505 Y88.593 F1620.000 E3.83844
G1 X83.505 Y89.316 F7800.000
G1 X84.433 Y90.923 F1620.000 E3.91828
G1 X84.433 Y91.646 F7800.000
G1 X83.504 Y90.038 F1620.000 E3.99811
G1 X83.505 Y90.761 F7800.000
G1 X84.433 Y92.369 F1620.000 E4.07795
G1 X84.433 Y93.091 F7800.000
G1 X83.221 Y90.992 F1620.000 E4.18220
G1 X82.908 Y91.172 F7800.000
G1 X84.433 Y93.813 F1620.000 E4.31336
G1 X84.433 Y94.536 F7800.000
G1 X82.595 Y91.353 F1620.000 E4.47143
G1 X82.282 Y91.534 F7800.000
G1 X84.433 Y95.259 F1620.000 E4.65641
G1 X84.433 Y95.981 F7800.000
G1 X81.970 Y91.714 F1620.000 E4.86830
G1 X81.656 Y91.895 F7800.000
G1 X84.433 Y96.704 F1620.000 E5.10710
G1 X84.433 Y97.427 F7800.000
G1 X81.343 Y92.076 F1620.000 E5.37281
G1 X81.031 Y92.256 F7800.000
G1 X84.433 Y98.149 F1620.000 E5.66543
G1 X84.433 Y98.871 F7800.000
G1 X80.718 Y92.437 F1620.000 E5.98495
G1 X80.258 Y92.364 F7800.000
G1 X84.433 Y99.594 F1620.000 E6.34399
G1 X84.433 Y100.317 F7800.000
G1 X79.633 Y92.002 F1620.000 E6.75684
G1 X79.007 Y91.641 F7800.000
G1 X84.433 Y101.039 F1620.000 E7.22351
G1 X84.433 Y101.762 F7800.000
G1 X78.382 Y91.280 F1620.000 E7.74400
G1 F1800.000 E6.94400
G92 E0
G1 X90.604 Y64.077 F7800.000
G1 F1800.000 E0.80000
G1 X90.032 Y63.747 F1080.000 E0.82831
G1 X90.032 Y60.753 E0.95670
G1 X92.625 Y59.256 E1.08508
G1 X95.218 Y60.753 E1.21347
G1 X95.218 Y63.747 E1.34185
G1 X92.625 Y65.244 E1.47023
G1 X90.652 Y64.105 E1.56794
G1 X90.784 Y63.765 F7800.000
G1 X90.393 Y63.539 F1080.000 E1.58732
G1 X90.393 Y60.961 E1.69785
G1 X92.625 Y59.673 E1.80838
G1 X94.857 Y60.961 E1.91890
G1 X94.857 Y63.539 E2.02943
G1 X92.625 Y64.827 E2.13996
G1 X90.832 Y63.792 E2.22873
G1 X90.965 Y63.452 F7800.000
G1 X90.754 Y63.330 F1080.000 E2.23919
G1 X90.754 Y61.170 E2.33186
G1 X92.625 Y60.089 E2.42453
G1 X94.496 Y61.170 E2.51720
G1 X94.496 Y63.330 E2.60987
G1 X92.625 Y64.411 E2.70254
G1 X91.012 Y63.480 E2.78239
G1 F1800.000 E1.98239
G92 E0
G1 X91.914 Y73.137 F7800.000
G1 F1800.000 E0.80000
G1 X94.616 Y73.754 F1080.000 E0.91882
G1 X95.818 Y76.250 E1.03765
G1 X94.616 Y78.746 E1.15647
G1 X91.914 Y79.363 E1.27529
G1 X89.748 Y77.635 E1.39412
G1 X89.748 Y74.865 E1.51294
G1 X91.871 Y73.171 E1.62940
G1 X92.004 Y73.527 F7800.000
G1 X94.366 Y74.066 F1080.000 E1.73333
G1 X95.418 Y76.250 E1.83726
G1 X94.366 Y78.434 E1.94119
G1 X92.004 Y78.973 E2.04512
G1 X90.109 Y77.462 E2.14905
G1 X90.109 Y75.038 E2.25298
G1 X91.960 Y73.562 E2.35454
G1 X92.093 Y73.917 F7800.000
G1 X94.117 Y74.379 F1080.000 E2.44357
G1 X95.018 Y76.250 E2.53261
G1 X94.117 Y78.121 E2.62164
G1 X92.093 Y78.583 E2.71068
G1 X90.469 Y77.288 E2.79971
G1 X90.469 Y75.212 E2.88874
G1 X92.049 Y73.952 E2.97541
G1 F1800.000 E2.17541
G92 E0
G1 X88.530 Y80.845 F7800.000
G1 F1800.000 E0.80000
G1 X88.530 Y57.655 F1080.000 E1.79445
G1 X96.720 Y57.655 E2.14566
G1 X96.720 Y80.845 E3.14011
G1 X88.585 Y80.845 E3.48896
G1 X88.169 Y81.206 F7800.000
G1 X88.169 Y57.294 F1080.000 E4.51434
G1 X97.081 Y57.294 E4.89648
G1 X97.081 Y81.206 E5.92186
G1 X88.225 Y81.206 E6.30163
G1 X87.809 Y81.566 F7800.000
G1 X87.809 Y56.934 F1080.000 E7.35794
G1 X97.441 Y56.934 E7.77101
G1 X97.441 Y81.566 E8.82732
G1 X87.864 Y81.566 E9.23802
G1 X88.964 Y80.612 F7800.000
G1 X88.817 Y80.357 F1620.000 E9.25068
G1 X89.382 Y80.612 F7800.000
G1 X88.817 Y79.634 F1620.000 E9.29922
G1 X88.817 Y78.912 F7800.000
G1 X89.799 Y80.612 F1620.000 E9.38363
G1 X90.216 Y80.612 F7800.000
G1 X88.817 Y78.189 F1620.000 E9.50392
G1 X88.817 Y77.467 F7800.000
G1 X90.632 Y80.612 F1620.000 E9.66009
G1 X91.050 Y80.612 F7800.000
G1 X89.396 Y77.747 F1620.000 E9.80233
G1 X89.461 Y77.860 F7800.000
G1 X88.817 Y76.744 F1620.000 E9.85773
G1 X88.817 Y76.022 F7800.000
G1 X89.461 Y77.137 F1620.000 E9.91312
G1 X89.461 Y76.415 F7800.000
G1 X88.817 Y75.299 F1620.000 E9.96851
G1 X88.817 Y74.576 F7800.000
G1 X89.461 Y75.692 F1620.000 E10.02390
G1 X89.461 Y74.969 F7800.000
G1 X88.817 Y73.854 F1620.000 E10.07929
G1 X88.817 Y73.131 F7800.000
G1 X89.687 Y74.638 F1620.000 E10.15411
G1 X89.972 Y74.411 F7800.000
G1 X88.817 Y72.409 F1620.000 E10.25350
G1 X88.817 Y71.686 F7800.000
G1 X90.259 Y74.182 F1620.000 E10.37745
G1 X90.544 Y73.955 F7800.000
G1 X88.817 Y70.964 F1620.000 E10.52597
G1 X88.817 Y70.241 F7800.000
G1 X90.829 Y73.727 F1620.000 E10.69906
