; generated by Slic3r 0.9.3 on 2012-11-04 at 14:17:40

; layer_height = 0.3
; perimeters = 3
; solid_layers = 3
; fill_density = 0.20
; perimeter_speed = 60
; infill_speed = 75
; travel_speed = 180
; scale = 1
; nozzle_diameter = 0.35
; filament_diameter = 1.74
; extrusion_multiplier = 1
; single wall width = 0.37mm

G28 ; home all axes
G90 ; use absolute coordinates
G21 ; set units to millimeters
G92 E0
M82 ; use absolute distances for extrusion
G1 F1200.000 E-1.00000
G92 E0
G1 Z0.300 F10800.000
G1 X49.200 Y45.590
G1 F1200.000 E1.00000
G1 X49.470 Y45.120 F1080.000 E1.02487
G1 X49.940 Y44.450 E1.06243
G1 X50.300 Y44.040 E1.08747
G1 X50.690 Y43.660 E1.11246
G1 X50.900 Y43.480 E1.12515
G1 X51.560 Y43.000 E1.16260
G1 X52.030 Y42.730 E1.18748
G1 X52.530 Y42.490 E1.21293
G1 X53.040 Y42.300 E1.23791
G1 X53.560 Y42.150 E1.26274
G1 X54.090 Y42.040 E1.28758
G1 X54.630 Y41.970 E1.31257
G1 X54.910 Y41.950 E1.32545
G1 X129.080 Y41.950 E4.72920
G1 X129.630 Y42.000 E4.75455
G1 X130.430 Y42.150 E4.79190
G1 X130.950 Y42.300 E4.81674
G1 X131.460 Y42.490 E4.84171
G1 X131.960 Y42.730 E4.86717
G1 X132.430 Y43.000 E4.89204
G1 X133.090 Y43.480 E4.92949
G1 X133.690 Y44.040 E4.96716
G1 X134.050 Y44.450 E4.99219
G1 X134.520 Y45.120 E5.02975
G1 X150.920 Y76.850 E6.66888
G1 X151.040 Y77.120 E6.68244
G1 X151.320 Y77.950 E6.72264
G1 X151.440 Y78.520 E6.74937
G1 X151.520 Y79.100 E6.77624
G1 X151.520 Y104.890 E7.95977
G1 X151.440 Y105.470 E7.98664
G1 X151.320 Y106.040 E8.01337
G1 X151.040 Y106.870 E8.05357
G1 X134.660 Y138.640 E9.69391
G1 X134.370 Y139.100 E9.71886
G1 X134.050 Y139.540 E9.74383
G1 X133.690 Y139.950 E9.76887
G1 X133.300 Y140.330 E9.79386
G1 X133.090 Y140.510 E9.80655
G1 X132.430 Y140.990 E9.84400
G1 X131.960 Y141.260 E9.86888
G1 X131.460 Y141.500 E9.89433
G1 X130.950 Y141.690 E9.91930
G1 X130.430 Y141.840 E9.94414
G1 X129.900 Y141.950 E9.96898
G1 X129.360 Y142.020 E9.99397
G1 X129.080 Y142.040 E10.00685
G1 X38.910 Y142.040 E14.14486
G1 X38.370 Y141.990 E14.16975
G1 X37.830 Y141.910 E14.19480
G1 X37.310 Y141.780 E14.21940
G1 X36.540 Y141.500 E14.25700
G1 X36.050 Y141.270 E14.28184
G1 X35.580 Y141.000 E14.30671
G1 X34.920 Y140.520 E14.34416
G1 X34.720 Y140.350 E14.35621
G1 X34.140 Y139.770 E14.39385
G1 X33.640 Y139.130 E14.43112
G1 X33.350 Y138.680 E14.45569
G1 X33.100 Y138.200 E14.48053
G1 X32.890 Y137.700 E14.50541
G1 X32.710 Y137.180 E14.53067
G1 X32.580 Y136.660 E14.55526
G1 X32.470 Y135.850 E14.59278
G1 X32.450 Y135.580 E14.60520
G1 X32.470 Y79.100 E17.19714
G1 X32.550 Y78.520 E17.22400
G1 X32.670 Y77.950 E17.25074
G1 X32.950 Y77.120 E17.29093
G1 X49.031 Y45.917 E18.90188
G1 X49.520 Y45.760 F10800.000
G1 X50.090 Y44.850 F1080.000 E18.95116
G1 X50.610 Y44.240 E18.98794
G1 X51.210 Y43.700 E19.02499
G1 X51.420 Y43.540 E19.03710
G1 X51.870 Y43.240 E19.06192
G1 X52.340 Y42.980 E19.08657
G1 X53.080 Y42.670 E19.12339
G1 X53.850 Y42.450 E19.16014
G1 X54.110 Y42.400 E19.17229
G1 X54.910 Y42.320 E19.20919
G1 X55.180 Y42.310 E19.22159
G1 X129.080 Y42.320 E22.61295
G1 X129.880 Y42.400 E22.64984
G1 X130.140 Y42.450 E22.66199
G1 X130.910 Y42.670 E22.69874
G1 X131.650 Y42.980 E22.73556
G1 X132.120 Y43.240 E22.76021
G1 X132.570 Y43.540 E22.78503
G1 X132.780 Y43.700 E22.79715
G1 X133.380 Y44.240 E22.83419
G1 X133.900 Y44.850 E22.87098
G1 X134.340 Y45.530 E22.90814
G1 X150.590 Y77.010 E24.53392
G1 X150.800 Y77.520 E24.55923
G1 X150.890 Y77.780 E24.57186
G1 X151.030 Y78.310 E24.59701
G1 X151.150 Y79.130 E24.63504
G1 X151.180 Y79.680 E24.66032
G1 X151.170 Y104.590 E25.80347
G1 X151.080 Y105.410 E25.84133
G1 X151.030 Y105.680 E25.85393
G1 X150.890 Y106.210 E25.87909
G1 X150.700 Y106.730 E25.90449
G1 X134.340 Y138.460 E27.54278
G1 X133.900 Y139.140 E27.57995
G1 X133.380 Y139.750 E27.61673
G1 X132.780 Y140.290 E27.65377
G1 X132.570 Y140.450 E27.66589
G1 X132.120 Y140.750 E27.69071
G1 X131.650 Y141.010 E27.71536
G1 X130.910 Y141.320 E27.75218
G1 X130.140 Y141.540 E27.78893
G1 X129.880 Y141.590 E27.80108
G1 X129.080 Y141.670 E27.83797
G1 X128.810 Y141.680 E27.85037
G1 X38.920 Y141.670 E31.97553
G1 X38.390 Y141.630 E31.99992
G1 X37.870 Y141.540 E32.02414
G1 X37.360 Y141.410 E32.04830
G1 X36.620 Y141.140 E32.08444
G1 X36.150 Y140.910 E32.10846
G1 X35.700 Y140.640 E32.13254
G1 X35.480 Y140.490 E32.14476
G1 X35.070 Y140.170 E32.16863
G1 X34.680 Y139.810 E32.19298
G1 X34.320 Y139.420 E32.21734
G1 X34.000 Y139.010 E32.24121
G1 X33.710 Y138.570 E32.26539
G1 X33.460 Y138.110 E32.28942
G1 X33.160 Y137.380 E32.32564
G1 X32.950 Y136.620 E32.36182
G1 X32.860 Y136.100 E32.38604
G1 X32.810 Y135.310 E32.42237
G1 X32.820 Y79.400 E34.98814
G1 X32.910 Y78.580 E35.02600
G1 X32.960 Y78.310 E35.03860
G1 X33.100 Y77.780 E35.06376
G1 X33.290 Y77.260 E35.08916
G1 X49.351 Y46.087 E36.69847
G1 F1200.000 E35.69847
G92 E0
G1 X94.409 Y83.609 F10800.000
G1 F1200.000 E1.00000
G1 X94.409 Y86.391 F810.000 E1.12765
G1 X92.000 Y87.782 E1.25530
G1 X89.591 Y86.391 E1.38295
G1 X89.591 Y83.609 E1.51059
G1 X92.000 Y82.218 E1.63824
G1 X94.091 Y83.425 E1.74903
G1 X94.043 Y83.820 F10800.000
G1 X94.043 Y86.180 F810.000 E1.85730
G1 X92.000 Y87.359 E1.96557
G1 X89.957 Y86.180 E2.07385
G1 X89.957 Y83.820 E2.18212
G1 X92.000 Y82.641 E2.29039
G1 X93.725 Y83.637 E2.38180
G1 X93.678 Y84.031 F10800.000
G1 X93.678 Y85.969 F810.000 E2.47070
G1 X92.000 Y86.937 E2.55960
G1 X90.322 Y85.969 E2.64850
G1 X90.322 Y84.031 E2.73740
G1 X92.000 Y83.063 E2.82630
G1 X93.359 Y83.848 E2.89833
G1 F1200.000 E1.89833
G92 E0
G1 X91.335 Y96.084 F10800.000
G1 F1200.000 E1.00000
G1 X93.865 Y96.662 F810.000 E1.11909
G1 X94.991 Y99.000 E1.23819
G1 X93.865 Y101.338 E1.35728
G1 X91.335 Y101.916 E1.47637
G1 X89.306 Y100.298 E1.59547
G1 X89.306 Y97.702 E1.71456
G1 X91.047 Y96.314 E1.81679
G1 X91.425 Y96.480 F10800.000
G1 X93.612 Y96.979 F810.000 E1.91972
G1 X94.585 Y99.000 E2.02265
G1 X93.612 Y101.021 E2.12558
G1 X91.425 Y101.520 E2.22852
G1 X89.671 Y100.121 E2.33145
G1 X89.671 Y97.879 E2.43438
G1 X91.138 Y96.709 E2.52045
G1 X91.515 Y96.876 F10800.000
G1 X93.359 Y97.296 F810.000 E2.60722
G1 X94.179 Y99.000 E2.69399
G1 X93.359 Y100.704 E2.78076
G1 X91.515 Y101.124 E2.86754
G1 X90.037 Y99.945 E2.95431
G1 X90.037 Y98.055 E3.04108
G1 X91.228 Y97.105 E3.11099
G1 F1200.000 E2.11099
G92 E0
G1 X87.915 Y103.585 F10800.000
G1 F1200.000 E1.00000
G1 X87.915 Y80.415 F1080.000 E2.06330
G1 X96.085 Y80.415 E2.43823
G1 X96.085 Y103.585 E3.50153
G1 X88.282 Y103.585 E3.85960
G1 X87.549 Y103.951 F10800.000
G1 X87.549 Y80.049 F1080.000 E4.95645
G1 X96.451 Y80.049 E5.36494
G1 X96.451 Y103.951 E6.46180
G1 X87.917 Y103.951 E6.85342
G1 X87.184 Y104.316 F10800.000
G1 X87.184 Y79.684 F1080.000 E7.98384
G1 X96.816 Y79.684 E8.42589
G1 X96.816 Y104.316 E9.55630
G1 X87.551 Y104.316 E9.98148
G1 X88.465 Y103.538 F10800.000
G1 X88.097 Y102.901 F1350.000 E10.01542
G1 X88.097 Y102.165 F10800.000
G1 X88.890 Y103.538 F1350.000 E10.08857
G1 X89.315 Y103.538 F10800.000
G1 X88.097 Y101.429 F1350.000 E10.20093
G1 X88.096 Y100.694 F10800.000
G1 X89.739 Y103.538 F1350.000 E10.35251
G1 X90.164 Y103.538 F10800.000
G1 X88.096 Y99.958 F1350.000 E10.54331
G1 X88.096 Y99.222 F10800.000
G1 X90.588 Y103.538 F1350.000 E10.77332
G1 X91.013 Y103.538 F10800.000
G1 X89.320 Y100.605 F1350.000 E10.92958
G1 X89.124 Y100.265 F10800.000
G1 X88.096 Y98.486 F1350.000 E11.02438
G1 X88.097 Y97.750 F10800.000
G1 X89.124 Y99.529 F1350.000 E11.11917
G1 X89.124 Y98.793 F10800.000
G1 X88.097 Y97.014 F1350.000 E11.21397
G1 X88.097 Y96.278 F10800.000
G1 X89.124 Y98.057 F1350.000 E11.30877
G1 X89.331 Y97.680 F10800.000
G1 X88.097 Y95.542 F1350.000 E11.42269
G1 X88.097 Y94.806 F10800.000
G1 X89.622 Y97.448 F1350.000 E11.56345
G1 X89.913 Y97.216 F10800.000
G1 X88.097 Y94.070 F1350.000 E11.73107
G1 X88.097 Y93.334 F10800.000
G1 X90.204 Y96.984 F1350.000 E11.92553
G1 X90.495 Y96.752 F10800.000
G1 X88.097 Y92.598 F1350.000 E12.14685
G1 X88.097 Y91.862 F10800.000
G1 X90.786 Y96.519 F1350.000 E12.39502
G1 X91.077 Y96.287 F10800.000
G1 X88.097 Y91.126 F1350.000 E12.67004
G1 X88.097 Y90.391 F10800.000
G1 X91.368 Y96.055 F1350.000 E12.97192
G1 X91.816 Y96.095 F10800.000
G1 X88.097 Y89.655 F1350.000 E13.31514
G1 X88.097 Y88.919 F10800.000
G1 X92.305 Y96.207 F1350.000 E13.70353
G1 X92.794 Y96.319 F10800.000
G1 X88.097 Y88.183 F1350.000 E14.13709
G1 X88.097 Y87.447 F10800.000
G1 X93.284 Y96.430 F1350.000 E14.61581
G1 X93.773 Y96.542 F10800.000
G1 X88.097 Y86.711 F1350.000 E15.13971
G1 X88.096 Y85.975 F10800.000
G1 X94.262 Y96.654 F1350.000 E15.70877
G1 X94.104 Y96.381 F10800.000
G1 X95.903 Y99.497 F1350.000 E15.87478
G1 X95.904 Y100.232 F10800.000
G1 X95.120 Y98.875 F1350.000 E15.94712
G1 X94.927 Y99.276 F10800.000
G1 X95.904 Y100.968 F1350.000 E16.03729
G1 X95.904 Y101.704 F10800.000
G1 X94.733 Y99.677 F1350.000 E16.14530
G1 X94.540 Y100.078 F10800.000
G1 X95.903 Y102.440 F1350.000 E16.27114
G1 X95.903 Y103.176 F10800.000
G1 X94.347 Y100.480 F1350.000 E16.41481
G1 X94.154 Y100.881 F10800.000
G1 X95.687 Y103.538 F1350.000 E16.55638
G1 X95.262 Y103.538 F10800.000
G1 X93.960 Y101.282 F1350.000 E16.67657
G1 X93.610 Y101.411 F10800.000
G1 X94.838 Y103.538 F1350.000 E16.78991
G1 X94.413 Y103.538 F10800.000
G1 X93.234 Y101.497 F1350.000 E16.89867
G1 X92.859 Y101.582 F10800.000
G1 X93.988 Y103.538 F1350.000 E17.00287
G1 X93.563 Y103.538 F10800.000
G1 X92.483 Y101.668 F1350.000 E17.10251
G1 X92.108 Y101.754 F10800.000
G1 X93.138 Y103.538 F1350.000 E17.19758
G1 X92.713 Y103.538 F10800.000
G1 X91.732 Y101.839 F1350.000 E17.28808
G1 X91.357 Y101.925 F10800.000
G1 X92.288 Y103.538 F1350.000 E17.37402
G1 X91.863 Y103.538 F10800.000
G1 X90.895 Y101.861 F1350.000 E17.46336
G1 X90.108 Y101.233 E17.50984
G1 X91.438 Y103.538 E17.63265
G1 F1200.000 E16.63265
G92 E0
G1 X95.903 Y98.761 F10800.000
G1 F1200.000 E1.00000
G1 X88.096 Y85.240 F1350.000 E1.72053
G1 X88.096 Y84.504 F10800.000
G1 X89.409 Y86.777 F1350.000 E1.84168
G1 X89.803 Y86.723 F10800.000
G1 X95.903 Y97.289 F1350.000 E2.40472
G1 X95.903 Y96.553 F10800.000
G1 X90.440 Y87.091 F1350.000 E2.90894
G1 X91.078 Y87.459 F10800.000
G1 X95.903 Y95.817 F1350.000 E3.35433
G1 X95.903 Y95.081 F10800.000
G1 X91.715 Y87.827 F1350.000 E3.74090
G1 X92.084 Y87.731 F10800.000
G1 X95.903 Y94.345 F1350.000 E4.09339
G1 X95.903 Y93.609 F10800.000
G1 X92.403 Y87.547 F1350.000 E4.41647
G1 X92.722 Y87.363 F10800.000
G1 X95.903 Y92.873 F1350.000 E4.71013
G1 X95.903 Y92.137 F10800.000
G1 X93.040 Y87.179 F1350.000 E4.97438
G1 X93.359 Y86.995 F10800.000
G1 X95.903 Y91.402 F1350.000 E5.20922
G1 X95.903 Y90.666 F10800.000
G1 X93.678 Y86.811 F1350.000 E5.41465
G1 X93.996 Y86.627 F10800.000
G1 X95.903 Y89.930 F1350.000 E5.59067
G1 X95.903 Y89.194 F10800.000
G1 X94.315 Y86.443 F1350.000 E5.73728
G1 X94.591 Y86.184 F10800.000
G1 X95.903 Y88.458 F1350.000 E5.85843
G1 X95.904 Y87.722 F10800.000
G1 X94.591 Y85.448 F1350.000 E5.97958
G1 X94.591 Y84.713 F10800.000
G1 X95.904 Y86.986 F1350.000 E6.10074
G1 X95.904 Y86.250 F10800.000
G1 X94.591 Y83.977 F1350.000 E6.22189
G1 X94.819 Y83.636 F10800.000
G1 X92.987 Y80.462 F1350.000 E6.39101
G1 X93.411 Y80.463 F10800.000
G1 X95.903 Y84.779 F1350.000 E6.62102
G1 X95.904 Y85.514 F10800.000
G1 X94.591 Y83.241 F1350.000 E6.74217
G1 X94.182 Y83.268 F10800.000
G1 X92.562 Y80.462 F1350.000 E6.89169
G1 X92.137 Y80.462 F10800.000
G1 X93.544 Y82.900 F1350.000 E7.02160
G1 X92.907 Y82.532 F10800.000
G1 X91.712 Y80.462 F1350.000 E7.13190
G1 X91.287 Y80.462 F10800.000
G1 X92.270 Y82.164 F1350.000 E7.22259
G1 X91.908 Y82.274 F10800.000
G1 X90.862 Y80.462 F1350.000 E7.31914
G1 X90.437 Y80.462 F10800.000
G1 X91.589 Y82.458 F1350.000 E7.42548
G1 X91.271 Y82.642 F10800.000
G1 X90.012 Y80.462 F1350.000 E7.54162
G1 X89.587 Y80.462 F10800.000
G1 X90.952 Y82.826 F1350.000 E7.66757
G1 X90.633 Y83.010 F10800.000
G1 X89.163 Y80.462 F1350.000 E7.80333
G1 X88.738 Y80.462 F10800.000
G1 X90.315 Y83.194 F1350.000 E7.94888
G1 X89.996 Y83.378 F10800.000
G1 X88.313 Y80.462 F1350.000 E8.10424
G1 X88.097 Y80.824 F10800.000
G1 X89.677 Y83.562 F1350.000 E8.25013
G1 X89.409 Y83.833 F10800.000
G1 X88.097 Y81.560 F1350.000 E8.37128
G1 X88.097 Y82.296 F10800.000
G1 X89.409 Y84.569 F1350.000 E8.49244
G1 X89.409 Y85.305 F10800.000
G1 X88.097 Y83.032 F1350.000 E8.61359
G1 X88.096 Y83.768 F10800.000
G1 X89.409 Y86.041 F1350.000 E8.73474
G1 X89.165 Y86.355 F10800.000
G1 X95.903 Y98.025 F1350.000 E9.35660
G1 F1200.000 E8.35660
G92 E0
G1 X95.903 Y84.043 F10800.000
G1 F1200.000 E1.00000
G1 X93.836 Y80.462 F1350.000 E1.19080
G1 X94.261 Y80.462 F10800.000
G1 X95.903 Y83.307 F1350.000 E1.34237
G1 X95.903 Y82.571 F10800.000
G1 X94.686 Y80.462 F1350.000 E1.45473
G1 X95.110 Y80.462 F10800.000
G1 X95.903 Y81.835 F1350.000 E1.52788
G1 X95.903 Y81.099 F10800.000
G1 X95.535 Y80.462 F1350.000 E1.56182
G1 F1200.000 E0.56182
G92 E0
G1 X110.409 Y83.609 F10800.000
G1 F1200.000 E1.00000
G1 X110.409 Y86.391 F810.000 E1.12765
G1 X108.000 Y87.782 E1.25530
G1 X105.591 Y86.391 E1.38295
G1 X105.591 Y83.609 E1.51059
G1 X108.000 Y82.218 E1.63824
G1 X110.091 Y83.425 E1.74903
G1 X110.043 Y83.820 F10800.000
G1 X110.043 Y86.180 F810.000 E1.85730
G1 X108.000 Y87.359 E1.96557
G1 X105.957 Y86.180 E2.07385
G1 X105.957 Y83.820 E2.18212
G1 X108.000 Y82.641 E2.29039
G1 X109.725 Y83.637 E2.38180
G1 X109.678 Y84.031 F10800.000
G1 X109.678 Y85.969 F810.000 E2.47070
G1 X108.000 Y86.937 E2.55960
G1 X106.322 Y85.969 E2.64850
G1 X106.322 Y84.031 E2.73740
G1 X108.000 Y83.063 E2.82630
G1 X109.359 Y83.848 E2.89833
G1 F1200.000 E1.89833
G92 E0
G1 X107.335 Y96.084 F10800.000
G1 F1200.000 E1.00000
G1 X109.865 Y96.662 F810.000 E1.11909
G1 X110.991 Y99.000 E1.23819
G1 X109.865 Y101.338 E1.35728
G1 X107.335 Y101.916 E1.47637
G1 X105.306 Y100.298 E1.59547
G1 X105.306 Y97.702 E1.71456
G1 X107.047 Y96.314 E1.81679
G1 X107.425 Y96.480 F10800.000
G1 X109.612 Y96.979 F810.000 E1.91972
G1 X110.585 Y99.000 E2.02265
G1 X109.612 Y101.021 E2.12558
G1 X107.425 Y101.520 E2.22852
G1 X105.671 Y100.121 E2.33145
G1 X105.671 Y97.879 E2.43438
G1 X107.138 Y96.709 E2.52045
G1 X107.515 Y96.876 F10800.000
G1 X109.359 Y97.296 F810.000 E2.60722
G1 X110.179 Y99.000 E2.69399
G1 X109.359 Y100.704 E2.78076
G1 X107.515 Y101.124 E2.86754
G1 X106.037 Y99.945 E2.95431
G1 X106.037 Y98.055 E3.04108
G1 X107.228 Y97.105 E3.11099
G1 F1200.000 E2.11099
G92 E0
G1 X103.915 Y103.585 F10800.000
G1 F1200.000 E1.00000
G1 X103.915 Y80.415 F1080.000 E2.06330
G1 X112.085 Y80.415 E2.43823
G1 X112.085 Y103.585 E3.50153
G1 X104.282 Y103.585 E3.85960
G1 X103.549 Y103.951 F10800.000
G1 X103.549 Y80.049 F1080.000 E4.95645
G1 X112.451 Y80.049 E5.36494
G1 X112.451 Y103.951 E6.46180
G1 X103.917 Y103.951 E6.85342
G1 X103.184 Y104.316 F10800.000
G1 X103.184 Y79.684 F1080.000 E7.98384
G1 X112.816 Y79.684 E8.42589
G1 X112.816 Y104.316 E9.55630
G1 X103.551 Y104.316 E9.98148
G1 X104.465 Y103.538 F10800.000
G1 X104.097 Y102.901 F1350.000 E10.01542
G1 X104.097 Y102.165 F10800.000
G1 X104.890 Y103.538 F1350.000 E10.08857
G1 X105.315 Y103.538 F10800.000
G1 X104.097 Y101.429 F1350.000 E10.20093
G1 X104.096 Y100.694 F10800.000
G1 X105.739 Y103.538 F1350.000 E10.35251
G1 X106.164 Y103.538 F10800.000
G1 X104.096 Y99.958 F1350.000 E10.54331
G1 X104.096 Y99.222 F10800.000
G1 X106.588 Y103.538 F1350.000 E10.77332
G1 X107.013 Y103.538 F10800.000
G1 X105.320 Y100.605 F1350.000 E10.92958
G1 X105.124 Y100.265 F10800.000
G1 X104.096 Y98.486 F1350.000 E11.02438
G1 X104.097 Y97.750 F10800.000
G1 X105.124 Y99.529 F1350.000 E11.11917
G1 X105.124 Y98.793 F10800.000
G1 X104.097 Y97.014 F1350.000 E11.21397
G1 X104.097 Y96.278 F10800.000
G1 X105.124 Y98.057 F1350.000 E11.30877
G1 X105.331 Y97.680 F10800.000
