; generated by Slic3r 0.8.4 on 2012-11-07 at 13:03:42

; layer_height = .3
; perimeters = 3
; solid_layers = 3
; fill_density = .2
; nozzle_diameter = 0.34
; filament_diameter = 1.73
; extrusion_multiplier = 1
; perimeter_speed = 70
; infill_speed = 70
; travel_speed = 150
; scale = 1
; single wall width = 0.36mm

G28 ; home all axes
M106; Turn on fans
G90 ; use absolute coordinates
G21 ; set units to millimeters
G92 E0 ; reset extrusion distance
M82 ; use absolute distances for extrusion
G1 Z0.300 F9000.000
G1 X26.739 Y17.057
G1 F1800.000 E1.00000
G1 X36.069 Y7.727 F1260.000 E1.59504
G1 X36.429 Y7.427 E1.61617
G1 X37.009 Y7.057 E1.64719
G1 X37.649 Y6.777 E1.67870
G1 X38.089 Y6.647 E1.69939
G1 X38.539 Y6.557 E1.72008
G1 X38.769 Y6.527 E1.73054
G1 X39.229 Y6.507 E1.75131
G1 X108.899 Y6.527 E4.89321
G1 X109.359 Y6.597 E4.91419
G1 X109.809 Y6.707 E4.93508
G1 X110.019 Y6.777 E4.94506
G1 X110.449 Y6.957 E4.96609
G1 X110.859 Y7.177 E4.98707
G1 X111.049 Y7.297 E4.99720
G1 X111.599 Y7.727 E5.02869
G1 X121.069 Y17.207 E5.63297
G1 X121.379 Y17.587 E5.65509
G1 X143.569 Y56.147 E7.66140
G1 X143.669 Y56.357 E7.67189
G1 X143.839 Y56.797 E7.69316
G1 X147.349 Y69.307 E8.27911
G1 X147.399 Y69.557 E8.29061
G1 X147.449 Y70.067 E8.31372
G1 X147.449 Y145.437 E11.71267
G1 X147.399 Y145.927 E11.73488
G1 X147.359 Y146.167 E11.74585
G1 X147.229 Y146.637 E11.76784
G1 X147.149 Y146.867 E11.77883
G1 X146.949 Y147.317 E11.80103
G1 X140.759 Y158.047 E12.35967
G1 X140.629 Y158.237 E12.37005
G1 X140.189 Y158.767 E12.40112
G1 X139.669 Y159.227 E12.43243
G1 X139.289 Y159.487 E12.45319
G1 X138.889 Y159.717 E12.47400
G1 X138.469 Y159.897 E12.49460
G1 X125.559 Y163.377 E13.09759
G1 X125.069 Y163.447 E13.11991
G1 X124.579 Y163.477 E13.14205
G1 X66.979 Y163.467 E15.73963
G1 X66.489 Y163.417 E15.76184
G1 X66.249 Y163.377 E15.77281
G1 X65.539 Y163.167 E15.80620
G1 X65.099 Y162.967 E15.82800
G1 X44.879 Y151.287 E16.88106
G1 X44.479 Y150.997 E16.90334
G1 X44.289 Y150.837 E16.91454
G1 X43.949 Y150.497 E16.93622
G1 X43.789 Y150.307 E16.94742
G1 X43.499 Y149.907 E16.96971
G1 X26.029 Y119.657 E18.54504
G1 X25.829 Y119.207 E18.56725
G1 X25.679 Y118.747 E18.58907
G1 X25.619 Y118.507 E18.60023
G1 X25.549 Y118.017 E18.62255
G1 X25.519 Y117.527 E18.64469
G1 X25.539 Y19.757 E23.05381
G1 X25.609 Y19.297 E23.07479
G1 X25.719 Y18.857 E23.09524
G1 X25.789 Y18.637 E23.10566
G1 X26.069 Y17.997 E23.13716
G1 X26.439 Y17.417 E23.16818
G1 X26.705 Y17.098 E23.18690
G1 X26.839 Y17.477 F9000.000
G1 X27.139 Y17.137 F1260.000 E23.20735
G1 X36.149 Y8.127 E23.78198
G1 X36.489 Y7.827 E23.80243
G1 X36.669 Y7.687 E23.81271
G1 X37.049 Y7.437 E23.83322
G1 X37.249 Y7.327 E23.84352
G1 X37.669 Y7.147 E23.86412
G1 X37.889 Y7.067 E23.87468
G1 X38.329 Y6.947 E23.89525
G1 X38.779 Y6.877 E23.91579
G1 X39.229 Y6.857 E23.93610
G1 X108.899 Y6.877 E27.07800
G1 X109.349 Y6.947 E27.09854
G1 X109.789 Y7.067 E27.11910
G1 X110.419 Y7.327 E27.14984
G1 X110.619 Y7.437 E27.16013
G1 X110.999 Y7.687 E27.18064
G1 X111.179 Y7.827 E27.19093
G1 X120.809 Y17.437 E27.80446
G1 X121.089 Y17.797 E27.82503
G1 X121.339 Y18.177 E27.84554
G1 X143.249 Y56.307 E29.82875
G1 X143.349 Y56.507 E29.83883
G1 X143.569 Y57.107 E29.86765
G1 X147.009 Y69.387 E30.44276
G1 X147.079 Y69.847 E30.46374
G1 X147.109 Y70.327 E30.48543
G1 X147.099 Y145.437 E33.87266
G1 X147.079 Y145.687 E33.88397
G1 X147.039 Y145.947 E33.89583
G1 X146.929 Y146.437 E33.91848
G1 X146.849 Y146.677 E33.92989
G1 X146.649 Y147.137 E33.95251
G1 X140.459 Y157.867 E34.51114
G1 X140.329 Y158.057 E34.52153
G1 X140.189 Y158.237 E34.53181
G1 X139.889 Y158.577 E34.55226
G1 X139.549 Y158.877 E34.57271
G1 X139.369 Y159.017 E34.58299
G1 X138.989 Y159.267 E34.60350
G1 X138.789 Y159.377 E34.61380
G1 X138.159 Y159.637 E34.64453
G1 X125.489 Y163.037 E35.23613
G1 X125.039 Y163.107 E35.25666
G1 X124.579 Y163.127 E35.27743
G1 X66.979 Y163.117 E37.87501
G1 X66.719 Y163.097 E37.88677
G1 X66.229 Y163.007 E37.90923
G1 X65.979 Y162.947 E37.92083
G1 X65.739 Y162.867 E37.93224
G1 X65.279 Y162.667 E37.95486
G1 X45.259 Y151.117 E38.99717
G1 X44.839 Y150.837 E39.01994
G1 X44.639 Y150.677 E39.03149
G1 X44.449 Y150.507 E39.04299
G1 X44.279 Y150.337 E39.05383
G1 X44.109 Y150.147 E39.06533
G1 X43.949 Y149.947 E39.07688
G1 X43.669 Y149.527 E39.09964
G1 X26.329 Y119.477 E40.66423
G1 X26.129 Y119.017 E40.68685
G1 X26.049 Y118.777 E40.69826
G1 X25.939 Y118.287 E40.72091
G1 X25.899 Y118.037 E40.73233
G1 X25.869 Y117.527 E40.75537
G1 X25.889 Y19.767 E45.16404
G1 X25.959 Y19.317 E45.18457
G1 X26.079 Y18.877 E45.20514
G1 X26.159 Y18.657 E45.21570
G1 X26.339 Y18.237 E45.23631
G1 X26.449 Y18.037 E45.24660
G1 X26.699 Y17.657 E45.26711
G1 X26.806 Y17.519 E45.27498
G1 F1800.000 E44.27498
G92 E0
G1 X40.301 Y93.209 F9000.000
G1 F1800.000 E1.00000
G1 X43.186 Y90.324 F1170.000 E1.18400
G1 X47.266 Y90.324 E1.36800
G1 X50.151 Y93.209 E1.55199
G1 X50.151 Y97.289 E1.73599
G1 X47.266 Y100.174 E1.91999
G1 X43.186 Y100.174 E2.10399
G1 X40.301 Y97.289 E2.28798
G1 X40.301 Y93.263 E2.46957
G1 X40.651 Y93.354 F9000.000
G1 X43.331 Y90.674 F1170.000 E2.64047
G1 X47.121 Y90.674 E2.81138
G1 X49.801 Y93.354 E2.98229
G1 X49.801 Y97.144 E3.15320
G1 X47.121 Y99.824 E3.32411
G1 X43.331 Y99.824 E3.49502
G1 X40.651 Y97.144 E3.66593
G1 X40.651 Y93.408 E3.83443
G1 X41.002 Y93.499 F9000.000
G1 X43.476 Y91.025 F1170.000 E3.99225
G1 X46.976 Y91.025 E4.15007
G1 X49.450 Y93.499 E4.30789
G1 X49.450 Y96.999 E4.46571
G1 X46.976 Y99.473 E4.62354
G1 X43.476 Y99.473 E4.78136
G1 X41.002 Y96.999 E4.93918
G1 X41.002 Y93.553 E5.09459
G1 F1800.000 E4.09459
G92 E0
G1 X36.510 Y112.571 F9000.000
G1 F1800.000 E1.00000
G1 X56.160 Y112.571 F1260.000 E1.88613
G1 X56.160 Y120.471 E2.24243
G1 X58.625 Y124.687 E2.46264
G1 X64.977 Y128.353 E2.79339
G1 X55.274 Y145.158 E3.66847
G1 X47.064 Y140.418 E4.09602
G1 X36.510 Y122.139 E5.04787
G1 X36.510 Y112.624 E5.47697
G1 X36.861 Y112.921 F9000.000
G1 X55.809 Y112.921 F1260.000 E6.33150
G1 X55.809 Y120.566 E6.67628
G1 X58.369 Y124.944 E6.90496
G1 X64.498 Y128.482 E7.22409
G1 X55.146 Y144.680 E8.06758
G1 X47.320 Y140.162 E8.47510
G1 X36.861 Y122.046 E9.41848
G1 X36.861 Y112.975 E9.82754
G1 X37.211 Y113.271 F9000.000
G1 X55.459 Y113.271 F1260.000 E10.65048
G1 X55.459 Y120.661 E10.98374
G1 X58.114 Y125.201 E11.22089
G1 X64.019 Y128.610 E11.52841
G1 X55.018 Y144.201 E12.34030
G1 X47.577 Y139.905 E12.72779
G1 X37.211 Y121.952 E13.66270
G1 X37.211 Y113.325 E14.05173
G1 F1800.000 E13.05173
G92 E0
G1 X69.562 Y143.872 F9000.000
G1 F1800.000 E1.00000
G1 X72.447 Y140.987 F1170.000 E1.18400
G1 X76.527 Y140.987 E1.36799
G1 X79.412 Y143.872 E1.55199
G1 X79.412 Y147.952 E1.73599
G1 X76.527 Y150.837 E1.91999
G1 X72.447 Y150.837 E2.10399
G1 X69.562 Y147.952 E2.28798
G1 X69.562 Y143.926 E2.46957
G1 X69.912 Y144.017 F9000.000
G1 X72.592 Y141.337 F1170.000 E2.64047
G1 X76.382 Y141.337 E2.81138
G1 X79.062 Y144.017 E2.98229
G1 X79.062 Y147.807 E3.15320
G1 X76.382 Y150.487 E3.32411
G1 X72.592 Y150.487 E3.49502
G1 X69.912 Y147.807 E3.66593
G1 X69.912 Y144.071 E3.83443
G1 X70.263 Y144.162 F9000.000
G1 X72.737 Y141.688 F1170.000 E3.99225
G1 X76.237 Y141.688 E4.15007
G1 X78.711 Y144.162 E4.30789
G1 X78.711 Y147.662 E4.46571
G1 X76.237 Y150.136 E4.62354
G1 X72.737 Y150.136 E4.78136
G1 X70.263 Y147.662 E4.93918
G1 X70.263 Y144.216 E5.09459
G1 F1800.000 E4.09459
G92 E0
G1 X79.001 Y154.901 F9000.000
G1 F1800.000 E1.00000
G1 X67.333 Y158.027 F1260.000 E1.54473
G1 X65.785 Y157.133 E1.62532
G1 X65.785 Y157.133 E1.62532
G1 X47.960 Y146.843 E2.55352
G1 X31.109 Y117.655 E4.07344
G1 X31.109 Y117.655 E4.07344
G1 X30.928 Y117.342 E4.08970
G1 X30.928 Y95.373 E5.08046
G1 X39.522 Y86.779 E5.62853
G1 X50.798 Y86.779 E6.13707
G1 X59.522 Y95.503 E6.69343
G1 X59.522 Y114.990 E7.57225
G1 X59.321 Y115.339 E7.59041
G1 X64.193 Y123.669 E8.02555
G1 X65.089 Y124.186 E8.07220
G1 X65.089 Y124.186 E8.07220
G1 X65.946 Y124.681 E8.11686
G1 X65.946 Y124.681 E8.11686
G1 X81.431 Y133.620 E8.92318
G1 X84.661 Y145.096 E9.46081
G1 X79.027 Y154.855 E9.96896
G1 X79.231 Y155.202 F9000.000
G1 X67.284 Y158.403 F1260.000 E10.52678
G1 X67.006 Y158.242 E10.54124
G1 X67.006 Y158.242 E10.54124
G1 X66.136 Y157.740 E10.58655
G1 X66.136 Y157.740 E10.58655
G1 X47.704 Y147.099 E11.54634
G1 X30.711 Y117.667 E13.07900
G1 X30.711 Y117.667 E13.07900
G1 X30.578 Y117.436 E13.09100
G1 X30.578 Y95.228 E14.09253
G1 X39.377 Y86.429 E14.65369
G1 X50.943 Y86.429 E15.17531
G1 X59.872 Y95.358 E15.74476
G1 X59.872 Y115.248 E16.64178
G1 X59.778 Y115.248 E16.64605
G1 X59.726 Y115.338 E16.65069
G1 X64.448 Y123.412 E17.07249
G1 X64.738 Y123.579 E17.08759
G1 X64.738 Y123.579 E17.08759
G1 X65.596 Y124.074 E17.13225
G1 X65.596 Y124.074 E17.13225
G1 X81.729 Y133.388 E17.97237
G1 X85.038 Y145.143 E18.52308
G1 X79.258 Y155.155 E19.04444
G1 X79.515 Y155.411 F9000.000
G1 X79.462 Y155.503 F1260.000 E19.04921
G1 X67.234 Y158.779 E19.62012
G1 X66.486 Y158.347 E19.65907
G1 X66.486 Y158.347 E19.65907
G1 X47.447 Y147.356 E20.65046
G1 X30.313 Y117.678 E22.19585
G1 X30.313 Y117.678 E22.19585
G1 X30.227 Y117.530 E22.20358
G1 X30.227 Y95.083 E23.21589
G1 X39.232 Y86.079 E23.79014
G1 X51.088 Y86.079 E24.32485
G1 X60.222 Y95.213 E24.90739
G1 X60.222 Y115.492 E25.82194
G1 X60.285 Y115.599 E25.82750
G1 X60.285 Y115.599 E25.82750
G1 X64.704 Y123.155 E26.22224
G1 X64.883 Y123.258 E26.23156
G1 X64.883 Y123.258 E26.23156
G1 X65.246 Y123.467 E26.25045
G1 X65.246 Y123.467 E26.25045
G1 X82.028 Y133.156 E27.12436
G1 X85.415 Y145.190 E27.68817
G1 X79.542 Y155.365 E28.21795
G1 X78.926 Y154.579 F9000.000
G1 X76.788 Y150.876 F1350.000 E28.41077
G1 X76.488 Y151.064 F9000.000
G1 X78.633 Y154.780 F1350.000 E28.60426
G1 X78.280 Y154.874 F9000.000
G1 X76.080 Y151.064 F1350.000 E28.80267
G1 X75.672 Y151.064 F9000.000
G1 X77.927 Y154.969 F1350.000 E29.00604
G1 X77.574 Y155.064 F9000.000
G1 X75.265 Y151.064 F1350.000 E29.21432
G1 X74.857 Y151.064 F9000.000
G1 X77.221 Y155.158 F1350.000 E29.42752
G1 X76.868 Y155.253 F9000.000
G1 X74.449 Y151.063 F1350.000 E29.64568
G1 X74.042 Y151.063 F9000.000
G1 X76.515 Y155.347 F1350.000 E29.86876
G1 X76.162 Y155.441 F9000.000
G1 X73.634 Y151.064 F1350.000 E30.09671
G1 X73.227 Y151.064 F9000.000
G1 X75.809 Y155.536 F1350.000 E30.32961
G1 X75.456 Y155.631 F9000.000
G1 X72.819 Y151.064 F1350.000 E30.56744
G1 X72.411 Y151.063 F9000.000
G1 X75.103 Y155.726 F1350.000 E30.81022
G1 X74.749 Y155.820 F9000.000
G1 X71.692 Y150.526 F1350.000 E31.08592
G1 X70.727 Y149.561 F9000.000
G1 X74.396 Y155.915 F1350.000 E31.41678
G1 X74.043 Y156.010 F9000.000
G1 X69.763 Y148.596 F1350.000 E31.80284
G1 X69.283 Y147.765 F9000.000
G1 X61.657 Y134.556 F1350.000 E32.49068
G1 X61.860 Y134.203 F9000.000
G1 X69.283 Y147.059 F1350.000 E33.16013
G1 X69.283 Y146.353 F9000.000
G1 X62.064 Y133.850 F1350.000 E33.81122
G1 X62.269 Y133.497 F9000.000
G1 X69.284 Y145.646 F1350.000 E34.44386
G1 X69.283 Y144.940 F9000.000
G1 X62.473 Y133.144 F1350.000 E35.05811
G1 X62.677 Y132.791 F9000.000
G1 X69.283 Y144.234 F1350.000 E35.65400
G1 X69.402 Y143.733 F9000.000
G1 X62.880 Y132.437 F1350.000 E36.24218
G1 X63.084 Y132.084 F9000.000
G1 X69.660 Y143.474 F1350.000 E36.83528
G1 X69.918 Y143.215 F9000.000
G1 X63.288 Y131.731 F1350.000 E37.43329
G1 X63.491 Y131.378 F9000.000
G1 X70.177 Y142.957 F1350.000 E38.03626
G1 X70.435 Y142.698 F9000.000
G1 X63.696 Y131.026 F1350.000 E38.64411
G1 X63.899 Y130.672 F9000.000
G1 X70.694 Y142.441 F1350.000 E39.25691
G1 X70.952 Y142.182 F9000.000
G1 X64.103 Y130.319 F1350.000 E39.87463
G1 X64.307 Y129.966 F9000.000
G1 X71.210 Y141.923 F1350.000 E40.49726
G1 X71.470 Y141.665 F9000.000
G1 X64.511 Y129.612 F1350.000 E41.12486
G1 X64.715 Y129.259 F9000.000
G1 X71.728 Y141.406 F1350.000 E41.75737
G1 X71.987 Y141.148 F9000.000
G1 X64.919 Y128.906 F1350.000 E42.39484
G1 X65.123 Y128.554 F9000.000
G1 X72.245 Y140.889 F1350.000 E43.03718
G1 X72.578 Y140.760 F9000.000
G1 X65.327 Y128.201 F1350.000 E43.69120
G1 X65.356 Y128.251 F9000.000
G1 X56.439 Y112.806 F1350.000 E44.49544
G1 X56.580 Y112.344 F9000.000
G1 X48.826 Y98.914 F1350.000 E45.19479
G1 X48.568 Y99.173 F9000.000
G1 X56.172 Y112.344 F1350.000 E45.88065
G1 X56.438 Y112.100 F9000.000
G1 X72.986 Y140.760 F1350.000 E47.37311
G1 X73.393 Y140.761 F9000.000
G1 X49.084 Y98.656 F1350.000 E49.56566
G1 X49.343 Y98.398 F9000.000
G1 X59.092 Y115.284 F1350.000 E50.44498
G1 X59.243 Y114.839 F9000.000
G1 X49.601 Y98.139 F1350.000 E51.31461
G1 X49.860 Y97.881 F9000.000
G1 X59.243 Y114.133 F1350.000 E52.16088
G1 X59.244 Y113.426 F9000.000
G1 X50.119 Y97.622 F1350.000 E52.98388
G1 X50.377 Y97.363 F9000.000
G1 X59.243 Y112.720 F1350.000 E53.78357
G1 X59.244 Y112.014 F9000.000
G1 X50.430 Y96.749 F1350.000 E54.57847
G1 X50.430 Y96.043 F9000.000
G1 X59.243 Y111.308 F1350.000 E55.37338
G1 X59.243 Y110.601 F9000.000
G1 X50.430 Y95.337 F1350.000 E56.16824
G1 X50.430 Y94.631 F9000.000
G1 X59.243 Y109.896 F1350.000 E56.96314
G1 X59.243 Y109.189 F9000.000
G1 X50.430 Y93.924 F1350.000 E57.75805
G1 X50.430 Y93.218 F9000.000
G1 X59.243 Y108.483 F1350.000 E58.55295
G1 X59.243 Y107.777 F9000.000
G1 X47.250 Y87.006 F1350.000 E59.63458
G1 X47.658 Y87.006 F9000.000
G1 X59.243 Y107.071 F1350.000 E60.67946
G1 X59.243 Y106.365 F9000.000
G1 X48.066 Y87.006 F1350.000 E61.68754
G1 X48.474 Y87.006 F9000.000
G1 X59.243 Y105.658 F1350.000 E62.65881
G1 X59.243 Y104.952 F9000.000
G1 X48.882 Y87.006 F1350.000 E63.59334
G1 X49.289 Y87.005 F9000.000
G1 X59.243 Y104.246 F1350.000 E64.49111
G1 X59.243 Y103.540 F9000.000
G1 X49.697 Y87.005 F1350.000 E65.35213
G1 X50.105 Y87.005 F9000.000
G1 X59.243 Y102.833 F1350.000 E66.17634
G1 X59.243 Y102.127 F9000.000
G1 X50.512 Y87.006 F1350.000 E66.96376
G1 X51.383 Y87.807 F9000.000
G1 X59.243 Y101.421 F1350.000 E67.67271
G1 X59.243 Y100.715 F9000.000
G1 X52.347 Y88.771 F1350.000 E68.29467
G1 X53.312 Y89.736 F9000.000
G1 X59.243 Y100.009 F1350.000 E68.82964
G1 X59.243 Y99.303 F9000.000
G1 X54.276 Y90.701 F1350.000 E69.27757
G1 X55.242 Y91.665 F9000.000
G1 X59.244 Y98.597 F1350.000 E69.63850
G1 X59.243 Y97.890 F9000.000
G1 X56.206 Y92.629 F1350.000 E69.91245
G1 X57.171 Y93.594 F9000.000
G1 X59.243 Y97.184 F1350.000 E70.09936
G1 X59.243 Y96.478 F9000.000
G1 X58.136 Y94.559 F1350.000 E70.19927
G1 X59.100 Y95.524 F9000.000
G1 X59.243 Y95.771 F1350.000 E70.21215
G1 F1800.000 E69.21215
G92 E0
G1 X50.193 Y92.808 F9000.000
G1 F1800.000 E1.00000
G1 X46.843 Y87.005 F1350.000 E1.30218
G1 X46.435 Y87.005 F9000.000
G1 X49.228 Y91.843 F1350.000 E1.55411
G1 X48.264 Y90.879 F9000.000
G1 X46.028 Y87.006 F1350.000 E1.75577
G1 X45.620 Y87.006 F9000.000
G1 X47.405 Y90.097 F1350.000 E1.91675
G1 X46.997 Y90.097 F9000.000
G1 X45.212 Y87.006 F1350.000 E2.07773
G1 X44.805 Y87.006 F9000.000
G1 X46.590 Y90.097 F1350.000 E2.23870
G1 X46.182 Y90.098 F9000.000
G1 X44.397 Y87.005 F1350.000 E2.39973
G1 X43.989 Y87.005 F9000.000
G1 X45.775 Y90.097 F1350.000 E2.56075
G1 X45.366 Y90.098 F9000.000
G1 X43.581 Y87.006 F1350.000 E2.72177
G1 X43.174 Y87.006 F9000.000
G1 X44.958 Y90.098 F1350.000 E2.88275
G1 X44.551 Y90.097 F9000.000
G1 X42.766 Y87.006 F1350.000 E3.04373
G1 X42.358 Y87.006 F9000.000
G1 X44.143 Y90.097 F1350.000 E3.20470
G1 X43.735 Y90.097 F9000.000
G1 X41.950 Y87.006 F1350.000 E3.36568
G1 X41.543 Y87.006 F9000.000
G1 X43.328 Y90.098 F1350.000 E3.52671
G1 X42.990 Y90.219 F9000.000
G1 X41.135 Y87.005 F1350.000 E3.69404
G1 X40.727 Y87.006 F9000.000
G1 X42.732 Y90.478 F1350.000 E3.87484
G1 X42.474 Y90.736 F9000.000
G1 X40.320 Y87.006 F1350.000 E4.06912
G1 X39.912 Y87.005 E4.08751
G1 X42.215 Y90.994 E4.29522
G1 X41.956 Y91.254 F9000.000
G1 X39.537 Y87.064 F1350.000 E4.51339
G1 X39.279 Y87.322 E4.52987
