; generated by Slic3r 0.9.3 on 2012-11-09 at 18:50:25

; layer_height = 0.33
; perimeters = 3
; solid_layers = 3
; fill_density = 0.20
; perimeter_speed = 50
; infill_speed = 75
; travel_speed = 170
; scale = 1
; nozzle_diameter = 0.35
; filament_diameter = 1.74
; extrusion_multiplier = 1
; single wall width = 0.37mm

G28 ; home all axes
G90 ; use absolute coordinates
G21 ; set units to millimeters
G92 E0
M82 ; use absolute distances for extrusion
G1 F1200.000 E-1.00000
G92 E0
G1 Z0.330 F10200.000
G1 X59.745 Y59.929
G1 F1200.000 E1.00000
G1 X69.094 Y50.608 F900.000 E1.66643
G1 X69.764 Y50.108 E1.70863
G1 X70.484 Y49.699 E1.75045
G1 X71.255 Y49.379 E1.79255
G1 X71.794 Y49.218 E1.82098
G1 X72.335 Y49.108 E1.84880
G1 X72.885 Y49.038 E1.87678
G1 X73.165 Y49.019 E1.89095
G1 X85.495 Y49.019 E2.51338
G1 X86.325 Y49.108 E2.55552
G1 X86.864 Y49.218 E2.58334
G1 X87.404 Y49.379 E2.61177
G1 X88.174 Y49.699 E2.65386
G1 X88.894 Y50.108 E2.69569
G1 X89.564 Y50.608 E2.73789
G1 X99.285 Y60.319 E3.43144
G1 X99.734 Y60.868 E3.46732
G1 X99.935 Y61.159 E3.48510
G1 X122.095 Y99.728 E5.73060
G1 X122.244 Y100.029 E5.74753
G1 X122.375 Y100.328 E5.76404
G1 X126.024 Y113.189 E6.43886
G1 X126.135 Y113.738 E6.46717
G1 X126.195 Y114.298 E6.49560
G1 X126.205 Y114.869 E6.52438
G1 X126.174 Y115.429 E6.55269
G1 X126.034 Y116.268 E6.59568
G1 X125.784 Y117.078 E6.63847
G1 X125.685 Y117.349 E6.65300
G1 X125.445 Y117.858 E6.68146
G1 X119.255 Y128.578 E7.30634
G1 X118.765 Y129.259 E7.34865
G1 X118.195 Y129.868 E7.39080
G1 X117.985 Y130.058 E7.40509
G1 X117.554 Y130.399 E7.43276
G1 X116.845 Y130.858 E7.47547
G1 X116.355 Y131.108 E7.50324
G1 X115.834 Y131.319 E7.53155
G1 X102.605 Y134.858 E8.22290
G1 X102.054 Y134.928 E8.25088
G1 X101.495 Y134.959 E8.27919
G1 X101.225 Y134.959 E8.29282
G1 X100.665 Y134.918 E8.32116
G1 X100.114 Y134.839 E8.34922
G1 X99.575 Y134.709 E8.37726
G1 X98.794 Y134.428 E8.41909
G1 X98.544 Y134.319 E8.43288
G1 X78.075 Y122.519 E9.62561
G1 X77.364 Y121.998 E9.67003
G1 X76.935 Y121.599 E9.69968
G1 X76.534 Y121.168 E9.72933
G1 X76.014 Y120.459 E9.77375
G1 X58.535 Y90.179 E11.53871
G1 X58.285 Y89.648 E11.56829
G1 X58.175 Y89.368 E11.58347
G1 X57.935 Y88.529 E11.62757
G1 X57.874 Y88.239 E11.64252
G1 X57.794 Y87.659 E11.67208
G1 X57.775 Y64.409 E12.84575
G1 X57.865 Y63.578 E12.88789
G1 X57.974 Y63.038 E12.91571
G1 X58.135 Y62.499 E12.94414
G1 X58.455 Y61.728 E12.98623
G1 X58.865 Y61.008 E13.02806
G1 X59.365 Y60.338 E13.07026
G1 X59.493 Y60.196 E13.07993
G1 X59.815 Y60.389 F10200.000
G1 X69.355 Y50.868 F900.000 E13.76028
G1 X69.564 Y50.699 E13.77392
G1 X70.025 Y50.379 E13.80220
G1 X70.505 Y50.099 E13.83026
G1 X71.005 Y49.868 E13.85804
G1 X71.794 Y49.599 E13.90018
G1 X72.335 Y49.478 E13.92811
G1 X73.165 Y49.389 E13.97025
G1 X73.445 Y49.379 E13.98439
G1 X85.495 Y49.389 E14.59268
G1 X86.325 Y49.478 E14.63483
G1 X86.864 Y49.599 E14.66275
G1 X87.394 Y49.769 E14.69085
G1 X87.904 Y49.978 E14.71869
G1 X88.154 Y50.099 E14.73269
G1 X88.635 Y50.379 E14.76074
G1 X89.094 Y50.699 E14.78903
G1 X89.305 Y50.868 E14.80267
G1 X99.014 Y60.559 E15.49515
G1 X99.435 Y61.078 E15.52889
G1 X99.804 Y61.648 E15.56320
G1 X121.774 Y99.888 E17.78947
G1 X122.035 Y100.469 E17.82156
G1 X125.725 Y113.529 E18.50664
G1 X125.774 Y113.798 E18.52050
G1 X125.825 Y114.328 E18.54738
G1 X125.834 Y114.858 E18.57414
G1 X125.804 Y115.399 E18.60144
G1 X125.774 Y115.659 E18.61465
G1 X125.674 Y116.189 E18.64188
G1 X125.534 Y116.699 E18.66857
G1 X125.235 Y117.449 E18.70935
G1 X118.935 Y128.399 E19.34707
G1 X118.445 Y129.069 E19.38897
G1 X118.065 Y129.479 E19.41719
G1 X117.655 Y129.858 E19.44541
G1 X117.445 Y130.029 E19.45905
G1 X116.985 Y130.349 E19.48733
G1 X116.505 Y130.629 E19.51539
G1 X116.005 Y130.858 E19.54317
G1 X115.215 Y131.129 E19.58531
G1 X102.524 Y134.498 E20.24811
G1 X101.975 Y134.569 E20.27610
G1 X101.415 Y134.599 E20.30441
G1 X100.584 Y134.539 E20.34642
G1 X100.315 Y134.498 E20.36020
G1 X99.764 Y134.379 E20.38861
G1 X99.234 Y134.209 E20.41671
G1 X98.725 Y133.998 E20.44455
G1 X98.475 Y133.879 E20.45855
G1 X78.275 Y122.209 E21.63619
G1 X77.814 Y121.888 E21.66448
G1 X77.605 Y121.718 E21.67812
G1 X77.195 Y121.339 E21.70634
G1 X76.814 Y120.929 E21.73456
G1 X76.644 Y120.718 E21.74819
G1 X76.325 Y120.259 E21.77648
G1 X58.855 Y90.008 E23.53987
G1 X58.624 Y89.508 E23.56766
G1 X58.355 Y88.719 E23.60980
G1 X58.234 Y88.179 E23.63772
G1 X58.145 Y87.349 E23.67987
G1 X58.145 Y64.409 E24.83789
G1 X58.234 Y63.578 E24.88003
G1 X58.355 Y63.038 E24.90796
G1 X58.525 Y62.508 E24.93605
G1 X58.734 Y61.999 E24.96389
G1 X58.855 Y61.749 E24.97789
G1 X59.135 Y61.269 E25.00595
G1 X59.455 Y60.809 E25.03423
G1 X59.571 Y60.664 E25.04362
G1 F1200.000 E24.04362
G92 E0
G1 X74.341 Y62.721 F10200.000
G1 F1200.000 E1.00000
G1 X77.305 Y59.757 F900.000 E1.21164
G1 X81.498 Y59.757 E1.42328
G1 X84.462 Y62.721 E1.63493
G1 X84.462 Y66.914 E1.84657
G1 X81.498 Y69.878 E2.05821
G1 X77.305 Y69.878 E2.26986
G1 X74.341 Y66.914 E2.48150
G1 X74.341 Y63.089 E2.67459
G1 X74.706 Y62.873 F10200.000
G1 X77.457 Y60.122 F900.000 E2.87094
G1 X81.346 Y60.122 E3.06729
G1 X84.097 Y62.873 E3.26365
G1 X84.097 Y66.762 E3.46000
G1 X81.346 Y69.513 E3.65635
G1 X77.457 Y69.513 E3.85271
G1 X74.706 Y66.762 E4.04906
G1 X74.706 Y63.240 E4.22686
G1 X75.072 Y63.024 F10200.000
G1 X77.608 Y60.488 F900.000 E4.40793
G1 X81.195 Y60.488 E4.58899
G1 X83.731 Y63.024 E4.77005
G1 X83.731 Y66.611 E4.95111
G1 X81.195 Y69.147 E5.13218
G1 X77.608 Y69.147 E5.31324
G1 X75.072 Y66.611 E5.49430
G1 X75.072 Y63.392 E5.65681
G1 F1200.000 E4.65681
G92 E0
G1 X70.550 Y82.010 F10200.000
G1 F1200.000 E1.00000
G1 X90.471 Y82.010 F900.000 E2.00563
G1 X90.471 Y90.003 E2.40914
G1 X92.900 Y94.155 E2.65197
G1 X99.332 Y97.869 E3.02692
G1 X89.494 Y114.909 E4.02019
G1 X81.140 Y110.086 E4.50716
G1 X70.550 Y91.744 E5.57630
G1 X70.550 Y82.377 E6.04916
G1 X70.916 Y82.375 F10200.000
G1 X90.105 Y82.375 F900.000 E7.01787
G1 X90.105 Y90.102 E7.40794
G1 X92.633 Y94.424 E7.66065
G1 X98.833 Y98.003 E8.02204
G1 X89.360 Y114.410 E8.97839
G1 X81.407 Y109.818 E9.44196
G1 X70.916 Y91.646 E10.50121
G1 X70.916 Y82.743 E10.95067
G1 X71.281 Y82.741 F10200.000
G1 X89.740 Y82.741 F900.000 E11.88247
G1 X89.740 Y90.201 E12.25907
G1 X92.366 Y94.692 E12.52168
G1 X92.599 Y94.826 E12.53524
G1 X92.599 Y94.826 E12.53524
G1 X98.333 Y98.137 E12.86950
G1 X89.226 Y113.910 E13.78894
G1 X81.675 Y109.551 E14.22911
G1 X71.281 Y91.548 E15.27847
G1 X71.281 Y83.108 E15.70452
G1 F1200.000 E14.70452
G92 E0
G1 X103.602 Y113.384 F10200.000
G1 F1200.000 E1.00000
G1 X106.566 Y110.420 F900.000 E1.21164
G1 X110.759 Y110.420 E1.42329
G1 X113.723 Y113.384 E1.63493
G1 X113.723 Y117.577 E1.84657
G1 X110.759 Y120.541 E2.05822
G1 X106.566 Y120.541 E2.26986
G1 X103.602 Y117.577 E2.48150
G1 X103.602 Y113.752 E2.67459
G1 X103.967 Y113.536 F10200.000
G1 X106.718 Y110.785 F900.000 E2.87095
G1 X110.607 Y110.785 E3.06730
G1 X113.358 Y113.536 E3.26365
G1 X113.358 Y117.425 E3.46001
G1 X110.607 Y120.176 E3.65636
G1 X106.718 Y120.176 E3.85271
G1 X103.967 Y117.425 E4.04907
G1 X103.967 Y113.903 E4.22687
G1 X104.333 Y113.687 F10200.000
G1 X106.869 Y111.151 F900.000 E4.40793
G1 X110.456 Y111.151 E4.58899
G1 X112.992 Y113.687 E4.77006
G1 X112.992 Y117.274 E4.95112
G1 X110.456 Y119.810 E5.13218
G1 X106.869 Y119.810 E5.31325
G1 X104.333 Y117.274 E5.49431
G1 X104.333 Y114.055 E5.65682
G1 F1200.000 E4.65682
G92 E0
G1 X113.087 Y124.353 F10200.000
G1 F1200.000 E1.00000
G1 X101.528 Y127.450 F900.000 E1.60407
G1 X82.235 Y116.312 E2.72861
G1 X65.239 Y86.874 E4.44450
G1 X65.239 Y64.998 E5.54885
G1 X73.754 Y56.483 E6.15667
G1 X84.917 Y56.483 E6.72023
G1 X93.562 Y65.128 E7.33732
G1 X93.562 Y85.287 E8.35500
G1 X98.269 Y93.337 E8.82572
G1 X115.491 Y103.279 E9.82954
G1 X118.690 Y114.646 E10.42566
G1 X113.270 Y124.034 E10.97290
G1 X113.327 Y124.667 F10200.000
G1 X101.476 Y127.842 F900.000 E11.59226
G1 X81.968 Y116.579 E12.72938
G1 X64.874 Y86.972 E14.45517
G1 X64.874 Y64.846 E15.57211
G1 X73.602 Y56.118 E16.19521
G1 X85.069 Y56.118 E16.77406
G1 X93.927 Y64.976 E17.40645
G1 X93.927 Y85.188 E18.42677
G1 X98.536 Y93.068 E18.88760
G1 X115.142 Y102.655 E19.85555
G1 X115.142 Y102.655 E19.85555
G1 X115.802 Y103.037 E19.89404
G1 X119.084 Y114.695 E20.50545
G1 X113.511 Y124.348 E21.06811
G1 X113.606 Y124.915 F10200.000
G1 X113.568 Y124.981 F900.000 E21.07196
G1 X101.424 Y128.234 E21.70660
G1 X81.700 Y116.847 E22.85632
G1 X64.508 Y87.070 E24.59199
G1 X64.508 Y64.695 E25.72152
G1 X73.451 Y55.752 E26.35992
G1 X85.220 Y55.752 E26.95406
G1 X94.293 Y64.825 E27.60174
G1 X94.293 Y85.089 E28.62470
G1 X98.802 Y92.800 E29.07564
G1 X116.114 Y102.794 E30.08470
G1 X119.478 Y114.745 E30.71140
G1 X113.790 Y124.597 E31.28565
G1 X113.146 Y124.156 F10200.000
G1 X110.955 Y120.361 F1350.000 E31.50842
G1 X110.660 Y120.589 F10200.000
G1 X112.862 Y124.402 F1350.000 E31.73225
G1 X112.493 Y124.501 F10200.000
G1 X110.234 Y120.589 F1350.000 E31.96188
G1 X109.809 Y120.589 F10200.000
G1 X112.125 Y124.600 F1350.000 E32.19736
G1 X111.756 Y124.699 F10200.000
G1 X109.383 Y120.589 F1350.000 E32.43863
G1 X108.958 Y120.589 F10200.000
G1 X111.388 Y124.797 F1350.000 E32.68565
G1 X111.019 Y124.896 F10200.000
G1 X108.532 Y120.589 F1350.000 E32.93846
G1 X108.107 Y120.589 F10200.000
G1 X110.650 Y124.994 F1350.000 E33.19707
G1 X110.282 Y125.094 F10200.000
G1 X107.681 Y120.589 F1350.000 E33.46152
G1 X107.256 Y120.588 F10200.000
G1 X109.914 Y125.192 F1350.000 E33.73177
G1 X109.545 Y125.291 F10200.000
G1 X106.830 Y120.589 F1350.000 E34.00776
G1 X106.405 Y120.589 F10200.000
G1 X109.176 Y125.389 F1350.000 E34.28955
G1 X108.808 Y125.489 F10200.000
G1 X105.634 Y119.992 F1350.000 E34.61222
G1 X104.627 Y118.986 E34.68459
G1 X108.439 Y125.587 E35.07212
G1 X108.071 Y125.686 F10200.000
G1 X103.621 Y117.978 F1350.000 E35.52457
G1 X103.420 Y117.631 F10200.000
G1 X95.699 Y104.257 F1350.000 E36.30964
G1 X95.911 Y103.889 F10200.000
G1 X103.419 Y116.893 F1350.000 E37.07301
G1 X103.420 Y116.156 F10200.000
G1 X96.124 Y103.520 F1350.000 E37.81477
G1 X96.337 Y103.151 F10200.000
G1 X103.420 Y115.419 F1350.000 E38.53493
G1 X103.420 Y114.682 F10200.000
G1 X96.550 Y102.783 F1350.000 E39.23343
G1 X96.763 Y102.415 F10200.000
G1 X103.420 Y113.945 F1350.000 E39.91027
G1 X103.545 Y113.426 F10200.000
G1 X96.975 Y102.046 F1350.000 E40.57827
G1 X97.188 Y101.677 F10200.000
G1 X103.815 Y113.155 F1350.000 E41.25206
G1 X104.085 Y112.886 F10200.000
G1 X97.401 Y101.309 F1350.000 E41.93165
G1 X97.614 Y100.940 F10200.000
G1 X104.355 Y112.616 F1350.000 E42.61708
G1 X104.624 Y112.347 F10200.000
G1 X97.826 Y100.572 F1350.000 E43.30826
G1 X98.039 Y100.203 F10200.000
G1 X104.894 Y112.076 F1350.000 E44.00524
G1 X105.164 Y111.807 F10200.000
G1 X98.252 Y99.835 F1350.000 E44.70801
G1 X98.465 Y99.466 F10200.000
G1 X105.434 Y111.537 F1350.000 E45.41662
G1 X105.704 Y111.267 F10200.000
G1 X98.678 Y99.098 F1350.000 E46.13098
G1 X98.890 Y98.729 F10200.000
G1 X105.973 Y110.997 F1350.000 E46.85114
G1 X106.244 Y110.727 F10200.000
G1 X99.104 Y98.360 F1350.000 E47.57709
G1 X99.316 Y97.992 F10200.000
G1 X106.513 Y110.458 F1350.000 E48.30889
G1 X106.890 Y110.372 F10200.000
G1 X99.529 Y97.623 F1350.000 E49.05731
G1 X99.658 Y97.847 F10200.000
G1 X90.653 Y82.250 F1350.000 E49.97290
G1 X90.487 Y81.962 F10200.000
G1 X82.779 Y68.612 F1350.000 E50.75659
G1 X83.049 Y68.342 F10200.000
G1 X90.912 Y81.963 F1350.000 E51.55612
G1 X90.653 Y81.513 F10200.000
G1 X107.315 Y110.373 F1350.000 E53.25025
G1 X107.741 Y110.372 F10200.000
G1 X97.905 Y93.336 F1350.000 E54.25027
G1 X98.543 Y93.705 F10200.000
G1 X108.166 Y110.372 F1350.000 E55.22867
G1 X108.592 Y110.372 F10200.000
G1 X99.182 Y94.073 F1350.000 E56.18545
G1 X99.819 Y94.442 F10200.000
G1 X109.017 Y110.373 F1350.000 E57.12062
G1 X109.443 Y110.372 F10200.000
G1 X100.458 Y94.810 F1350.000 E58.03411
G1 X101.097 Y95.179 F10200.000
G1 X109.869 Y110.372 F1350.000 E58.92599
G1 X110.294 Y110.372 F10200.000
G1 X101.735 Y95.547 F1350.000 E59.79624
G1 X102.373 Y95.916 F10200.000
G1 X110.720 Y110.372 F1350.000 E60.64486
G1 X111.215 Y110.493 F10200.000
G1 X103.011 Y96.284 F1350.000 E61.47894
G1 X103.650 Y96.652 F10200.000
G1 X112.222 Y111.500 F1350.000 E62.35054
G1 X113.228 Y112.507 E62.42290
G1 X104.288 Y97.022 E63.33192
G1 X104.926 Y97.390 F10200.000
G1 X114.235 Y113.513 F1350.000 E64.27840
G1 X113.905 Y113.679 F10200.000
G1 X116.549 Y118.259 F1350.000 E64.54728
G1 X116.337 Y118.628 F10200.000
G1 X113.906 Y114.416 F1350.000 E64.79450
G1 X113.905 Y115.153 F10200.000
G1 X116.124 Y118.997 F1350.000 E65.02011
G1 X115.912 Y119.365 F10200.000
G1 X113.905 Y115.890 F1350.000 E65.22412
G1 X113.905 Y116.628 F10200.000
G1 X115.698 Y119.733 F1350.000 E65.40642
G1 X115.486 Y120.102 F10200.000
G1 X113.906 Y117.364 F1350.000 E65.56712
G1 X113.652 Y117.663 F10200.000
G1 X115.273 Y120.471 F1350.000 E65.73193
G1 X115.060 Y120.840 F10200.000
G1 X113.382 Y117.933 F1350.000 E65.90254
G1 X113.113 Y118.203 F10200.000
G1 X114.848 Y121.208 F1350.000 E66.07894
G1 X114.634 Y121.576 F10200.000
G1 X112.842 Y118.472 F1350.000 E66.26114
G1 X112.573 Y118.742 F10200.000
G1 X114.422 Y121.945 F1350.000 E66.44914
G1 X114.209 Y122.314 F10200.000
G1 X112.303 Y119.012 F1350.000 E66.64293
G1 X112.034 Y119.282 F10200.000
G1 X113.997 Y122.682 F1350.000 E66.84251
G1 X113.784 Y123.051 F10200.000
G1 X111.763 Y119.551 F1350.000 E67.04794
G1 X111.494 Y119.821 F10200.000
G1 X113.571 Y123.419 F1350.000 E67.25912
G1 X113.358 Y123.788 F10200.000
G1 X111.224 Y120.091 F1350.000 E67.47609
G1 X116.762 Y117.890 F10200.000
G1 X113.905 Y112.942 F1350.000 E67.76658
G1 X118.252 Y115.311 F10200.000
G1 X109.395 Y99.969 F1350.000 E68.66715
G1 X110.032 Y100.338 F10200.000
G1 X118.464 Y114.942 F1350.000 E69.52447
G1 X118.039 Y115.680 F10200.000
G1 X108.756 Y99.601 F1350.000 E70.46830
G1 X108.117 Y99.232 F10200.000
G1 X117.826 Y116.048 F1350.000 E71.45541
G1 X117.613 Y116.416 F10200.000
G1 X107.479 Y98.864 F1350.000 E72.48577
G1 X106.841 Y98.496 F10200.000
G1 X117.400 Y116.785 F1350.000 E73.55939
G1 X117.188 Y117.154 F10200.000
G1 X106.203 Y98.126 F1350.000 E74.67633
G1 X105.564 Y97.758 F10200.000
G1 X116.975 Y117.523 F1350.000 E75.83653
G1 F1200.000 E74.83653
G92 E0
G1 X107.702 Y125.784 F10200.000
G1 F1200.000 E1.00000
G1 X95.486 Y104.626 F1350.000 E2.24205
G1 X95.273 Y104.994 F10200.000
G1 X107.334 Y125.883 F1350.000 E3.46829
G1 X106.965 Y125.982 F10200.000
G1 X95.060 Y105.363 F1350.000 E4.67866
G1 X94.848 Y105.731 F10200.000
G1 X106.597 Y126.080 F1350.000 E5.87318
G1 X106.228 Y126.179 F10200.000
G1 X94.635 Y106.100 F1350.000 E7.05188
G1 X94.422 Y106.468 F10200.000
G1 X105.860 Y126.278 F1350.000 E8.21478
G1 X105.491 Y126.377 F10200.000
G1 X94.209 Y106.837 F1350.000 E9.36181
G1 X93.997 Y107.205 F10200.000
G1 X105.123 Y126.475 F1350.000 E10.49299
G1 X104.754 Y126.574 F10200.000
G1 X93.784 Y107.574 F1350.000 E11.60835
G1 X93.570 Y107.943 F10200.000
G1 X104.385 Y126.674 F1350.000 E12.70790
G1 X104.017 Y126.772 F10200.000
G1 X93.358 Y108.311 F1350.000 E13.79159
G1 X93.145 Y108.680 F10200.000
G1 X103.648 Y126.871 F1350.000 E14.85942
G1 X103.279 Y126.969 F10200.000
G1 X92.933 Y109.048 F1350.000 E15.91139
G1 X92.719 Y109.417 F10200.000
G1 X102.910 Y127.068 F1350.000 E16.94755
G1 X102.543 Y127.167 F10200.000
G1 X92.507 Y109.785 F1350.000 E17.96790
G1 X92.294 Y110.154 F10200.000
G1 X102.174 Y127.266 F1350.000 E18.97238
G1 X101.805 Y127.364 F10200.000
G1 X92.082 Y110.522 F1350.000 E19.96101
G1 X91.868 Y110.891 F10200.000
G1 X101.198 Y127.050 F1350.000 E20.90958
G1 X100.560 Y126.680 F10200.000
G1 X91.656 Y111.259 F1350.000 E21.81483
G1 X91.443 Y111.628 F10200.000
G1 X99.921 Y126.312 F1350.000 E22.67682
