; generated by Slic3r 0.9.3 on 2012-11-06 at 14:25:37

; layer_height = 0.33
; perimeters = 3
; solid_layers = 3
; fill_density = 0.20
; perimeter_speed = 50
; infill_speed = 75
; travel_speed = 160
; scale = 1
; nozzle_diameter = 0.35
; filament_diameter = 1.74
; extrusion_multiplier = 1
; single wall width = 0.37mm

G28 ; home all axes
M106;
G90 ; use absolute coordinates
G21 ; set units to millimeters
G92 E0
M82 ; use absolute distances for extrusion
G1 F1200.000 E-1.00000
G92 E0
G1 Z0.330 F9600.000
G1 X29.524 Y62.984
G1 F1200.000 E1.00000
G1 X29.864 Y62.514 F900.000 E1.02928
G1 X63.524 Y23.244 E3.64021
G1 X64.124 Y22.674 E3.68198
G1 X64.564 Y22.334 E3.71005
G1 X65.034 Y22.034 E3.73820
G1 X65.514 Y21.774 E3.76576
G1 X66.024 Y21.554 E3.79380
G1 X66.544 Y21.374 E3.82157
G1 X67.084 Y21.244 E3.84961
G1 X67.624 Y21.154 E3.87725
G1 X68.174 Y21.104 E3.90513
G1 X86.364 Y21.104 E4.82336
G1 X87.194 Y21.194 E4.86551
G1 X87.474 Y21.244 E4.87987
G1 X88.014 Y21.384 E4.90803
G1 X88.534 Y21.564 E4.93580
G1 X89.294 Y21.914 E4.97804
G1 X153.214 Y63.804 E8.83592
G1 X153.884 Y64.354 E8.87968
G1 X154.284 Y64.764 E8.90859
G1 X154.824 Y65.444 E8.95243
G1 X154.984 Y65.684 E8.96699
G1 X155.394 Y66.444 E9.01058
G1 X155.614 Y66.984 E9.04001
G1 X161.754 Y89.814 E10.23343
G1 X161.814 Y90.103 E10.24838
G1 X161.894 Y90.684 E10.27794
G1 X161.914 Y91.274 E10.30774
G1 X161.894 Y91.864 E10.33754
G1 X161.814 Y92.444 E10.36709
G1 X152.614 Y126.784 E12.16172
G1 X152.504 Y127.064 E12.17690
G1 X152.254 Y127.594 E12.20649
G1 X151.964 Y128.104 E12.23610
G1 X151.444 Y128.814 E12.28053
G1 X134.994 Y145.284 E13.45561
G1 X134.494 Y145.694 E13.48825
G1 X133.954 Y146.064 E13.52129
G1 X110.854 Y160.064 E14.88483
G1 X110.584 Y160.204 E14.90018
G1 X110.024 Y160.444 E14.93094
G1 X109.154 Y160.714 E14.97692
G1 X108.554 Y160.824 E15.00772
G1 X65.744 Y162.884 E17.17128
G1 X65.444 Y162.884 E17.18642
G1 X64.854 Y162.834 E17.21631
G1 X63.984 Y162.654 E17.26116
G1 X63.414 Y162.483 E17.29119
G1 X62.604 Y162.124 E17.33593
G1 X42.374 Y150.444 E18.51514
G1 X41.664 Y149.923 E18.55956
G1 X41.234 Y149.524 E18.58921
G1 X40.834 Y149.094 E18.61885
G1 X40.314 Y148.384 E18.66328
G1 X22.834 Y118.104 E20.42824
G1 X22.584 Y117.574 E20.45782
G1 X22.474 Y117.294 E20.47300
G1 X22.234 Y116.454 E20.51710
G1 X22.174 Y116.164 E20.53205
G1 X22.094 Y115.584 E20.56161
G1 X22.084 Y92.293 E21.73730
G1 X22.104 Y91.964 E21.75398
G1 X22.194 Y91.334 E21.78611
G1 X28.774 Y64.524 E23.17965
G1 X28.984 Y63.984 E23.20890
G1 X29.234 Y63.474 E23.23757
G1 X29.333 Y63.297 E23.24777
G1 X29.634 Y63.504 F9600.000
G1 X29.784 Y63.244 F900.000 E23.26292
G1 X30.134 Y62.764 E23.29291
G1 X63.804 Y23.484 E25.90455
G1 X64.194 Y23.104 E25.93204
G1 X64.624 Y22.754 E25.96002
G1 X65.074 Y22.444 E25.98761
G1 X65.544 Y22.174 E26.01497
G1 X66.044 Y21.944 E26.04275
G1 X66.564 Y21.754 E26.07070
G1 X67.094 Y21.614 E26.09837
G1 X67.634 Y21.524 E26.12601
G1 X68.184 Y21.474 E26.15389
G1 X68.454 Y21.464 E26.16753
G1 X86.364 Y21.474 E27.07163
G1 X86.934 Y21.524 E27.10051
G1 X87.494 Y21.624 E27.12923
G1 X88.044 Y21.774 E27.15801
G1 X88.574 Y21.974 E27.18660
G1 X89.084 Y22.224 E27.21527
G1 X153.004 Y64.104 E31.07287
G1 X153.214 Y64.264 E31.08620
G1 X153.634 Y64.624 E31.11413
G1 X154.014 Y65.014 E31.14161
G1 X154.364 Y65.434 E31.16921
G1 X154.674 Y65.883 E31.19680
G1 X154.944 Y66.353 E31.22416
G1 X155.174 Y66.853 E31.25194
G1 X155.434 Y67.624 E31.29297
G1 X161.454 Y90.163 E32.47068
G1 X161.524 Y90.714 E32.49866
G1 X161.554 Y91.274 E32.52697
G1 X161.494 Y92.103 E32.56898
G1 X161.454 Y92.383 E32.58326
G1 X152.354 Y126.394 E34.36049
G1 X152.164 Y126.924 E34.38891
G1 X151.934 Y127.424 E34.41669
G1 X151.654 Y127.904 E34.44474
G1 X151.334 Y128.363 E34.47303
G1 X151.164 Y128.574 E34.48667
G1 X134.744 Y145.014 E35.65961
G1 X134.274 Y145.404 E35.69044
G1 X134.024 Y145.584 E35.70599
G1 X110.674 Y159.743 E37.08451
G1 X110.424 Y159.874 E37.09873
G1 X109.894 Y160.104 E37.12790
G1 X109.344 Y160.284 E37.15711
G1 X108.784 Y160.414 E37.18613
G1 X108.214 Y160.493 E37.21519
G1 X65.734 Y162.524 E39.36204
G1 X65.174 Y162.493 E39.39035
G1 X64.624 Y162.423 E39.41833
G1 X64.354 Y162.374 E39.43219
G1 X63.804 Y162.224 E39.46097
G1 X63.024 Y161.923 E39.50316
G1 X62.774 Y161.803 E39.51716
G1 X42.574 Y150.134 E40.69480
G1 X42.114 Y149.814 E40.72309
G1 X41.904 Y149.644 E40.73672
G1 X41.494 Y149.264 E40.76494
G1 X41.114 Y148.854 E40.79316
G1 X40.944 Y148.644 E40.80680
G1 X40.624 Y148.183 E40.83509
G1 X23.154 Y117.934 E42.59848
G1 X22.924 Y117.434 E42.62626
G1 X22.654 Y116.644 E42.66841
G1 X22.534 Y116.104 E42.69633
G1 X22.444 Y115.274 E42.73848
G1 X22.444 Y92.304 E43.89801
G1 X22.464 Y92.004 E43.91319
G1 X22.554 Y91.394 E43.94431
G1 X29.044 Y64.874 E45.32256
G1 X29.244 Y64.304 E45.35305
G1 X29.463 Y63.829 E45.37944
G1 F1200.000 E44.37944
G92 E0
G1 X130.096 Y75.274 F9600.000
G1 F1200.000 E1.00000
G1 X130.096 Y71.081 F900.000 E1.21163
G1 X133.061 Y68.116 E1.42328
G1 X137.254 Y68.116 E1.63493
G1 X140.218 Y71.081 E1.84657
G1 X140.218 Y75.274 E2.05821
G1 X137.254 Y78.238 E2.26986
G1 X133.061 Y78.238 E2.48150
G1 X130.356 Y75.534 E2.67459
G1 X130.462 Y75.122 F9600.000
G1 X130.462 Y71.233 F900.000 E2.87094
G1 X133.212 Y68.482 E3.06730
G1 X137.102 Y68.482 E3.26365
G1 X139.853 Y71.233 E3.46000
G1 X139.853 Y75.122 E3.65635
G1 X137.102 Y77.873 E3.85271
G1 X133.212 Y77.873 E4.04906
G1 X130.722 Y75.382 E4.22686
G1 X130.828 Y74.971 F9600.000
G1 X130.828 Y71.384 F900.000 E4.40792
G1 X133.364 Y68.848 E4.58899
G1 X136.951 Y68.848 E4.77005
G1 X139.487 Y71.384 E4.95111
G1 X139.487 Y74.971 E5.13218
G1 X136.951 Y77.507 E5.31324
G1 X133.364 Y77.507 E5.49430
G1 X131.087 Y75.231 E5.65681
G1 F1200.000 E4.65681
G92 E0
G1 X129.302 Y92.228 F9600.000
G1 F1200.000 E1.00000
G1 X148.307 Y87.135 F900.000 E1.99327
G1 X150.804 Y96.453 E2.48024
G1 X145.323 Y116.911 E3.54938
G1 X138.439 Y123.795 E4.04079
G1 X124.353 Y109.708 E5.04642
G1 X130.005 Y104.056 E5.44993
G1 X131.224 Y99.403 E5.69276
G1 X129.397 Y92.583 E6.04916
G1 X129.749 Y92.486 F9600.000
G1 X148.049 Y87.583 F900.000 E7.00551
G1 X150.426 Y96.453 E7.46908
G1 X144.995 Y116.722 E8.52833
G1 X138.439 Y123.277 E8.99634
G1 X124.870 Y109.708 E9.96505
G1 X130.334 Y104.244 E10.35511
G1 X131.603 Y99.401 E10.60783
G1 X129.845 Y92.841 E10.95067
G1 X130.197 Y92.745 F9600.000
G1 X147.790 Y88.031 F900.000 E11.87011
G1 X150.043 Y96.436 E12.30939
G1 X150.043 Y96.436 E12.30939
G1 X150.047 Y96.453 E12.31027
G1 X144.667 Y116.533 E13.35963
G1 X138.439 Y122.760 E13.80424
G1 X125.387 Y109.708 E14.73604
G1 X130.663 Y104.433 E15.11264
G1 X131.934 Y99.577 E15.36603
G1 X132.028 Y99.577 E15.37076
G1 X130.292 Y93.100 E15.70926
G1 F1200.000 E14.70926
G92 E0
G1 X122.120 Y124.631 F9600.000
G1 F1200.000 E1.00000
G1 X125.085 Y127.596 F900.000 E1.21164
G1 X125.085 Y131.788 E1.42329
G1 X122.120 Y134.753 E1.63493
G1 X117.927 Y134.753 E1.84657
G1 X114.963 Y131.788 E2.05822
G1 X114.963 Y127.596 E2.26986
G1 X117.927 Y124.631 E2.48150
G1 X121.753 Y124.631 E2.67459
G1 X121.969 Y124.997 F9600.000
G1 X124.719 Y127.747 F900.000 E2.87095
G1 X124.719 Y131.637 E3.06730
G1 X121.969 Y134.387 E3.26365
G1 X118.079 Y134.387 E3.46001
G1 X115.328 Y131.637 E3.65636
G1 X115.328 Y127.747 E3.85271
G1 X118.079 Y124.997 E4.04907
G1 X121.601 Y124.997 E4.22687
G1 X121.817 Y125.363 F9600.000
G1 X124.353 Y127.899 F900.000 E4.40793
G1 X124.353 Y131.486 E4.58899
G1 X121.817 Y134.022 E4.77006
G1 X118.230 Y134.022 E4.95112
G1 X115.694 Y131.486 E5.13218
G1 X115.694 Y127.899 E5.31325
G1 X118.230 Y125.363 E5.49431
G1 X121.450 Y125.363 E5.65682
G1 F1200.000 E4.65682
G92 E0
G1 X111.522 Y132.977 F9600.000
G1 F1200.000 E1.00000
G1 X116.352 Y137.806 F900.000 E1.34478
G1 X105.865 Y148.293 E2.09340
G1 X101.036 Y143.463 E2.43818
G1 X111.262 Y133.237 E3.16825
G1 X111.522 Y133.494 F9600.000
G1 X115.835 Y137.806 F900.000 E3.47612
G1 X105.865 Y147.776 E4.18783
G1 X101.553 Y143.463 E4.49569
G1 X111.262 Y133.754 E5.18885
G1 X111.522 Y134.011 F9600.000
G1 X115.318 Y137.806 F900.000 E5.45980
G1 X105.865 Y147.258 E6.13460
G1 X102.070 Y143.463 E6.40555
G1 X111.262 Y134.271 E7.06180
G1 F1200.000 E6.06180
G92 E0
G1 X138.303 Y63.775 F9600.000
G1 F1200.000 E1.00000
G1 X148.666 Y69.759 F900.000 E1.60407
G1 X148.826 Y70.357 E1.63532
G1 X148.826 Y70.357 E1.63532
G1 X154.432 Y91.276 E2.72861
G1 X145.634 Y124.110 E4.44450
G1 X130.165 Y139.579 E5.54885
G1 X119.062 Y139.579 E6.10933
G1 X108.107 Y150.534 E6.89143
G1 X109.168 Y151.595 E6.96714
G1 X107.633 Y153.129 E7.07669
G1 X96.199 Y141.695 E7.89295
G1 X97.734 Y140.161 E8.00250
G1 X98.794 Y141.222 E8.07822
G1 X110.230 Y129.785 E8.89464
G1 X110.230 Y119.460 E9.41585
G1 X124.486 Y105.205 E10.43353
G1 X126.849 Y96.185 E10.90425
G1 X122.045 Y78.259 E11.84107
G1 X122.045 Y78.259 E11.84107
G1 X121.701 Y76.977 E11.90807
G1 X127.477 Y66.677 E12.50419
G1 X137.948 Y63.871 E13.05143
G1 X138.354 Y63.383 F9600.000
G1 X148.980 Y69.518 F900.000 E13.67079
G1 X149.107 Y69.991 E13.69552
G1 X149.107 Y69.991 E13.69553
G1 X154.810 Y91.276 E14.80791
G1 X145.962 Y124.299 E16.53370
G1 X130.317 Y139.945 E17.65064
G1 X119.214 Y139.945 E18.21112
G1 X108.624 Y150.534 E18.96711
G1 X109.685 Y151.595 E19.04283
G1 X107.633 Y153.646 E19.18929
G1 X95.682 Y141.695 E20.04247
G1 X97.734 Y139.644 E20.18893
G1 X98.794 Y140.704 E20.26465
G1 X109.865 Y129.634 E21.05496
G1 X109.865 Y119.309 E21.57618
G1 X124.157 Y105.017 E22.59650
G1 X126.470 Y96.186 E23.05733
G1 X126.347 Y95.727 E23.08130
G1 X126.347 Y95.727 E23.08130
G1 X121.568 Y77.893 E24.01331
G1 X121.568 Y77.893 E24.01331
G1 X121.309 Y76.928 E24.06377
G1 X127.233 Y66.363 E24.67518
G1 X137.999 Y63.478 E25.23784
G1 X138.334 Y63.010 F9600.000
G1 X138.407 Y62.992 F900.000 E25.24167
G1 X149.294 Y69.277 E25.87623
G1 X149.387 Y69.626 E25.89445
G1 X149.387 Y69.626 E25.89445
G1 X149.591 Y70.387 E25.93425
G1 X149.591 Y70.387 E25.93425
G1 X155.189 Y91.276 E27.02595
G1 X146.290 Y124.488 E28.76163
G1 X130.468 Y140.310 E29.89116
G1 X119.365 Y140.310 E30.45164
G1 X109.141 Y150.534 E31.18153
G1 X110.202 Y151.595 E31.25725
G1 X107.633 Y154.163 E31.44062
G1 X95.165 Y141.695 E32.33071
G1 X97.734 Y139.127 E32.51408
G1 X98.794 Y140.187 E32.58980
G1 X109.499 Y129.483 E33.35402
G1 X109.499 Y119.157 E33.87523
G1 X123.433 Y105.223 E34.86998
G1 X123.433 Y105.223 E34.86998
G1 X123.828 Y104.828 E34.89820
G1 X126.092 Y96.187 E35.34914
G1 X121.092 Y77.528 E36.32428
G1 X121.092 Y77.528 E36.32428
G1 X120.918 Y76.879 E36.35819
G1 X121.012 Y76.711 E36.36792
G1 X121.012 Y76.711 E36.36792
G1 X126.990 Y66.050 E36.98490
G1 X137.979 Y63.105 E37.55922
G1 X138.039 Y63.857 F9600.000
G1 X154.179 Y91.812 F1350.000 E39.19103
G1 X154.045 Y92.312 F9600.000
G1 X137.673 Y63.955 F1350.000 E40.84629
G1 X137.307 Y64.053 F9600.000
G1 X153.911 Y92.812 F1350.000 E42.52501
G1 X153.777 Y93.312 F9600.000
G1 X136.941 Y64.151 F1350.000 E44.22718
G1 X136.575 Y64.249 F9600.000
G1 X140.408 Y70.887 F1350.000 E44.61466
G1 X140.400 Y70.874 F9600.000
G1 X153.643 Y93.812 F1350.000 E45.95357
G1 X153.509 Y94.313 F9600.000
G1 X140.400 Y71.608 F1350.000 E47.27894
G1 X140.400 Y72.340 F9600.000
G1 X153.375 Y94.813 F1350.000 E48.59075
G1 X153.241 Y95.313 F9600.000
G1 X148.646 Y87.355 F1350.000 E49.05527
G1 X148.485 Y87.076 F9600.000
G1 X140.400 Y73.072 F1350.000 E49.87274
G1 X140.400 Y73.805 F9600.000
G1 X148.119 Y87.175 F1350.000 E50.65316
G1 X147.753 Y87.273 F9600.000
G1 X140.400 Y74.537 F1350.000 E51.39657
G1 X140.340 Y75.166 F9600.000
G1 X147.387 Y87.371 F1350.000 E52.10899
G1 X147.021 Y87.470 F9600.000
G1 X140.072 Y75.434 F1350.000 E52.81151
G1 X139.804 Y75.702 F9600.000
G1 X146.655 Y87.568 F1350.000 E53.50412
G1 X146.289 Y87.666 F9600.000
G1 X139.536 Y75.970 F1350.000 E54.18682
G1 X139.269 Y76.239 F9600.000
G1 X145.922 Y87.763 F1350.000 E54.85951
G1 X145.555 Y87.862 F9600.000
G1 X139.000 Y76.507 F1350.000 E55.52229
G1 X138.732 Y76.775 F9600.000
G1 X145.189 Y87.960 F1350.000 E56.17516
G1 X144.823 Y88.058 F9600.000
G1 X138.464 Y77.043 F1350.000 E56.81813
G1 X138.196 Y77.311 F9600.000
G1 X144.457 Y88.156 F1350.000 E57.45119
G1 X144.091 Y88.255 F9600.000
G1 X137.927 Y77.579 F1350.000 E58.07434
G1 X137.659 Y77.847 F9600.000
G1 X143.725 Y88.353 F1350.000 E58.68758
G1 X143.359 Y88.451 F9600.000
G1 X137.391 Y78.115 F1350.000 E59.29091
G1 X137.067 Y78.286 F9600.000
G1 X142.992 Y88.548 F1350.000 E59.88995
G1 X142.626 Y88.646 F9600.000
G1 X136.644 Y78.285 F1350.000 E60.49475
G1 X136.221 Y78.286 F9600.000
G1 X142.259 Y88.745 F1350.000 E61.10526
G1 X141.893 Y88.843 F9600.000
G1 X135.798 Y78.285 F1350.000 E61.72154
G1 X135.376 Y78.286 F9600.000
G1 X141.528 Y88.941 F1350.000 E62.34352
G1 X141.162 Y89.039 F9600.000
G1 X134.953 Y78.285 F1350.000 E62.97127
G1 X134.530 Y78.285 F9600.000
G1 X140.796 Y89.137 F1350.000 E63.60474
G1 X140.429 Y89.236 F9600.000
G1 X134.107 Y78.286 F1350.000 E64.24391
G1 X133.684 Y78.285 F9600.000
G1 X140.062 Y89.333 F1350.000 E64.88880
G1 X139.696 Y89.431 F9600.000
G1 X133.261 Y78.286 F1350.000 E65.53940
G1 X132.838 Y78.285 F9600.000
G1 X139.330 Y89.530 F1350.000 E66.19576
G1 X138.964 Y89.628 F9600.000
G1 X131.992 Y77.551 F1350.000 E66.90070
G1 X130.991 Y76.551 E66.97225
G1 X138.598 Y89.726 E67.74135
G1 X138.232 Y89.825 F9600.000
G1 X129.991 Y75.551 F1350.000 E68.57454
G1 X129.915 Y75.419 F9600.000
G1 X126.220 Y69.019 F1350.000 E68.94812
G1 X126.428 Y68.648 F9600.000
G1 X129.914 Y74.686 F1350.000 E69.30056
G1 X129.915 Y73.954 F9600.000
G1 X126.637 Y68.276 F1350.000 E69.63198
G1 X126.845 Y67.905 F9600.000
G1 X129.915 Y73.222 F1350.000 E69.94231
G1 X129.915 Y72.489 F9600.000
G1 X127.053 Y67.533 F1350.000 E70.23162
G1 X127.261 Y67.161 F9600.000
G1 X129.914 Y71.757 F1350.000 E70.49985
G1 X129.996 Y71.166 F9600.000
G1 X127.470 Y66.790 F1350.000 E70.75529
G1 X127.786 Y66.604 F9600.000
G1 X130.265 Y70.898 F1350.000 E71.00592
G1 X130.533 Y70.630 F9600.000
G1 X128.152 Y66.506 F1350.000 E71.24665
G1 X128.518 Y66.408 F9600.000
G1 X130.801 Y70.362 F1350.000 E71.47747
G1 X131.068 Y70.094 F9600.000
G1 X128.884 Y66.311 F1350.000 E71.69828
G1 X129.250 Y66.213 F9600.000
G1 X131.336 Y69.826 F1350.000 E71.90918
G1 X131.605 Y69.557 F9600.000
G1 X129.617 Y66.114 F1350.000 E72.11017
G1 X129.983 Y66.016 F9600.000
G1 X131.873 Y69.290 F1350.000 E72.30126
G1 X132.141 Y69.022 F9600.000
G1 X130.349 Y65.918 F1350.000 E72.48243
G1 X130.715 Y65.820 F9600.000
G1 X132.409 Y68.754 F1350.000 E72.65370
G1 X132.677 Y68.486 F9600.000
G1 X131.081 Y65.722 F1350.000 E72.81506
G1 X131.448 Y65.623 F9600.000
G1 X132.945 Y68.217 F1350.000 E72.96647
G1 X133.283 Y68.069 F9600.000
G1 X131.814 Y65.525 F1350.000 E73.11499
G1 X132.180 Y65.428 F9600.000
G1 X133.705 Y68.069 F1350.000 E73.26917
G1 X134.128 Y68.070 F9600.000
G1 X132.546 Y65.329 F1350.000 E73.42911
G1 X132.913 Y65.231 F9600.000
G1 X134.552 Y68.069 F1350.000 E73.59477
G1 X134.975 Y68.069 F9600.000
G1 X133.279 Y65.133 F1350.000 E73.76619
G1 X133.645 Y65.035 F9600.000
G1 X135.397 Y68.069 F1350.000 E73.94333
G1 X135.820 Y68.070 F9600.000
G1 X134.011 Y64.936 F1350.000 E74.12622
G1 X134.377 Y64.838 F9600.000
G1 X136.243 Y68.069 F1350.000 E74.31483
G1 X136.666 Y68.069 F9600.000
G1 X134.744 Y64.740 F1350.000 E74.50915
G1 X135.110 Y64.641 F9600.000
G1 X137.089 Y68.069 F1350.000 E74.70923
G1 X139.406 Y69.887 F9600.000
G1 X136.208 Y64.348 F1350.000 E75.03256
G1 X135.842 Y64.446 F9600.000
G1 X138.406 Y68.887 F1350.000 E75.29179
G1 X137.511 Y68.069 E75.35309
G1 X135.476 Y64.544 E75.55883
G1 X138.654 Y64.188 F9600.000
G1 X154.030 Y90.820 F1350.000 E77.11340
G1 X153.664 Y89.454 E77.18488
G1 X139.288 Y64.554 E78.63835
G1 X139.922 Y64.921 F9600.000
G1 X153.297 Y88.087 F1350.000 E79.99060
G1 X152.931 Y86.720 E80.06214
