; generated by Slic3r 0.8.2 on 2012-11-09 at 17:04:18

; layer_height = .33
; perimeters = 3
; solid_layers = 3
; fill_density = .2
; nozzle_diameter = 0.35
; filament_diameter = 1.8
; extrusion_multiplier = 1
; perimeter_speed = 80
; infill_speed = 90
; travel_speed = 130
; extrusion_width_ratio = 0
; scale = 1
; single wall width = 0.37mm

G28 ; home all axes
M106; Turn on fans
G90 ; use absolute coordinates
G21 ; set units to millimeters
G92 E0 ; reset extrusion distance
M82 ; use absolute distances for extrusion
G1 Z0.330 F7800.000
G1 X35.830 Y40.230
G1 F1800.000 E0.80000
G1 X72.750 Y8.080 F1440.000 E3.10931
G1 X73.220 Y7.740 E3.13668
G1 X73.710 Y7.450 E3.16354
G1 X74.230 Y7.200 E3.19075
G1 X74.770 Y7.000 E3.21792
G1 X75.320 Y6.850 E3.24481
G1 X98.310 Y2.790 E4.34605
G1 X98.580 Y2.760 E4.35887
G1 X99.140 Y2.740 E4.38530
G1 X99.690 Y2.760 E4.41126
G1 X99.970 Y2.790 E4.42454
G1 X100.520 Y2.890 E4.45091
G1 X101.050 Y3.030 E4.47677
G1 X133.880 Y14.980 E6.12480
G1 X134.390 Y15.220 E6.15138
G1 X134.630 Y15.350 E6.16426
G1 X135.100 Y15.650 E6.19056
G1 X135.320 Y15.810 E6.20339
G1 X135.750 Y16.170 E6.22985
G1 X136.140 Y16.560 E6.25586
G1 X150.900 Y34.150 E7.33902
G1 X151.250 Y34.650 E7.36781
G1 X163.470 Y59.380 E8.66899
G1 X163.670 Y59.890 E8.69484
G1 X163.820 Y60.410 E8.72036
G1 X163.930 Y60.940 E8.74590
G1 X163.970 Y61.210 E8.75877
G1 X164.010 Y61.750 E8.78432
G1 X164.000 Y62.290 E8.80979
G1 X163.950 Y62.840 E8.83584
G1 X163.910 Y63.100 E8.84825
G1 X163.710 Y63.890 E8.88669
G1 X136.560 Y128.890 E12.20953
G1 X136.270 Y129.430 E12.23844
G1 X135.920 Y129.950 E12.26801
G1 X135.320 Y130.650 E12.31150
G1 X119.280 Y146.680 E13.38119
G1 X119.050 Y146.880 E13.39557
G1 X118.560 Y147.240 E13.42425
G1 X94.990 Y161.520 E14.72421
G1 X94.250 Y161.830 E14.76206
G1 X93.740 Y161.980 E14.78713
G1 X92.950 Y162.130 E14.82506
G1 X92.410 Y162.180 E14.85064
G1 X91.610 Y162.160 E14.88839
G1 X91.080 Y162.090 E14.91361
G1 X90.560 Y161.980 E14.93868
G1 X90.050 Y161.820 E14.96390
G1 X89.310 Y161.510 E15.00174
G1 X17.760 Y121.410 E18.87075
G1 X17.310 Y121.100 E18.89652
G1 X16.880 Y120.740 E18.92298
G1 X16.490 Y120.350 E18.94899
G1 X16.130 Y119.920 E18.97545
G1 X15.810 Y119.470 E19.00150
G1 X15.410 Y118.740 E19.04076
G1 X15.110 Y117.960 E19.08018
G1 X9.080 Y95.430 E20.18035
G1 X8.980 Y94.880 E20.20672
G1 X8.950 Y94.600 E20.22000
G1 X8.930 Y94.050 E20.24597
G1 X8.950 Y93.500 E20.27193
G1 X8.980 Y93.220 E20.28521
G1 X9.080 Y92.670 E20.31158
G1 X18.110 Y58.930 E21.95915
G1 X18.300 Y58.410 E21.98526
G1 X18.540 Y57.900 E22.01185
G1 X18.670 Y57.660 E22.02472
G1 X18.970 Y57.190 E22.05102
G1 X19.490 Y56.540 E22.09029
G1 X35.790 Y40.268 E23.17673
G1 X36.070 Y40.510 F7800.000
G1 X72.980 Y8.360 F1440.000 E25.48569
G1 X73.190 Y8.200 E25.49814
G1 X73.650 Y7.900 E25.52405
G1 X74.370 Y7.530 E25.56223
G1 X74.620 Y7.430 E25.57493
G1 X75.400 Y7.200 E25.61329
G1 X98.380 Y3.150 E26.71399
G1 X98.950 Y3.100 E26.74098
G1 X99.520 Y3.110 E26.76787
G1 X100.090 Y3.180 E26.79496
G1 X100.650 Y3.290 E26.82188
G1 X134.030 Y15.440 E28.49752
G1 X134.530 Y15.710 E28.52432
G1 X134.770 Y15.860 E28.53767
G1 X135.230 Y16.200 E28.56465
G1 X135.660 Y16.580 E28.59172
G1 X150.620 Y34.370 E29.68817
G1 X150.940 Y34.840 E29.71499
G1 X151.090 Y35.090 E29.72874
G1 X163.150 Y59.540 E31.01474
G1 X163.340 Y60.040 E31.03998
G1 X163.490 Y60.560 E31.06550
G1 X163.590 Y61.090 E31.09095
G1 X163.640 Y61.630 E31.11653
G1 X163.650 Y62.170 E31.14200
G1 X163.600 Y62.710 E31.16759
G1 X163.510 Y63.240 E31.19294
G1 X163.450 Y63.500 E31.20553
G1 X163.190 Y64.260 E31.24342
G1 X136.240 Y128.730 E34.53955
G1 X135.960 Y129.240 E34.56700
G1 X135.640 Y129.730 E34.59460
G1 X135.460 Y129.960 E34.60838
G1 X118.820 Y146.600 E35.71843
G1 X118.350 Y146.950 E35.74608
G1 X95.040 Y161.080 E37.03188
G1 X94.570 Y161.310 E37.05656
G1 X94.080 Y161.500 E37.08135
G1 X93.580 Y161.650 E37.10597
G1 X93.320 Y161.710 E37.11856
G1 X92.800 Y161.790 E37.14338
G1 X92.270 Y161.820 E37.16842
G1 X91.750 Y161.810 E37.19295
G1 X91.230 Y161.750 E37.21764
G1 X90.710 Y161.640 E37.24272
G1 X90.210 Y161.490 E37.26734
G1 X89.720 Y161.300 E37.29213
G1 X89.480 Y161.190 E37.30458
G1 X54.600 Y141.810 E39.18682
G1 X54.580 Y141.810 E39.18776
G1 X18.180 Y121.250 E41.15976
G1 X17.530 Y120.810 E41.19678
G1 X17.320 Y120.650 E41.20924
G1 X16.940 Y120.290 E41.23393
G1 X16.580 Y119.910 E41.25862
G1 X16.260 Y119.490 E41.28353
G1 X15.980 Y119.050 E41.30813
G1 X15.740 Y118.580 E41.33302
G1 X15.540 Y118.100 E41.35755
G1 X9.370 Y95.040 E42.48358
G1 X9.330 Y94.760 E42.49692
G1 X9.290 Y94.190 E42.52387
G1 X9.290 Y93.910 E42.53708
G1 X9.330 Y93.340 E42.56404
G1 X9.370 Y93.060 E42.57738
G1 X18.460 Y59.010 E44.23980
G1 X18.660 Y58.480 E44.26652
G1 X18.910 Y57.960 E44.29374
G1 X19.210 Y57.480 E44.32044
G1 X19.380 Y57.240 E44.33431
G1 X19.740 Y56.800 E44.36113
G1 X36.029 Y40.547 E45.44657
G1 F1800.000 E44.64657
G92 E0
G1 X79.803 Y53.424 F7800.000
G1 F1800.000 E0.80000
G1 X82.872 Y50.355 F1260.000 E1.00471
G1 X87.212 Y50.355 E1.20942
G1 X90.280 Y53.424 E1.41413
G1 X90.280 Y57.764 E1.61884
G1 X87.212 Y60.833 E1.82355
G1 X82.872 Y60.833 E2.02826
G1 X82.521 Y60.482 E2.05166
G1 X82.521 Y60.482 E2.05166
G1 X79.803 Y57.764 E2.23297
G1 X79.803 Y53.479 E2.43507
G1 X80.164 Y53.574 F7800.000
G1 X83.021 Y50.716 F1260.000 E2.62569
G1 X87.062 Y50.716 E2.81631
G1 X89.920 Y53.574 E3.00693
G1 X89.920 Y57.614 E3.19754
G1 X87.062 Y60.472 E3.38816
G1 X83.021 Y60.472 E3.57878
G1 X80.164 Y57.614 E3.76939
G1 X80.164 Y53.629 E3.95741
G1 X80.524 Y53.723 F7800.000
G1 X83.171 Y51.077 F1260.000 E4.13393
G1 X86.913 Y51.077 E4.31046
G1 X89.559 Y53.723 E4.48698
G1 X89.559 Y57.465 E4.66351
G1 X86.913 Y60.111 E4.84003
G1 X83.171 Y60.111 E5.01655
G1 X80.524 Y57.465 E5.19308
G1 X80.524 Y53.778 E5.36700
G1 F1800.000 E4.56700
G92 E0
G1 X79.198 Y74.652 F7800.000
G1 F1800.000 E0.80000
G1 X98.185 Y69.564 F1440.000 E1.72721
G1 X100.679 Y78.870 E2.18166
G1 X95.198 Y99.323 E3.18046
G1 X88.324 Y106.197 E3.63906
G1 X87.636 Y105.509 E3.68495
G1 X87.636 Y105.509 E3.68495
G1 X74.252 Y92.125 E4.57782
G1 X79.899 Y86.478 E4.95454
G1 X81.119 Y81.819 E5.18170
G1 X79.213 Y74.705 E5.52913
G1 X79.640 Y74.907 F7800.000
G1 X97.930 Y70.006 F1440.000 E6.42231
G1 X100.305 Y78.870 E6.85519
G1 X94.875 Y99.136 E7.84488
G1 X88.324 Y105.687 E8.28191
G1 X74.762 Y92.125 E9.18664
G1 X80.223 Y86.664 E9.55096
G1 X81.492 Y81.818 E9.78724
G1 X79.654 Y74.960 E10.12216
G1 X80.082 Y75.162 F7800.000
G1 X97.675 Y70.448 F1440.000 E10.98133
G1 X99.932 Y78.870 E11.39264
G1 X94.552 Y98.949 E12.37321
G1 X88.324 Y105.177 E12.78866
G1 X75.272 Y92.125 E13.65938
G1 X80.547 Y86.849 E14.01130
G1 X81.865 Y81.817 E14.25669
G1 X80.096 Y75.215 E14.57911
G1 F1800.000 E13.77911
G92 E0
G1 X72.078 Y106.870 F7800.000
G1 F1800.000 E0.80000
G1 X75.147 Y109.939 F1260.000 E1.00471
G1 X75.147 Y114.279 E1.20942
G1 X72.078 Y117.347 E1.41413
G1 X67.738 Y117.347 E1.61884
G1 X64.670 Y114.279 E1.82355
G1 X64.670 Y109.939 E2.02826
G1 X67.738 Y106.870 E2.23297
G1 X72.023 Y106.870 E2.43508
G1 X71.929 Y107.231 F7800.000
G1 X74.786 Y110.088 F1260.000 E2.62569
G1 X74.786 Y114.129 E2.81631
G1 X71.929 Y116.987 E3.00693
G1 X67.888 Y116.987 E3.19754
G1 X65.030 Y114.129 E3.38816
G1 X65.030 Y110.088 E3.57878
G1 X67.888 Y107.231 E3.76939
G1 X71.874 Y107.231 E3.95741
G1 X71.779 Y107.592 F7800.000
G1 X74.425 Y110.238 F1260.000 E4.13393
G1 X74.425 Y113.980 E4.31046
G1 X71.779 Y116.626 E4.48698
G1 X68.037 Y116.626 E4.66351
G1 X65.391 Y113.980 E4.84003
G1 X65.391 Y110.238 E5.01656
G1 X68.037 Y107.592 E5.19308
G1 X71.724 Y107.592 E5.36700
G1 F1800.000 E4.56700
G92 E0
G1 X61.407 Y115.143 F7800.000
G1 F1800.000 E0.80000
G1 X66.486 Y120.223 F1440.000 E1.13885
G1 X55.750 Y130.959 E1.85506
G1 X54.933 Y130.142 E1.90956
G1 X54.933 Y130.142 E1.90956
G1 X50.670 Y125.880 E2.19391
G1 X61.368 Y115.182 E2.90752
G1 X61.407 Y115.653 F7800.000
G1 X65.976 Y120.223 F1440.000 E3.21234
G1 X55.750 Y130.449 E3.89454
G1 X51.180 Y125.880 E4.19936
G1 X61.368 Y115.692 E4.87895
G1 X61.407 Y116.163 F7800.000
G1 X65.466 Y120.223 F1260.000 E5.14975
G1 X55.750 Y129.939 E5.79792
G1 X51.690 Y125.880 E6.06872
G1 X61.368 Y116.202 E6.71429
G1 F1800.000 E5.91429
G92 E0
G1 X46.070 Y124.112 F7800.000
G1 F1800.000 E0.80000
G1 X47.618 Y122.563 F1440.000 E0.90330
G1 X48.679 Y123.624 E0.97406
G1 X60.105 Y112.198 E1.73629
G1 X60.105 Y101.873 E2.22334
G1 X74.361 Y87.617 E3.17437
G1 X76.723 Y78.601 E3.61398
G1 X71.575 Y59.392 E4.55206
G1 X77.354 Y49.085 E5.10949
G1 X88.188 Y46.181 E5.63858
G1 X98.559 Y52.169 E6.20344
G1 X104.327 Y73.693 E7.25458
G1 X95.528 Y106.531 E8.85824
G1 X80.054 Y122.006 E9.89052
G1 X68.951 Y122.006 E10.41426
G1 X58.005 Y132.951 E11.14441
G1 X59.066 Y134.011 E11.21517
G1 X57.518 Y135.560 E11.31847
G1 X46.109 Y124.151 E12.07957
G1 X45.560 Y124.112 F7800.000
G1 X47.618 Y122.053 F1440.000 E12.21690
G1 X48.679 Y123.114 E12.28765
G1 X59.744 Y112.049 E13.02583
G1 X59.744 Y101.723 E13.51288
G1 X74.037 Y87.431 E14.46635
G1 X76.350 Y78.602 E14.89684
G1 X71.189 Y59.344 E15.83733
G1 X77.114 Y48.776 E16.40886
G1 X88.239 Y45.794 E16.95217
G1 X98.868 Y51.931 E17.53112
G1 X104.700 Y73.693 E18.59386
G1 X95.851 Y106.718 E20.20664
G1 X80.203 Y122.366 E21.25052
G1 X69.100 Y122.366 E21.77426
G1 X58.515 Y132.951 E22.48035
G1 X59.576 Y134.011 E22.55111
G1 X57.518 Y136.070 E22.68844
G1 X45.599 Y124.151 E23.48356
G1 X45.050 Y124.112 F7800.000
G1 X47.618 Y121.543 F1440.000 E23.65491
G1 X48.679 Y122.604 E23.72566
G1 X59.384 Y111.899 E24.43978
G1 X59.384 Y101.574 E24.92683
G1 X73.713 Y87.245 E25.88273
G1 X75.976 Y78.603 E26.30411
G1 X70.802 Y59.296 E27.24702
G1 X76.874 Y48.467 E27.83264
G1 X88.290 Y45.407 E28.39016
G1 X99.178 Y51.694 E28.98321
G1 X105.073 Y73.693 E30.05756
G1 X96.174 Y106.905 E31.67945
G1 X80.352 Y122.727 E32.73493
G1 X69.249 Y122.727 E33.25867
G1 X59.026 Y132.951 E33.94071
G1 X60.086 Y134.011 E34.01147
G1 X57.518 Y136.580 E34.18282
G1 X45.089 Y124.151 E35.01196
G1 X46.506 Y123.985 F7800.000
G1 X46.653 Y124.239 F1440.000 E35.02588
G1 X46.771 Y123.720 F7800.000
G1 X47.641 Y125.226 F1440.000 E35.10824
G1 X48.628 Y126.214 F7800.000
G1 X47.035 Y123.455 F1440.000 E35.25905
G1 X47.299 Y123.191 F7800.000
G1 X49.615 Y127.202 F1440.000 E35.47831
G1 X50.603 Y128.189 F7800.000
G1 X47.618 Y123.019 F1440.000 E35.76090
G1 X48.605 Y124.007 F7800.000
G1 X51.590 Y129.177 F1440.000 E36.04350
G1 X52.578 Y130.164 F7800.000
G1 X48.870 Y123.742 F1440.000 E36.39454
G1 X49.134 Y123.477 F7800.000
G1 X50.463 Y125.778 F1440.000 E36.52031
G1 X50.728 Y125.513 F7800.000
G1 X49.399 Y123.212 F1440.000 E36.64608
G1 X49.664 Y122.948 F7800.000
G1 X50.992 Y125.249 F1440.000 E36.77185
G1 X51.256 Y124.984 F7800.000
G1 X49.928 Y122.683 F1440.000 E36.89762
G1 X50.193 Y122.419 F7800.000
G1 X51.521 Y124.719 F1440.000 E37.02334
G1 X51.786 Y124.456 F7800.000
G1 X50.457 Y122.155 F1440.000 E37.14911
G1 X50.722 Y121.890 F7800.000
G1 X52.051 Y124.191 F1440.000 E37.27488
G1 X52.315 Y123.926 F7800.000
G1 X50.986 Y121.625 F1440.000 E37.40065
G1 X51.251 Y121.360 F7800.000
G1 X52.580 Y123.661 F1440.000 E37.52642
G1 X52.844 Y123.397 F7800.000
G1 X51.516 Y121.096 F1440.000 E37.65219
G1 X51.780 Y120.832 F7800.000
G1 X53.108 Y123.132 F1440.000 E37.77791
G1 X53.373 Y122.867 F7800.000
G1 X52.045 Y120.567 F1440.000 E37.90364
G1 X52.309 Y120.303 F7800.000
G1 X53.638 Y122.604 F1440.000 E38.02941
G1 X53.903 Y122.339 F7800.000
G1 X52.574 Y120.038 F1440.000 E38.15518
G1 X52.839 Y119.773 F7800.000
G1 X54.167 Y122.074 F1440.000 E38.28095
G1 X54.432 Y121.809 F7800.000
G1 X53.104 Y119.508 F1440.000 E38.40672
G1 X53.368 Y119.244 F7800.000
G1 X54.696 Y121.545 F1440.000 E38.53249
G1 X54.961 Y121.280 F7800.000
G1 X53.633 Y118.979 F1440.000 E38.65821
G1 X53.897 Y118.715 F7800.000
G1 X55.226 Y121.016 F1440.000 E38.78398
G1 X55.490 Y120.751 F7800.000
G1 X54.161 Y118.450 F1440.000 E38.90975
G1 X54.426 Y118.185 F7800.000
G1 X55.755 Y120.486 F1440.000 E39.03552
G1 X56.019 Y120.222 F7800.000
G1 X54.691 Y117.921 F1440.000 E39.16129
G1 X54.956 Y117.656 F7800.000
G1 X56.284 Y119.957 F1440.000 E39.28706
G1 X56.548 Y119.692 F7800.000
G1 X55.220 Y117.392 F1440.000 E39.41279
G1 X55.485 Y117.127 F7800.000
G1 X56.813 Y119.427 F1440.000 E39.53851
G1 X57.078 Y119.164 F7800.000
G1 X55.749 Y116.863 F1440.000 E39.66428
G1 X56.013 Y116.598 F7800.000
G1 X57.342 Y118.899 F1440.000 E39.79005
G1 X57.607 Y118.634 F7800.000
G1 X56.278 Y116.333 F1440.000 E39.91582
G1 X56.543 Y116.069 F7800.000
G1 X57.871 Y118.370 F1440.000 E40.04159
G1 X58.136 Y118.105 F7800.000
G1 X56.808 Y115.804 F1440.000 E40.16736
G1 X57.072 Y115.540 F7800.000
G1 X58.400 Y117.840 F1440.000 E40.29308
G1 X58.666 Y117.576 F7800.000
G1 X57.337 Y115.275 F1440.000 E40.41886
G1 X57.601 Y115.011 F7800.000
G1 X58.930 Y117.312 F1440.000 E40.54463
G1 X59.194 Y117.047 F7800.000
G1 X57.866 Y114.746 F1440.000 E40.67040
G1 X58.131 Y114.481 F7800.000
G1 X59.459 Y116.782 F1440.000 E40.79617
G1 X59.723 Y116.518 F7800.000
G1 X58.395 Y114.217 F1440.000 E40.92194
G1 X58.660 Y113.952 F7800.000
G1 X59.988 Y116.253 F1440.000 E41.04766
G1 X60.252 Y115.988 F7800.000
G1 X58.924 Y113.688 F1440.000 E41.17338
G1 X59.189 Y113.423 F7800.000
G1 X60.518 Y115.724 F1440.000 E41.29915
G1 X60.782 Y115.459 F7800.000
G1 X59.453 Y113.158 F1440.000 E41.42492
G1 X59.718 Y112.893 F7800.000
G1 X61.047 Y115.194 F1440.000 E41.55069
G1 X61.311 Y114.930 F7800.000
G1 X59.983 Y112.629 F1440.000 E41.67646
G1 X60.247 Y112.364 F7800.000
G1 X61.836 Y115.117 F1440.000 E41.82694
G1 X62.824 Y116.105 F7800.000
G1 X60.392 Y111.892 F1440.000 E42.05718
G1 X60.391 Y111.169 F7800.000
G1 X63.811 Y117.093 F1440.000 E42.38096
G1 X64.799 Y118.080 F7800.000
G1 X60.392 Y110.446 F1440.000 E42.79822
G1 X60.391 Y109.723 F7800.000
G1 X65.786 Y119.068 F1440.000 E43.30897
G1 X66.774 Y120.055 F7800.000
G1 X60.392 Y109.000 F1440.000 E43.91321
G1 X60.392 Y108.277 F7800.000
G1 X68.436 Y122.211 F1440.000 E44.67479
G1 X68.172 Y122.475 F7800.000
G1 X66.843 Y120.174 F1440.000 E44.80056
G1 X66.578 Y120.439 F7800.000
G1 X67.907 Y122.740 F1440.000 E44.92633
G1 X67.643 Y123.005 F7800.000
G1 X66.314 Y120.704 F1440.000 E45.05210
G1 X66.049 Y120.969 F7800.000
G1 X67.378 Y123.270 F1440.000 E45.17787
G1 X67.113 Y123.534 F7800.000
G1 X65.785 Y121.233 F1440.000 E45.30359
G1 X65.520 Y121.497 F7800.000
G1 X66.848 Y123.799 F1440.000 E45.42936
G1 X66.584 Y124.063 F7800.000
G1 X65.256 Y121.762 F1440.000 E45.55513
G1 X64.991 Y122.026 F7800.000
G1 X66.320 Y124.328 F1440.000 E45.68090
G1 X66.055 Y124.593 F7800.000
G1 X64.726 Y122.291 F1440.000 E45.80667
G1 X64.462 Y122.556 F7800.000
G1 X65.791 Y124.857 F1440.000 E45.93244
G1 X65.526 Y125.122 F7800.000
G1 X64.197 Y122.821 F1440.000 E46.05821
G1 X63.933 Y123.086 F7800.000
G1 X65.261 Y125.386 F1440.000 E46.18394
G1 X64.996 Y125.651 F7800.000
G1 X63.668 Y123.350 F1440.000 E46.30971
G1 X63.404 Y123.614 F7800.000
G1 X64.732 Y125.915 F1440.000 E46.43548
G1 X64.467 Y126.180 F7800.000
G1 X63.139 Y123.879 F1440.000 E46.56125
G1 X62.874 Y124.144 F7800.000
G1 X64.203 Y126.445 F1440.000 E46.68702
G1 X63.939 Y126.709 F7800.000
G1 X62.610 Y124.408 F1440.000 E46.81279
G1 X62.345 Y124.673 F7800.000
G1 X63.673 Y126.973 F1440.000 E46.93851
G1 X63.409 Y127.238 F7800.000
G1 X62.081 Y124.937 F1440.000 E47.06428
G1 X61.816 Y125.202 F7800.000
G1 X63.144 Y127.503 F1440.000 E47.19005
G1 X62.880 Y127.767 F7800.000
G1 X61.551 Y125.466 F1440.000 E47.31582
G1 X61.286 Y125.731 F7800.000
G1 X62.615 Y128.032 F1440.000 E47.44159
G1 X62.351 Y128.297 F7800.000
G1 X61.022 Y125.996 F1440.000 E47.56736
G1 X60.758 Y126.260 F7800.000
G1 X62.087 Y128.561 F1440.000 E47.69313
G1 X61.821 Y128.825 F7800.000
G1 X60.493 Y126.525 F1440.000 E47.81886
G1 X60.229 Y126.789 F7800.000
G1 X61.557 Y129.090 F1440.000 E47.94463
G1 X61.292 Y129.355 F7800.000
G1 X59.964 Y127.054 F1440.000 E48.07040
G1 X59.699 Y127.318 F7800.000
G1 X61.028 Y129.620 F1440.000 E48.19617
G1 X60.763 Y129.885 F7800.000
G1 X59.434 Y127.583 F1440.000 E48.32194
G1 X59.170 Y127.848 F7800.000
G1 X60.499 Y130.149 F1440.000 E48.44771
G1 X60.234 Y130.413 F7800.000
G1 X58.906 Y128.112 F1440.000 E48.57343
G1 X58.641 Y128.377 F7800.000
G1 X59.969 Y130.678 F1440.000 E48.69920
