; generated by Slic3r 0.8.4 on 2012-11-08 at 22:40:37

; layer_height = .33
; perimeters = 3
; solid_layers = 3
; fill_density = .2
; nozzle_diameter = 0.34
; filament_diameter = 1.73
; extrusion_multiplier = 1
; perimeter_speed = 60
; infill_speed = 70
; travel_speed = 150
; scale = 1
; single wall width = 0.36mm

G28 ; home all axes
M106; Turn on fans
G90 ; use absolute coordinates
G21 ; set units to millimeters
G92 E0 ; reset extrusion distance
M82 ; use absolute distances for extrusion
G1 Z0.330 F9000.000
G1 X12.347 Y13.721
G1 F1800.000 E0.80000
G1 X12.507 Y13.551 F1080.000 E0.81158
G1 X12.677 Y13.391 E0.82316
G1 X13.037 Y13.091 E0.84641
G1 X13.427 Y12.831 E0.86966
G1 X13.847 Y12.611 E0.89318
G1 X14.057 Y12.521 E0.90451
G1 X14.497 Y12.361 E0.92774
G1 X14.947 Y12.251 E0.95072
G1 X15.647 Y12.171 E0.98567
G1 X130.947 Y7.511 E6.70998
G1 X131.547 Y7.531 E6.73976
G1 X144.467 Y8.661 E7.38312
G1 X144.917 Y8.751 E7.40588
G1 X145.147 Y8.811 E7.41768
G1 X145.367 Y8.881 E7.42913
G1 X145.787 Y9.051 E7.45161
G1 X145.997 Y9.151 E7.46314
G1 X146.397 Y9.381 E7.48603
G1 X146.587 Y9.511 E7.49745
G1 X146.947 Y9.801 E7.52038
G1 X147.117 Y9.961 E7.53197
G1 X155.197 Y19.571 E8.15480
G1 X155.337 Y19.761 E8.16650
G1 X155.467 Y19.961 E8.17834
G1 X155.587 Y20.171 E8.19034
G1 X155.877 Y20.821 E8.22564
G1 X156.017 Y21.281 E8.24950
G1 X169.377 Y90.791 E11.76076
G1 X169.407 Y91.051 E11.77374
G1 X169.417 Y91.571 E11.79954
G1 X168.237 Y104.951 E12.46586
G1 X168.147 Y105.431 E12.49008
G1 X152.867 Y147.211 E14.69690
G1 X152.667 Y147.631 E14.71998
G1 X145.247 Y158.551 E15.37490
G1 X144.947 Y158.911 E15.39815
G1 X144.607 Y159.231 E15.42131
G1 X144.237 Y159.531 E15.44494
G1 X144.047 Y159.661 E15.45636
G1 X143.647 Y159.891 E15.47925
G1 X143.217 Y160.091 E15.50278
G1 X142.997 Y160.171 E15.51439
G1 X142.317 Y160.341 E15.54916
G1 X130.707 Y162.391 E16.13400
G1 X130.707 Y162.381 E16.13450
G1 X130.427 Y162.441 E16.14870
G1 X129.837 Y162.481 E16.17804
G1 X52.017 Y160.231 E20.04003
G1 X51.747 Y160.201 E20.05351
G1 X51.207 Y160.091 E20.08085
G1 X50.697 Y159.921 E20.10751
G1 X29.887 Y150.231 E21.24626
G1 X29.497 Y150.001 E21.26872
G1 X7.897 Y132.671 E22.64246
G1 X7.577 Y132.321 E22.66598
G1 X7.427 Y132.131 E22.67799
G1 X7.287 Y131.931 E22.69010
G1 X6.937 Y131.311 E22.72542
G1 X6.757 Y130.871 E22.74900
G1 X6.627 Y130.411 E22.77272
G1 X6.537 Y129.941 E22.79645
G1 X6.507 Y129.701 E22.80845
G1 X3.597 Y32.941 E27.61055
G1 X3.607 Y32.691 E27.62297
G1 X3.667 Y32.211 E27.64696
G1 X3.777 Y31.741 E27.67091
G1 X3.937 Y31.281 E27.69507
G1 X11.677 Y14.671 E28.60410
G1 X11.917 Y14.271 E28.62724
G1 X12.313 Y13.762 E28.65922
G1 X12.647 Y13.911 F9000.000
G1 X12.977 Y13.591 F1080.000 E28.68202
G1 X13.147 Y13.451 E28.69294
G1 X13.517 Y13.191 E28.71538
G1 X13.717 Y13.071 E28.72695
G1 X14.127 Y12.871 E28.74958
G1 X14.767 Y12.651 E28.78315
G1 X14.987 Y12.601 E28.79434
G1 X15.657 Y12.521 E28.82781
G1 X130.957 Y7.861 E34.55212
G1 X144.437 Y9.011 E35.22324
G1 X144.877 Y9.101 E35.24552
G1 X145.317 Y9.231 E35.26828
G1 X145.737 Y9.411 E35.29095
G1 X146.137 Y9.631 E35.31360
G1 X146.507 Y9.891 E35.33603
G1 X146.847 Y10.191 E35.35852
G1 X147.007 Y10.351 E35.36975
G1 X154.777 Y19.601 E35.96901
G1 X155.077 Y20.001 E35.99382
G1 X155.207 Y20.211 E36.00607
G1 X155.427 Y20.641 E36.03003
G1 X155.597 Y21.101 E36.05436
G1 X155.667 Y21.341 E36.06676
G1 X169.027 Y90.841 E39.57754
G1 X169.057 Y91.081 E39.58953
G1 X169.067 Y91.561 E39.61335
G1 X167.897 Y104.901 E40.27764
G1 X167.807 Y105.351 E40.30041
G1 X167.747 Y105.571 E40.31172
G1 X152.547 Y147.081 E42.50460
G1 X152.357 Y147.461 E42.52567
G1 X152.247 Y147.651 E42.53656
G1 X144.957 Y158.351 E43.17884
G1 X144.657 Y158.701 E43.20171
G1 X144.497 Y158.861 E43.21293
G1 X144.317 Y159.021 E43.22488
G1 X143.957 Y159.301 E43.24750
G1 X143.757 Y159.431 E43.25933
G1 X143.357 Y159.641 E43.28175
G1 X143.137 Y159.741 E43.29373
G1 X142.927 Y159.821 E43.30488
G1 X142.707 Y159.891 E43.31633
G1 X142.477 Y159.951 E43.32813
G1 X130.377 Y162.091 E43.93768
G1 X130.197 Y162.111 E43.94666
G1 X129.837 Y162.131 E43.96455
G1 X52.047 Y159.881 E47.82506
G1 X51.547 Y159.811 E47.85010
G1 X51.057 Y159.681 E47.87525
G1 X29.867 Y149.821 E49.03464
G1 X29.517 Y149.591 E49.05542
G1 X8.307 Y132.571 E50.40444
G1 X7.987 Y132.261 E50.42655
G1 X7.707 Y131.921 E50.44840
G1 X7.577 Y131.741 E50.45941
G1 X7.357 Y131.361 E50.48119
G1 X7.167 Y130.961 E50.50316
G1 X7.017 Y130.541 E50.52528
G1 X6.917 Y130.111 E50.54718
G1 X6.857 Y129.671 E50.56921
G1 X3.947 Y32.921 E55.37082
G1 X3.997 Y32.411 E55.39624
G1 X4.037 Y32.161 E55.40880
G1 X4.167 Y31.671 E55.43395
G1 X11.997 Y14.831 E56.35521
G1 X12.107 Y14.631 E56.36653
G1 X12.227 Y14.441 E56.37768
G1 X12.497 Y14.081 E56.40000
G1 X12.612 Y13.952 E56.40859
G1 F1800.000 E55.60859
G92 E0
G1 X135.863 Y22.093 F9000.000
G1 F1800.000 E0.80000
G1 X135.929 Y21.347 F1080.000 E0.83714
G1 X139.054 Y18.725 E1.03953
G1 X143.119 Y19.080 E1.24194
G1 X145.741 Y22.206 E1.44434
G1 X145.386 Y26.270 E1.64673
G1 X142.260 Y28.893 E1.84913
G1 X138.942 Y28.603 E2.01439
G1 X138.942 Y28.603 E2.01439
G1 X138.196 Y28.537 E2.05153
G1 X135.573 Y25.412 E2.25392
G1 X135.859 Y22.146 E2.41653
G1 X136.246 Y21.743 F9000.000
G1 X136.265 Y21.522 F1080.000 E2.42751
G1 X139.168 Y19.086 E2.61551
G1 X142.944 Y19.417 E2.80351
G1 X145.380 Y22.320 E2.99151
G1 X145.344 Y22.731 E3.01197
G1 X145.344 Y22.731 E3.01198
G1 X145.049 Y26.095 E3.17951
G1 X142.146 Y28.531 E3.36751
G1 X138.591 Y28.220 E3.54454
G1 X138.591 Y28.220 E3.54454
G1 X138.371 Y28.201 E3.55552
G1 X135.935 Y25.298 E3.74351
G1 X136.241 Y21.796 E3.91789
G1 X136.595 Y21.773 F9000.000
G1 X136.601 Y21.698 F1080.000 E3.92166
G1 X139.282 Y19.448 E4.09527
G1 X142.769 Y19.753 E4.26887
G1 X145.018 Y22.434 E4.44248
G1 X144.713 Y25.920 E4.61608
G1 X142.032 Y28.170 E4.78968
G1 X138.546 Y27.865 E4.96329
G1 X136.296 Y25.184 E5.13689
G1 X136.590 Y21.827 E5.30406
G1 F1800.000 E4.50406
G92 E0
G1 X121.781 Y28.270 F9000.000
G1 F1800.000 E0.80000
G1 X134.411 Y43.323 F1080.000 E1.77474
G1 X128.364 Y48.397 E2.16636
G1 X126.719 Y52.995 E2.40860
G1 X126.844 Y53.700 E2.44409
G1 X126.844 Y53.700 E2.44409
G1 X127.992 Y60.212 E2.77211
G1 X108.882 Y63.581 E3.73471
G1 X107.147 Y53.742 E4.23035
G1 X107.422 Y53.742 E4.24400
G1 X114.380 Y34.625 E5.25315
G1 X114.380 Y34.625 E5.25315
G1 X114.456 Y34.417 E5.26415
G1 X121.740 Y28.305 E5.73585
G1 X121.738 Y28.764 F9000.000
G1 X133.918 Y43.280 F1080.000 E6.67583
G1 X128.066 Y48.190 E7.05478
G1 X126.358 Y52.965 E7.30633
G1 X126.426 Y53.350 E7.32572
G1 X126.426 Y53.350 E7.32572
G1 X127.586 Y59.928 E7.65707
G1 X109.166 Y63.176 E8.58491
G1 X107.565 Y54.092 E9.04246
G1 X107.667 Y54.092 E9.04757
G1 X114.753 Y34.625 E10.07523
G1 X121.697 Y28.798 E10.52490
G1 X121.695 Y29.258 F9000.000
G1 X133.424 Y43.237 F1080.000 E11.43013
G1 X127.768 Y47.983 E11.79641
G1 X125.997 Y52.934 E12.05727
G1 X126.009 Y52.999 E12.06055
G1 X126.009 Y52.999 E12.06055
G1 X127.180 Y59.643 E12.39523
G1 X109.451 Y62.770 E13.28831
G1 X107.982 Y54.442 E13.70778
G1 X107.982 Y54.442 E13.70778
G1 X107.959 Y54.314 E13.71424
G1 X115.050 Y34.833 E14.74264
G1 X121.654 Y29.292 E15.17027
G1 F1800.000 E14.37027
G92 E0
G1 X119.053 Y73.705 F9000.000
G1 F1800.000 E0.80000
G1 X123.117 Y74.061 F1080.000 E1.00239
G1 X125.740 Y77.187 E1.20479
G1 X125.691 Y77.740 E1.23234
G1 X125.691 Y77.740 E1.23234
G1 X125.384 Y81.251 E1.40718
G1 X122.259 Y83.874 E1.60958
G1 X118.940 Y83.583 E1.77484
G1 X118.940 Y83.583 E1.77484
G1 X118.194 Y83.518 E1.81198
G1 X115.572 Y80.393 E2.01437
G1 X115.927 Y76.328 E2.21678
G1 X119.012 Y73.740 E2.41653
G1 X119.167 Y74.067 F9000.000
G1 X119.167 Y74.067 F1080.000 E2.41654
G1 X119.167 Y74.067 E2.41655
G1 X122.942 Y74.398 E2.60453
G1 X125.378 Y77.301 E2.79253
G1 X125.378 Y77.302 E2.79258
G1 X125.378 Y77.302 E2.79258
G1 X125.048 Y81.076 E2.98053
G1 X122.145 Y83.512 E3.16853
G1 X118.590 Y83.201 E3.34555
G1 X118.590 Y83.201 E3.34555
G1 X118.369 Y83.182 E3.35653
G1 X115.933 Y80.279 E3.54453
G1 X116.264 Y76.503 E3.73253
G1 X119.126 Y74.102 E3.91788
G1 X119.281 Y74.429 F9000.000
G1 X119.551 Y74.453 F1080.000 E3.93132
G1 X119.551 Y74.452 E3.93132
G1 X122.767 Y74.734 E4.09148
G1 X125.017 Y77.415 E4.26509
G1 X124.993 Y77.685 E4.27853
G1 X124.993 Y77.685 E4.27853
G1 X124.712 Y80.901 E4.43869
G1 X122.031 Y83.151 E4.61229
G1 X118.544 Y82.846 E4.78590
G1 X116.295 Y80.165 E4.95950
G1 X116.600 Y76.678 E5.13311
G1 X119.240 Y74.463 E5.30405
G1 F1800.000 E4.50405
G92 E0
G1 X127.821 Y86.059 F9000.000
G1 F1800.000 E0.80000
G1 X116.671 Y88.025 F1080.000 E1.36162
G1 X106.777 Y81.097 E1.96082
G1 X103.029 Y59.846 E3.03127
G1 X103.029 Y59.846 E3.03127
G1 X102.892 Y59.067 E3.07049
G1 X114.542 Y27.057 E4.76030
G1 X131.372 Y12.936 E5.85013
G1 X143.479 Y13.995 E6.45301
G1 X150.727 Y22.633 E7.01240
G1 X149.652 Y34.923 E7.62439
G1 X134.194 Y47.894 E8.62542
G1 X131.193 Y56.286 E9.06753
G1 X131.022 Y56.286 E9.07600
G1 X134.535 Y76.208 E10.07952
G1 X127.851 Y86.015 E10.66825
G1 X128.027 Y86.378 F9000.000
G1 X116.589 Y88.395 F1080.000 E11.24440
G1 X106.457 Y81.301 E11.85800
G1 X102.612 Y59.496 E12.95636
G1 X102.612 Y59.496 E12.95636
G1 X102.531 Y59.036 E12.97952
G1 X114.245 Y26.849 E14.67864
G1 X131.258 Y12.574 E15.78033
G1 X143.654 Y13.659 E16.39760
G1 X151.089 Y22.519 E16.97139
G1 X149.988 Y35.098 E17.59778
G1 X149.624 Y35.404 E17.62139
G1 X149.624 Y35.404 E17.62139
G1 X134.492 Y48.102 E18.60130
G1 X131.439 Y56.636 E19.05094
G1 X131.439 Y56.636 E19.05094
G1 X134.905 Y76.288 E20.04082
G1 X128.057 Y86.334 E20.64395
G1 X128.233 Y86.698 F9000.000
G1 X116.507 Y88.766 F1080.000 E21.23462
G1 X106.137 Y81.504 E21.86261
G1 X102.194 Y59.145 E22.98888
G1 X102.194 Y59.145 E22.98888
G1 X102.169 Y59.004 E22.99599
G1 X113.948 Y26.641 E24.70443
G1 X131.144 Y12.212 E25.81797
G1 X143.829 Y13.322 E26.44964
G1 X151.451 Y22.405 E27.03782
G1 X150.325 Y35.273 E27.67861
G1 X134.790 Y48.309 E28.68462
G1 X134.702 Y48.553 E28.69749
G1 X134.702 Y48.553 E28.69749
G1 X131.800 Y56.667 E29.12495
G1 X131.857 Y56.987 E29.14105
G1 X131.857 Y56.987 E29.14105
G1 X135.275 Y76.367 E30.11729
G1 X128.263 Y86.653 E30.73481
G1 X127.778 Y85.729 F9000.000
G1 X125.361 Y81.544 F1350.000 E30.97454
G1 X125.635 Y81.314 F9000.000
G1 X127.998 Y85.406 F1350.000 E31.20891
G1 X128.218 Y85.083 F9000.000
G1 X125.700 Y80.722 F1350.000 E31.45871
G1 X125.753 Y80.111 F9000.000
G1 X128.438 Y84.760 F1350.000 E31.72503
G1 X128.658 Y84.438 F9000.000
G1 X125.807 Y79.499 F1350.000 E32.00792
G1 X125.861 Y78.888 F9000.000
G1 X128.878 Y84.114 F1350.000 E32.30727
G1 X129.098 Y83.791 F9000.000
G1 X125.914 Y78.277 F1350.000 E32.62315
G1 X125.967 Y77.665 F9000.000
G1 X129.318 Y83.469 F1350.000 E32.95559
G1 X129.538 Y83.146 F9000.000
G1 X126.021 Y77.054 F1350.000 E33.30455
G1 X125.950 Y76.931 F9000.000
G1 X117.493 Y62.283 F1350.000 E34.14363
G1 X117.861 Y62.217 F9000.000
G1 X129.758 Y82.823 F1350.000 E35.32395
G1 X129.978 Y82.500 F9000.000
G1 X118.230 Y62.152 F1350.000 E36.48948
G1 X118.600 Y62.087 F9000.000
G1 X130.199 Y82.176 F1350.000 E37.64023
G1 X130.419 Y81.854 F9000.000
G1 X118.969 Y62.022 F1350.000 E38.77620
G1 X119.338 Y61.957 F9000.000
G1 X130.639 Y81.531 F1350.000 E39.89739
G1 X130.859 Y81.208 F9000.000
G1 X119.707 Y61.892 F1350.000 E41.00385
G1 X120.076 Y61.827 F9000.000
G1 X131.079 Y80.885 F1350.000 E42.09552
G1 X131.299 Y80.562 F9000.000
G1 X120.445 Y61.762 F1350.000 E43.17241
G1 X120.814 Y61.697 F9000.000
G1 X131.519 Y80.240 F1350.000 E44.23456
G1 X131.739 Y79.916 F9000.000
G1 X121.182 Y61.631 F1350.000 E45.28194
G1 X121.552 Y61.567 F9000.000
G1 X131.960 Y79.594 F1350.000 E46.31453
G1 X132.179 Y79.271 F9000.000
G1 X121.921 Y61.502 F1350.000 E47.33233
G1 X122.289 Y61.437 F9000.000
G1 X132.399 Y78.948 F1350.000 E48.33536
G1 X132.620 Y78.625 F9000.000
G1 X122.659 Y61.371 F1350.000 E49.32365
G1 X123.028 Y61.306 F9000.000
G1 X132.840 Y78.302 F1350.000 E50.29716
G1 X133.060 Y77.978 F9000.000
G1 X123.397 Y61.241 F1350.000 E51.25589
G1 X123.766 Y61.177 F9000.000
G1 X133.280 Y77.656 F1350.000 E52.19983
G1 X133.500 Y77.333 F9000.000
G1 X124.135 Y61.112 F1350.000 E53.12899
G1 X124.504 Y61.046 F9000.000
G1 X133.721 Y77.010 F1350.000 E54.04342
G1 X133.940 Y76.687 F9000.000
G1 X124.873 Y60.981 F1350.000 E54.94306
G1 X125.242 Y60.916 F9000.000
G1 X134.160 Y76.364 F1350.000 E55.82792
G1 X134.120 Y75.590 F9000.000
G1 X125.610 Y60.851 F1350.000 E56.67221
G1 X125.979 Y60.786 F9000.000
G1 X133.941 Y74.576 F1350.000 E57.46212
G1 X133.762 Y73.563 F9000.000
G1 X126.349 Y60.722 F1350.000 E58.19767
G1 X126.718 Y60.656 F9000.000
G1 X133.584 Y72.548 F1350.000 E58.87885
G1 X133.405 Y71.534 F9000.000
G1 X127.087 Y60.591 F1350.000 E59.50571
G1 X127.456 Y60.526 F9000.000
G1 X133.226 Y70.520 F1350.000 E60.07819
G1 X133.048 Y69.507 F9000.000
G1 X127.825 Y60.460 F1350.000 E60.59636
G1 X128.194 Y60.395 F9000.000
G1 X132.868 Y68.492 F1350.000 E61.06017
G1 X132.690 Y67.479 F9000.000
G1 X128.212 Y59.723 F1350.000 E61.50442
G1 X128.033 Y58.710 F9000.000
G1 X132.511 Y66.465 F1350.000 E61.94868
G1 X132.332 Y65.451 F9000.000
G1 X127.854 Y57.695 F1350.000 E62.39294
G1 X127.675 Y56.682 F9000.000
G1 X132.153 Y64.438 F1350.000 E62.83719
G1 X131.974 Y63.423 F9000.000
G1 X127.496 Y55.668 F1350.000 E63.28145
G1 X127.318 Y54.654 F9000.000
G1 X131.795 Y62.410 F1350.000 E63.72571
G1 X131.617 Y61.395 F9000.000
G1 X127.139 Y53.639 F1350.000 E64.16996
G1 X127.052 Y52.783 F9000.000
G1 X131.438 Y60.382 F1350.000 E64.60519
G1 X131.259 Y59.367 F9000.000
G1 X127.207 Y52.348 F1350.000 E65.00723
G1 X127.362 Y51.914 F9000.000
G1 X131.081 Y58.354 F1350.000 E65.37614
G1 X130.902 Y57.340 F9000.000
G1 X127.518 Y51.479 F1350.000 E65.71180
G1 X127.674 Y51.045 F9000.000
G1 X130.723 Y56.326 F1350.000 E66.01433
G1 X130.975 Y56.059 F9000.000
G1 X127.829 Y50.610 F1350.000 E66.32649
G1 X127.984 Y50.175 F9000.000
G1 X131.157 Y55.669 F1350.000 E66.64122
G1 X131.312 Y55.234 F9000.000
G1 X128.140 Y49.740 F1350.000 E66.95596
G1 X128.295 Y49.306 F9000.000
G1 X131.468 Y54.800 F1350.000 E67.27069
G1 X131.623 Y54.365 F9000.000
G1 X128.451 Y48.871 F1350.000 E67.58542
G1 X128.619 Y48.457 F9000.000
G1 X131.779 Y53.930 F1350.000 E67.89892
G1 X131.935 Y53.495 F9000.000
G1 X128.893 Y48.227 F1350.000 E68.20065
G1 X129.167 Y47.997 F9000.000
G1 X132.090 Y53.060 F1350.000 E68.49063
G1 X132.246 Y52.626 F9000.000
G1 X129.440 Y47.767 F1350.000 E68.76896
G1 X129.714 Y47.537 F9000.000
G1 X132.401 Y52.191 F1350.000 E69.03552
G1 X132.556 Y51.756 F9000.000
G1 X129.988 Y47.308 F1350.000 E69.29033
G1 X130.262 Y47.078 F9000.000
G1 X132.712 Y51.321 F1350.000 E69.53338
G1 X132.867 Y50.886 F9000.000
G1 X130.536 Y46.848 F1350.000 E69.76468
G1 X130.810 Y46.618 F9000.000
G1 X133.023 Y50.452 F1350.000 E69.98427
G1 X133.178 Y50.017 F9000.000
G1 X131.084 Y46.389 F1350.000 E70.19210
G1 X131.357 Y46.159 F9000.000
G1 X133.334 Y49.582 F1350.000 E70.38817
G1 X133.490 Y49.147 F9000.000
G1 X131.632 Y45.929 F1350.000 E70.57249
G1 X131.906 Y45.699 F9000.000
G1 X133.645 Y48.712 F1350.000 E70.74505
G1 X133.801 Y48.277 F9000.000
G1 X132.180 Y45.470 F1350.000 E70.90586
G1 X132.454 Y45.240 F9000.000
G1 X133.956 Y47.843 F1350.000 E71.05496
G1 X134.221 Y47.597 F9000.000
G1 X132.727 Y45.009 F1350.000 E71.20321
G1 X133.001 Y44.780 F9000.000
G1 X134.495 Y47.368 F1350.000 E71.35146
G1 X134.769 Y47.138 F9000.000
G1 X133.275 Y44.550 F1350.000 E71.49972
G1 X133.548 Y44.320 F9000.000
G1 X135.043 Y46.908 F1350.000 E71.64797
G1 X135.317 Y46.679 F9000.000
G1 X133.822 Y44.090 F1350.000 E71.79623
G1 X134.096 Y43.861 F9000.000
G1 X135.590 Y46.449 F1350.000 E71.94448
G1 X135.864 Y46.219 F9000.000
G1 X134.370 Y43.631 F1350.000 E72.09274
G1 X134.645 Y43.401 F9000.000
