; generated by Slic3r 0.9.5 on 2012-12-02 at 13:53:00

; layer_height = .3
; perimeters = 3
; top_solid_layers = 3
; bottom_solid_layers = 3
; fill_density = 0.2
; perimeter_speed = 60
; infill_speed = 85
; travel_speed = 180
; scale = 1
; nozzle_diameter = 0.35
; filament_diameter = 1.78
; extrusion_multiplier = .98
; perimeters extrusion width = 0.37mm
; infill extrusion width = 0.37mm
; first layer extrusion width = 0.30mm

G28 ; home all axes
M106; Fan ON
G90 ; use absolute coordinates
G21 ; set units to millimeters
G92 E0
M82 ; use absolute distances for extrusion
G1 F1800.000 E-0.80000
G92 E0
G1 Z0.300 F10800.000
G1 X55.690 Y70.590
G1 F1800.000 E0.80000
G1 X85.790 Y64.570 F1440.000 E1.92690
G1 X85.990 Y64.550 E1.93428
G1 X86.100 Y64.540 E1.93833
G1 X96.110 Y64.540 E2.30581
G1 X96.220 Y64.550 E2.30987
G1 X96.340 Y64.560 E2.31429
G1 X96.450 Y64.580 E2.31839
G1 X96.570 Y64.600 E2.32286
G1 X123.030 Y70.600 E3.31890
G1 X123.200 Y70.650 E3.32541
G1 X123.360 Y70.700 E3.33156
G1 X123.530 Y70.770 E3.33831
G1 X123.680 Y70.850 E3.34455
G1 X123.840 Y70.940 E3.35129
G1 X124.120 Y71.140 E3.36392
G1 X124.250 Y71.260 E3.37042
G1 X124.380 Y71.390 E3.37717
G1 X124.490 Y71.520 E3.38342
G1 X124.600 Y71.660 E3.38995
G1 X124.780 Y71.960 E3.40280
G1 X124.850 Y72.120 E3.40921
G1 X124.910 Y72.290 E3.41583
G1 X124.970 Y72.450 E3.42210
G1 X125.010 Y72.630 E3.42887
G1 X125.040 Y72.800 E3.43521
G1 X125.050 Y72.970 E3.44146
G1 X125.060 Y73.150 E3.44808
G1 X125.060 Y113.020 E4.91176
G1 X125.040 Y113.190 E4.91804
G1 X125.010 Y113.360 E4.92438
G1 X124.970 Y113.530 E4.93079
G1 X124.920 Y113.690 E4.93695
G1 X124.860 Y113.850 E4.94322
G1 X124.790 Y114.000 E4.94930
G1 X124.710 Y114.160 E4.95586
G1 X124.620 Y114.300 E4.96197
G1 X124.520 Y114.440 E4.96829
G1 X124.300 Y114.700 E4.98079
G1 X124.040 Y114.920 E4.99330
G1 X123.900 Y115.020 E4.99961
G1 X123.760 Y115.110 E5.00572
G1 X123.600 Y115.190 E5.01229
G1 X123.450 Y115.260 E5.01837
G1 X123.290 Y115.320 E5.02464
G1 X123.130 Y115.370 E5.03079
G1 X122.960 Y115.410 E5.03721
G1 X122.790 Y115.440 E5.04354
G1 X122.620 Y115.460 E5.04983
G1 X56.030 Y115.460 E7.49444
G1 X55.860 Y115.440 E7.50072
G1 X55.690 Y115.410 E7.50706
G1 X55.520 Y115.370 E7.51347
G1 X55.360 Y115.320 E7.51962
G1 X55.200 Y115.260 E7.52590
G1 X55.050 Y115.190 E7.53197
G1 X54.890 Y115.110 E7.53854
G1 X54.750 Y115.020 E7.54465
G1 X54.610 Y114.920 E7.55097
G1 X54.350 Y114.700 E7.56347
G1 X54.130 Y114.440 E7.57597
G1 X54.030 Y114.300 E7.58229
G1 X53.940 Y114.160 E7.58840
G1 X53.860 Y114.000 E7.59497
G1 X53.790 Y113.850 E7.60104
G1 X53.730 Y113.690 E7.60732
G1 X53.680 Y113.530 E7.61347
G1 X53.640 Y113.360 E7.61988
G1 X53.610 Y113.190 E7.62622
G1 X53.590 Y113.020 E7.63250
G1 X53.590 Y72.980 E9.10243
G1 X53.610 Y72.810 E9.10871
G1 X53.640 Y72.640 E9.11505
G1 X53.680 Y72.470 E9.12146
G1 X53.730 Y72.310 E9.12762
G1 X53.790 Y72.150 E9.13389
G1 X53.860 Y72.000 E9.13997
G1 X53.940 Y71.850 E9.14621
G1 X54.030 Y71.700 E9.15263
G1 X54.130 Y71.560 E9.15894
G1 X54.240 Y71.430 E9.16520
G1 X54.350 Y71.310 E9.17117
G1 X54.480 Y71.190 E9.17767
G1 X54.610 Y71.080 E9.18392
G1 X54.750 Y70.980 E9.19023
G1 X54.890 Y70.890 E9.19634
G1 X55.040 Y70.810 E9.20259
G1 X55.200 Y70.740 E9.20900
G1 X55.360 Y70.680 E9.21527
G1 X55.520 Y70.630 E9.22142
G1 X55.690 Y70.590 E9.22784
G1 X55.750 Y70.890 F10800.000
G1 X85.750 Y64.890 F1440.000 E10.35099
G1 X85.840 Y64.870 E10.35437
G1 X86.020 Y64.850 E10.36102
G1 X86.110 Y64.850 E10.36433
G1 X86.200 Y64.840 E10.36765
G1 X95.990 Y64.840 E10.72705
G1 X96.090 Y64.850 E10.73074
G1 X96.200 Y64.850 E10.73478
G1 X96.300 Y64.870 E10.73853
G1 X96.400 Y64.880 E10.74222
G1 X96.500 Y64.900 E10.74596
G1 X122.960 Y70.900 E11.74200
G1 X123.120 Y70.940 E11.74806
G1 X123.420 Y71.060 E11.75992
G1 X123.570 Y71.130 E11.76600
G1 X123.710 Y71.220 E11.77211
G1 X123.840 Y71.310 E11.77791
G1 X123.970 Y71.420 E11.78416
G1 X124.090 Y71.530 E11.79014
G1 X124.200 Y71.650 E11.79612
G1 X124.300 Y71.780 E11.80214
G1 X124.390 Y71.910 E11.80794
G1 X124.480 Y72.050 E11.81405
G1 X124.550 Y72.200 E11.82013
G1 X124.610 Y72.350 E11.82606
G1 X124.660 Y72.500 E11.83186
G1 X124.700 Y72.660 E11.83792
G1 X124.730 Y72.820 E11.84389
G1 X124.750 Y72.990 E11.85018
G1 X124.760 Y73.150 E11.85606
G1 X124.760 Y112.850 E13.31351
G1 X124.750 Y113.010 E13.31939
G1 X124.730 Y113.180 E13.32567
G1 X124.700 Y113.340 E13.33165
G1 X124.660 Y113.500 E13.33771
G1 X124.610 Y113.660 E13.34386
G1 X124.550 Y113.810 E13.34979
G1 X124.470 Y113.950 E13.35571
G1 X124.390 Y114.100 E13.36195
G1 X124.300 Y114.230 E13.36775
G1 X124.190 Y114.360 E13.37401
G1 X124.080 Y114.480 E13.37998
G1 X123.960 Y114.590 E13.38596
G1 X123.830 Y114.700 E13.39221
G1 X123.700 Y114.790 E13.39802
G1 X123.550 Y114.870 E13.40426
G1 X123.410 Y114.950 E13.41018
G1 X123.260 Y115.010 E13.41611
G1 X123.100 Y115.060 E13.42226
G1 X122.940 Y115.100 E13.42832
G1 X122.780 Y115.130 E13.43429
G1 X122.610 Y115.150 E13.44058
G1 X122.450 Y115.160 E13.44646
G1 X56.200 Y115.160 E15.87859
G1 X56.040 Y115.150 E15.88448
G1 X55.870 Y115.130 E15.89076
G1 X55.710 Y115.100 E15.89674
G1 X55.550 Y115.060 E15.90279
G1 X55.390 Y115.010 E15.90894
G1 X55.240 Y114.950 E15.91487
G1 X55.100 Y114.870 E15.92079
G1 X54.950 Y114.790 E15.92704
G1 X54.820 Y114.700 E15.93284
G1 X54.690 Y114.590 E15.93909
G1 X54.570 Y114.480 E15.94507
G1 X54.460 Y114.360 E15.95104
G1 X54.350 Y114.230 E15.95730
G1 X54.260 Y114.100 E15.96310
G1 X54.180 Y113.950 E15.96934
G1 X54.100 Y113.810 E15.97526
G1 X54.040 Y113.660 E15.98119
G1 X53.990 Y113.500 E15.98735
G1 X53.950 Y113.340 E15.99340
G1 X53.920 Y113.180 E15.99938
G1 X53.900 Y113.010 E16.00566
G1 X53.890 Y112.850 E16.01155
G1 X53.890 Y73.150 E17.46899
G1 X53.900 Y72.980 E17.47524
G1 X53.920 Y72.820 E17.48116
G1 X53.950 Y72.650 E17.48750
G1 X53.990 Y72.490 E17.49355
G1 X54.040 Y72.330 E17.49970
G1 X54.180 Y72.030 E17.51186
G1 X54.270 Y71.890 E17.51797
G1 X54.370 Y71.750 E17.52428
G1 X54.470 Y71.620 E17.53031
G1 X54.590 Y71.500 E17.53654
G1 X54.710 Y71.390 E17.54251
G1 X54.840 Y71.290 E17.54853
G1 X55.120 Y71.110 E17.56075
G1 X55.270 Y71.040 E17.56683
G1 X55.430 Y70.980 E17.57310
G1 X55.590 Y70.930 E17.57926
G1 X55.750 Y70.890 E17.58531
G1 F1800.000 E16.78531
G92 E0
G1 X112.028 Y75.239 F10800.000
G1 F1800.000 E0.80000
G1 X120.072 Y75.239 F1440.000 E1.09527
G1 X120.072 Y110.761 E2.39931
G1 X112.028 Y110.761 E2.69458
G1 X112.028 Y108.239 E2.78715
G1 X117.540 Y108.239 E2.98949
G1 X117.540 Y77.761 E4.10840
G1 X112.028 Y77.761 E4.31075
G1 X112.028 Y75.239 E4.40331
G1 X112.334 Y75.545 F10800.000
G1 X119.766 Y75.545 F1440.000 E4.67616
G1 X119.766 Y110.455 E5.95778
G1 X112.334 Y110.455 E6.23063
G1 X112.334 Y108.545 E6.30078
G1 X117.846 Y108.545 E6.50312
G1 X117.846 Y77.455 E7.64445
G1 X112.334 Y77.455 E7.84680
G1 X112.334 Y75.545 E7.91694
G1 X112.639 Y75.850 F10800.000
G1 X119.461 Y75.850 F1440.000 E8.16737
G1 X119.461 Y110.150 E9.42657
G1 X112.639 Y110.150 E9.67700
G1 X112.639 Y108.850 E9.72473
G1 X118.151 Y108.850 E9.92707
G1 X118.151 Y77.150 E11.09082
G1 X112.639 Y77.150 E11.29317
G1 X112.639 Y75.850 E11.34089
G1 X112.792 Y75.586 F10800.000
G1 F1800.000 E10.54089
G92 E0
G1 X110.254 Y82.239 F10800.000
G1 F1800.000 E0.80000
G1 X110.254 Y96.761 F1440.000 E1.33310
G1 X71.846 Y96.761 E2.74314
G1 X71.846 Y82.239 E3.27624
G1 X83.870 Y82.239 E3.71769
G1 X86.236 Y86.337 E3.89141
G1 X89.289 Y86.337 E4.00349
G1 X89.289 Y85.461 E4.03567
G1 X87.828 Y85.461 E4.08930
G1 X86.544 Y85.805 E4.13812
G1 X86.200 Y84.520 E4.18694
G1 X82.978 Y78.940 E4.42348
G1 X82.038 Y78.000 E4.47230
G1 X82.978 Y77.060 E4.52112
G1 X86.200 Y71.480 E4.75767
G1 X86.544 Y70.195 E4.80648
G1 X87.828 Y70.539 E4.85530
G1 X94.272 Y70.539 E5.09185
G1 X95.556 Y70.195 E5.14067
G1 X95.900 Y71.480 E5.18948
G1 X99.122 Y77.060 E5.42603
G1 X100.062 Y78.000 E5.47485
G1 X99.122 Y78.940 E5.52367
G1 X95.900 Y84.520 E5.76021
G1 X95.556 Y85.805 E5.80903
G1 X94.272 Y85.461 E5.85785
G1 X92.811 Y85.461 E5.91148
G1 X92.811 Y86.337 E5.94366
G1 X95.864 Y86.337 E6.05574
G1 X98.230 Y82.239 E6.22946
G1 X110.254 Y82.239 E6.67091
G1 X109.949 Y82.545 F10800.000
G1 X109.949 Y96.455 F1440.000 E7.18159
G1 X72.151 Y96.455 E8.56921
G1 X72.151 Y82.545 E9.07989
G1 X83.694 Y82.545 E9.50366
G1 X86.060 Y86.643 E9.67738
G1 X89.595 Y86.643 E9.80713
G1 X89.595 Y85.155 E9.86174
G1 X87.788 Y85.155 E9.92806
G1 X86.760 Y85.431 E9.96714
G1 X86.484 Y84.403 E10.00622
G1 X83.222 Y78.753 E10.24572
G1 X82.470 Y78.000 E10.28480
G1 X83.222 Y77.247 E10.32389
G1 X86.484 Y71.597 E10.56339
G1 X86.760 Y70.569 E10.60247
G1 X87.788 Y70.845 E10.64155
G1 X94.312 Y70.845 E10.88105
G1 X95.340 Y70.569 E10.92013
G1 X95.616 Y71.597 E10.95922
G1 X98.878 Y77.247 E11.19871
G1 X99.630 Y78.000 E11.23780
G1 X98.878 Y78.753 E11.27688
G1 X95.616 Y84.403 E11.51638
G1 X95.340 Y85.431 E11.55546
G1 X94.312 Y85.155 E11.59455
G1 X92.505 Y85.155 E11.66087
G1 X92.505 Y86.643 E11.71547
G1 X96.040 Y86.643 E11.84523
G1 X98.406 Y82.545 E12.01895
G1 X109.949 Y82.545 E12.44271
G1 X109.644 Y82.850 F10800.000
G1 X109.644 Y96.150 F1440.000 E12.93097
G1 X72.456 Y96.150 E14.29617
G1 X72.456 Y82.850 E14.78443
G1 X83.518 Y82.850 E15.19052
G1 X85.884 Y86.948 E15.36424
G1 X89.900 Y86.948 E15.51168
G1 X89.900 Y84.850 E15.58870
G1 X87.748 Y84.850 E15.66771
G1 X86.976 Y85.057 E15.69706
G1 X86.769 Y84.285 E15.72640
G1 X83.467 Y78.565 E15.96885
G1 X82.901 Y78.000 E15.99820
G1 X83.467 Y77.435 E16.02755
G1 X86.769 Y71.715 E16.27000
G1 X86.976 Y70.943 E16.29935
G1 X87.748 Y71.150 E16.32870
G1 X94.352 Y71.150 E16.57115
G1 X95.124 Y70.943 E16.60050
G1 X95.331 Y71.715 E16.62985
G1 X98.633 Y77.435 E16.87230
G1 X99.199 Y78.000 E16.90164
G1 X98.633 Y78.565 E16.93099
G1 X95.331 Y84.285 E17.17344
G1 X95.124 Y85.057 E17.20279
G1 X94.352 Y84.850 E17.23214
G1 X92.200 Y84.850 E17.31115
G1 X92.200 Y86.948 E17.38817
G1 X96.216 Y86.948 E17.53561
G1 X98.582 Y82.850 E17.70933
G1 X109.644 Y82.850 E18.11541
G1 X109.908 Y83.003 F10800.000
G1 F1800.000 E17.31541
G92 E0
G1 X70.072 Y77.761 F10800.000
G1 F1800.000 E0.80000
G1 X64.560 Y77.761 F1440.000 E1.00234
G1 X64.560 Y108.239 E2.12125
G1 X70.072 Y108.239 E2.32360
G1 X70.072 Y110.761 E2.41616
G1 X62.028 Y110.761 E2.71144
G1 X62.028 Y75.239 E4.01548
G1 X70.072 Y75.239 E4.31075
G1 X70.072 Y77.761 E4.40331
G1 X69.766 Y77.455 F10800.000
G1 X64.254 Y77.455 F1440.000 E4.60566
G1 X64.254 Y108.545 E5.74699
G1 X69.766 Y108.545 E5.94933
G1 X69.766 Y110.455 E6.01948
G1 X62.334 Y110.455 E6.29233
G1 X62.334 Y75.545 E7.57395
G1 X69.766 Y75.545 E7.84680
G1 X69.766 Y77.455 E7.91695
G1 X69.461 Y77.150 F10800.000
G1 X63.949 Y77.150 F1440.000 E8.11929
G1 X63.949 Y108.850 E9.28304
G1 X69.461 Y108.850 E9.48538
G1 X69.461 Y110.150 E9.53311
G1 X62.639 Y110.150 E9.78354
G1 X62.639 Y75.850 E11.04274
G1 X69.461 Y75.850 E11.29317
G1 X69.461 Y77.150 E11.34089
G1 X69.308 Y77.414 F10800.000
G1 F1800.000 E10.54089
G92 E0
G1 X56.811 Y73.761 F10800.000
G1 F1800.000 E0.80000
G1 X83.870 Y73.761 F1440.000 E1.79340
G1 X86.236 Y69.663 E1.96712
G1 X86.811 Y69.663 E1.98820
G1 X86.811 Y67.761 E2.05802
G1 X87.289 Y67.761 E2.07559
G1 X87.289 Y69.663 E2.14541
G1 X94.504 Y69.663 E2.41026
G1 X94.504 Y67.761 E2.48008
G1 X95.382 Y67.761 E2.51233
G1 X95.382 Y69.663 E2.58216
G1 X95.864 Y69.663 E2.59983
G1 X98.230 Y73.761 E2.77355
G1 X121.846 Y73.761 E3.64053
G1 X121.846 Y112.239 E5.05313
G1 X103.061 Y112.239 E5.74275
G1 X103.061 Y105.739 E5.98137
G1 X100.289 Y105.739 E6.08312
G1 X100.289 Y106.739 E6.11983
G1 X99.668 Y106.739 E6.14264
G1 X99.559 Y105.877 E6.17456
G1 X99.288 Y104.823 E6.21449
G1 X98.888 Y103.812 E6.25443
G1 X98.364 Y102.859 E6.29436
G1 X97.724 Y101.978 E6.33430
G1 X97.030 Y101.239 E6.37152
G1 X85.070 Y101.239 E6.81061
G1 X84.376 Y101.978 E6.84783
G1 X83.736 Y102.859 E6.88777
G1 X83.212 Y103.812 E6.92770
G1 X82.812 Y104.823 E6.96764
G1 X82.541 Y105.877 E7.00757
G1 X82.432 Y106.739 E7.03949
G1 X81.811 Y106.739 E7.06230
G1 X81.811 Y105.739 E7.09901
G1 X79.039 Y105.739 E7.20076
G1 X79.039 Y112.239 E7.43938
G1 X56.811 Y112.239 E8.25542
G1 X56.811 Y73.761 E9.66802
G1 X56.505 Y73.455 F10800.000
G1 X83.694 Y73.455 F1440.000 E10.66616
G1 X86.060 Y69.357 E10.83988
G1 X86.505 Y69.357 E10.85623
G1 X86.505 Y67.455 E10.92605
G1 X87.595 Y67.455 E10.96604
G1 X87.595 Y69.357 E11.03586
G1 X94.198 Y69.357 E11.27828
G1 X94.198 Y67.455 E11.34811
G1 X95.687 Y67.455 E11.40278
G1 X95.687 Y69.357 E11.47260
G1 X96.040 Y69.357 E11.48554
G1 X98.406 Y73.455 E11.65926
G1 X122.151 Y73.455 E12.53097
G1 X122.151 Y112.545 E13.96599
G1 X102.755 Y112.545 E14.67803
G1 X102.755 Y106.045 E14.91666
G1 X100.595 Y106.045 E14.99598
G1 X100.595 Y107.045 E15.03269
G1 X99.399 Y107.045 E15.07660
G1 X99.258 Y105.934 E15.11769
G1 X98.997 Y104.918 E15.15622
G1 X98.611 Y103.942 E15.19474
G1 X98.105 Y103.022 E15.23327
G1 X97.489 Y102.174 E15.27179
G1 X96.898 Y101.545 E15.30346
G1 X85.202 Y101.545 E15.73284
G1 X84.611 Y102.174 E15.76451
G1 X83.995 Y103.022 E15.80304
G1 X83.489 Y103.942 E15.84156
G1 X83.103 Y104.918 E15.88009
G1 X82.842 Y105.934 E15.91861
G1 X82.701 Y107.045 E15.95970
G1 X81.505 Y107.045 E16.00361
G1 X81.505 Y106.045 E16.04032
G1 X79.345 Y106.045 E16.11965
G1 X79.345 Y112.545 E16.35827
G1 X56.505 Y112.545 E17.19673
G1 X56.505 Y73.455 E18.63175
G1 X56.200 Y73.150 F10800.000
G1 X83.518 Y73.150 F1440.000 E19.63463
G1 X85.884 Y69.052 E19.80835
G1 X86.200 Y69.052 E19.81995
G1 X86.200 Y67.150 E19.88978
G1 X87.900 Y67.150 E19.95219
G1 X87.900 Y69.052 E20.02201
G1 X93.893 Y69.052 E20.24201
G1 X93.893 Y67.150 E20.31183
G1 X95.993 Y67.150 E20.38893
G1 X95.993 Y69.052 E20.45875
G1 X96.216 Y69.052 E20.46695
G1 X98.582 Y73.150 E20.64067
G1 X122.456 Y73.150 E21.51712
G1 X122.456 Y112.850 E22.97456
G1 X102.450 Y112.850 E23.70902
G1 X102.450 Y106.350 E23.94765
G1 X100.900 Y106.350 E24.00455
G1 X100.900 Y107.350 E24.04126
G1 X99.084 Y107.350 E24.10792
G1 X99.084 Y106.994 E24.12097
G1 X98.958 Y105.992 E24.15808
G1 X98.706 Y105.012 E24.19519
G1 X98.334 Y104.072 E24.23231
G1 X97.847 Y103.186 E24.26942
G1 X97.253 Y102.369 E24.30654
G1 X96.766 Y101.850 E24.33265
G1 X85.334 Y101.850 E24.75233
G1 X84.847 Y102.369 E24.77844
G1 X84.253 Y103.186 E24.81556
G1 X83.766 Y104.072 E24.85267
G1 X83.394 Y105.012 E24.88978
G1 X83.142 Y105.992 E24.92690
G1 X83.016 Y106.995 E24.96401
G1 X83.016 Y107.350 E24.97706
G1 X81.200 Y107.350 E25.04372
G1 X81.200 Y106.350 E25.08043
G1 X79.650 Y106.350 E25.13733
G1 X79.650 Y112.850 E25.37595
G1 X56.200 Y112.850 E26.23684
G1 X56.200 Y73.150 E27.69428
G1 X56.353 Y72.885 F10800.000
G1 F1800.000 E26.89428
G92 E0
G1 X70.028 Y77.947 F10800.000
G1 F1800.000 E0.80000
G1 X72.399 Y82.053 F1920.000 E0.97450
G1 X72.045 Y82.053 E0.98751
G1 X69.675 Y77.947 E1.16201
G1 X69.321 Y77.947 E1.17503
G1 X71.692 Y82.053 E1.34952
G1 X71.609 Y82.523 E1.36707
G1 X68.967 Y77.947 E1.56152
G1 X68.614 Y77.947 E1.57454
G1 X71.609 Y83.135 E1.79502
G1 X71.609 Y83.748 E1.81756
G1 X68.260 Y77.947 E2.06408
G1 X67.906 Y77.947 E2.07709
G1 X71.609 Y84.360 E2.34964
G1 X71.609 Y84.973 E2.37218
G1 X67.553 Y77.947 E2.67076
G1 X67.199 Y77.947 E2.68377
G1 X71.609 Y85.585 E3.00838
G1 X71.609 Y86.198 E3.03092
G1 X66.845 Y77.947 E3.38156
G1 X66.492 Y77.947 E3.39457
G1 X71.609 Y86.810 E3.77124
G1 X71.609 Y87.423 E3.79378
G1 X66.138 Y77.947 E4.19648
G1 X65.785 Y77.947 E4.20949
G1 X71.609 Y88.035 E4.63822
G1 X71.609 Y88.648 E4.66077
G1 X65.431 Y77.947 E5.11553
G1 X65.077 Y77.947 E5.12854
G1 X71.609 Y89.260 E5.60933
G1 X71.609 Y89.873 E5.63188
G1 X64.796 Y78.073 E6.13335
G1 X64.796 Y78.685 E6.15589
G1 X71.609 Y90.485 E6.65737
G1 X71.609 Y91.098 E6.67991
G1 X64.796 Y79.298 E7.18139
G1 X64.796 Y79.910 E7.20393
