; generated by Slic3r 0.9.5 on 2012-11-17 at 05:26:12

; layer_height = 0.33
; perimeters = 3
; top_solid_layers = 3
; bottom_solid_layers = 3
; fill_density = 0.2
; perimeter_speed = 60
; infill_speed = 90
; travel_speed = 190
; scale = 1
; nozzle_diameter = 0.35
; filament_diameter = 1.73
; extrusion_multiplier = 1
; perimeters extrusion width = 0.37mm
; infill extrusion width = 0.37mm
; first layer extrusion width = 0.70mm

G28 ; home all axes
G90 ; use absolute coordinates
G21 ; set units to millimeters
G92 E0
M82 ; use absolute distances for extrusion
G1 F1800.000 E-0.80000
G92 E0
G1 Z0.350 F11400.000
G1 X20.459 Y26.120
G1 F1800.000 E0.80000
G1 X20.649 Y25.950 F1080.000 E0.82372
G1 X20.839 Y25.790 E0.84683
G1 X21.039 Y25.630 E0.87066
G1 X35.719 Y15.030 E2.55541
G1 X35.929 Y14.890 E2.57890
G1 X36.149 Y14.750 E2.60316
G1 X36.379 Y14.630 E2.62730
G1 X36.839 Y14.410 E2.67474
G1 X37.079 Y14.320 E2.69859
G1 X37.319 Y14.250 E2.72185
G1 X37.569 Y14.180 E2.74601
G1 X37.819 Y14.120 E2.76993
G1 X38.069 Y14.080 E2.79348
G1 X38.329 Y14.050 E2.81784
G1 X38.579 Y14.030 E2.84117
G1 X91.089 Y14.030 E7.72692
G1 X134.199 Y14.610 E11.73842
G1 X134.449 Y14.610 E11.76168
G1 X134.949 Y14.670 E11.80853
G1 X135.189 Y14.710 E11.83117
G1 X135.439 Y14.770 E11.85509
G1 X135.919 Y14.910 E11.90161
G1 X136.149 Y15.000 E11.92459
G1 X136.379 Y15.100 E11.94793
G1 X136.599 Y15.210 E11.97082
G1 X137.039 Y15.470 E12.01837
G1 X137.239 Y15.610 E12.04108
G1 X152.139 Y26.340 E13.74951
G1 X152.339 Y26.490 E13.77277
G1 X152.519 Y26.640 E13.79457
G1 X152.879 Y26.980 E13.84064
G1 X153.039 Y27.160 E13.86305
G1 X153.199 Y27.350 E13.88616
G1 X153.349 Y27.540 E13.90869
G1 X153.479 Y27.740 E13.93088
G1 X153.609 Y27.950 E13.95386
G1 X153.729 Y28.160 E13.97637
G1 X153.839 Y28.380 E13.99925
G1 X153.939 Y28.600 E14.02174
G1 X154.029 Y28.830 E14.04472
G1 X154.109 Y29.060 E14.06738
G1 X154.179 Y29.300 E14.09064
G1 X154.229 Y29.530 E14.11254
G1 X154.279 Y29.770 E14.13535
G1 X154.319 Y30.010 E14.15799
G1 X154.339 Y30.260 E14.18132
G1 X154.349 Y30.500 E14.20367
G1 X155.369 Y64.410 E17.36023
G1 X155.299 Y132.030 E23.65187
G1 X155.089 Y138.500 E24.25419
G1 X155.079 Y138.750 E24.27747
G1 X155.019 Y139.230 E24.32247
G1 X154.969 Y139.470 E24.34528
G1 X154.909 Y139.700 E24.36740
G1 X154.849 Y139.940 E24.39042
G1 X154.769 Y140.170 E24.41308
G1 X154.679 Y140.390 E24.43519
G1 X154.579 Y140.610 E24.45768
G1 X154.469 Y140.830 E24.48056
G1 X154.349 Y141.040 E24.50307
G1 X154.219 Y141.250 E24.52605
G1 X154.079 Y141.450 E24.54876
G1 X153.939 Y141.640 E24.57072
G1 X153.779 Y141.830 E24.59383
G1 X153.619 Y142.010 E24.61624
G1 X153.449 Y142.180 E24.63861
G1 X153.269 Y142.350 E24.66165
G1 X152.889 Y142.650 E24.70670
G1 X138.199 Y153.250 E26.39220
G1 X137.979 Y153.400 E26.41697
G1 X137.759 Y153.530 E26.44075
G1 X137.529 Y153.660 E26.46533
G1 X137.299 Y153.770 E26.48905
G1 X137.059 Y153.870 E26.51324
G1 X136.819 Y153.960 E26.53709
G1 X136.569 Y154.040 E26.56152
G1 X136.319 Y154.110 E26.58567
G1 X136.059 Y154.160 E26.61031
G1 X135.809 Y154.210 E26.63403
G1 X135.289 Y154.250 E26.68255
G1 X91.229 Y155.970 E30.78520
G1 X38.579 Y155.970 E35.68398
G1 X38.329 Y155.950 E35.70731
G1 X38.069 Y155.920 E35.73166
G1 X37.819 Y155.880 E35.75522
G1 X37.569 Y155.820 E35.77914
G1 X37.319 Y155.750 E35.80330
G1 X37.079 Y155.680 E35.82656
G1 X36.599 Y155.480 E35.87494
G1 X36.369 Y155.370 E35.89866
G1 X36.149 Y155.250 E35.92198
G1 X35.929 Y155.110 E35.94624
G1 X35.719 Y154.970 E35.96973
G1 X21.039 Y144.360 E37.65502
G1 X20.839 Y144.200 E37.67885
G1 X20.649 Y144.040 E37.70196
G1 X20.459 Y143.870 E37.72568
G1 X20.119 Y143.510 E37.77176
G1 X19.959 Y143.310 E37.79559
G1 X19.809 Y143.110 E37.81885
G1 X19.669 Y142.900 E37.84233
G1 X19.539 Y142.680 E37.86611
G1 X19.419 Y142.460 E37.88943
G1 X19.309 Y142.240 E37.91231
G1 X19.209 Y142.010 E37.93565
G1 X19.119 Y141.770 E37.95950
G1 X18.979 Y141.290 E38.00602
G1 X18.929 Y141.040 E38.02974
G1 X18.889 Y140.790 E38.05330
G1 X18.859 Y140.540 E38.07672
G1 X18.839 Y140.290 E38.10006
G1 X18.839 Y29.700 E48.38981
G1 X18.859 Y29.450 E48.41315
G1 X18.889 Y29.200 E48.43658
G1 X18.929 Y28.950 E48.46013
G1 X18.979 Y28.700 E48.48385
G1 X19.119 Y28.220 E48.53038
G1 X19.209 Y27.980 E48.55423
G1 X19.309 Y27.750 E48.57756
G1 X19.419 Y27.530 E48.60045
G1 X19.539 Y27.300 E48.62458
G1 X19.669 Y27.090 E48.64756
G1 X19.809 Y26.880 E48.67105
G1 X19.959 Y26.680 E48.69431
G1 X20.119 Y26.480 E48.71814
G1 X20.459 Y26.120 E48.76421
G1 X20.899 Y26.620 F11400.000
G1 X21.069 Y26.460 F1080.000 E48.78593
G1 X21.249 Y26.310 E48.80774
G1 X21.429 Y26.170 E48.82895
G1 X36.109 Y15.570 E50.51370
G1 X36.309 Y15.430 E50.53642
G1 X36.729 Y15.190 E50.58142
G1 X36.949 Y15.090 E50.60391
G1 X37.179 Y14.990 E50.62724
G1 X37.409 Y14.910 E50.64990
G1 X37.639 Y14.840 E50.67227
G1 X37.879 Y14.790 E50.69508
G1 X38.109 Y14.740 E50.71698
G1 X38.349 Y14.710 E50.73949
G1 X38.599 Y14.690 E50.76282
G1 X91.079 Y14.690 E55.64578
G1 X134.189 Y15.270 E59.65727
G1 X134.429 Y15.280 E59.67962
G1 X134.669 Y15.300 E59.70203
G1 X134.899 Y15.330 E59.72361
G1 X135.359 Y15.430 E59.76741
G1 X135.589 Y15.500 E59.78978
G1 X135.809 Y15.580 E59.81156
G1 X136.029 Y15.670 E59.83368
G1 X136.249 Y15.780 E59.85657
G1 X136.459 Y15.890 E59.87862
G1 X136.659 Y16.010 E59.90033
G1 X136.849 Y16.150 E59.92228
G1 X151.749 Y26.880 E61.63071
G1 X151.939 Y27.020 E61.65267
G1 X152.129 Y27.170 E61.67519
G1 X152.299 Y27.340 E61.69756
G1 X152.619 Y27.680 E61.74101
G1 X152.769 Y27.870 E61.76353
G1 X153.029 Y28.270 E61.80792
G1 X153.149 Y28.470 E61.82962
G1 X153.249 Y28.680 E61.85126
G1 X153.349 Y28.900 E61.87375
G1 X153.429 Y29.120 E61.89553
G1 X153.569 Y29.580 E61.94027
G1 X153.609 Y29.810 E61.96199
G1 X153.649 Y30.050 E61.98463
G1 X153.679 Y30.280 E62.00621
G1 X153.689 Y30.520 E62.02856
G1 X154.709 Y64.430 E65.18511
G1 X154.639 Y132.010 E71.47304
G1 X154.429 Y138.480 E72.07535
G1 X154.419 Y138.720 E72.09770
G1 X154.389 Y138.950 E72.11928
G1 X154.349 Y139.190 E72.14192
G1 X154.299 Y139.420 E72.16382
G1 X154.239 Y139.650 E72.18594
G1 X154.169 Y139.870 E72.20742
G1 X154.089 Y140.090 E72.22920
G1 X153.989 Y140.310 E72.25168
G1 X153.889 Y140.520 E72.27333
G1 X153.769 Y140.730 E72.29583
G1 X153.639 Y140.930 E72.31802
G1 X153.509 Y141.120 E72.33944
G1 X153.359 Y141.310 E72.36197
G1 X153.039 Y141.650 E72.40541
G1 X152.869 Y141.820 E72.42778
G1 X152.689 Y141.970 E72.44958
G1 X152.499 Y142.110 E72.47154
G1 X137.809 Y152.710 E74.15704
G1 X137.599 Y152.850 E74.18053
G1 X137.389 Y152.980 E74.20351
G1 X137.169 Y153.100 E74.22682
G1 X136.949 Y153.200 E74.24931
G1 X136.719 Y153.300 E74.27264
G1 X136.479 Y153.380 E74.29618
G1 X136.239 Y153.450 E74.31944
G1 X135.999 Y153.500 E74.34225
G1 X135.759 Y153.540 E74.36489
G1 X135.509 Y153.570 E74.38832
G1 X135.259 Y153.590 E74.41166
G1 X91.199 Y155.310 E78.51430
G1 X38.599 Y155.310 E83.40843
G1 X38.349 Y155.290 E83.43176
G1 X38.109 Y155.260 E83.45426
G1 X37.869 Y155.210 E83.47707
G1 X37.639 Y155.150 E83.49919
G1 X37.399 Y155.090 E83.52221
G1 X37.179 Y155.010 E83.54399
G1 X36.949 Y154.910 E83.56733
G1 X36.729 Y154.810 E83.58981
G1 X36.309 Y154.570 E83.63482
G1 X36.109 Y154.430 E83.65753
G1 X21.429 Y143.820 E85.34283
G1 X21.239 Y143.680 E85.36479
G1 X21.069 Y143.530 E85.38588
G1 X20.899 Y143.370 E85.40760
G1 X20.579 Y143.030 E85.45104
G1 X20.439 Y142.850 E85.47226
G1 X20.299 Y142.660 E85.49422
G1 X20.179 Y142.470 E85.51513
G1 X20.059 Y142.260 E85.53763
G1 X19.959 Y142.060 E85.55844
G1 X19.859 Y141.850 E85.58008
G1 X19.699 Y141.410 E85.62364
G1 X19.639 Y141.190 E85.64486
G1 X19.589 Y140.960 E85.66676
G1 X19.549 Y140.730 E85.68848
G1 X19.519 Y140.500 E85.71006
G1 X19.499 Y140.270 E85.73154
G1 X19.499 Y29.720 E96.01758
G1 X19.519 Y29.490 E96.03906
G1 X19.549 Y29.260 E96.06064
G1 X19.589 Y29.030 E96.08236
G1 X19.639 Y28.800 E96.10426
G1 X19.699 Y28.580 E96.12548
G1 X19.859 Y28.140 E96.16904
G1 X20.059 Y27.720 E96.21232
G1 X20.179 Y27.520 E96.23402
G1 X20.299 Y27.330 E96.25493
G1 X20.439 Y27.140 E96.27689
G1 X20.579 Y26.960 E96.29811
G1 X20.739 Y26.780 E96.32052
G1 X20.899 Y26.620 E96.34157
G1 F1800.000 E95.54157
G92 E0
G1 X57.552 Y70.712 F11400.000
G1 F1800.000 E0.80000
G1 X54.981 Y70.125 F1080.000 E1.04531
G1 X53.837 Y67.750 E1.29063
G1 X54.981 Y65.375 E1.53595
G1 X57.552 Y64.788 E1.78125
G1 X59.613 Y66.432 E2.02657
G1 X59.613 Y69.068 E2.27190
G1 X57.552 Y70.712 E2.51722
G1 X57.388 Y69.995 F11400.000
G1 X55.440 Y69.551 F1080.000 E2.70316
G1 X54.573 Y67.750 E2.88911
G1 X55.440 Y65.949 E3.07507
G1 X57.388 Y65.505 E3.26101
G1 X58.951 Y66.751 E3.44697
G1 X58.951 Y68.749 E3.63292
G1 X57.388 Y69.995 E3.81887
G1 F1800.000 E3.01887
G92 E0
G1 X50.277 Y71.175 F11400.000
G1 F1800.000 E0.80000
G1 X35.475 Y71.175 F1080.000 E2.17724
G1 X35.475 Y63.925 E2.85179
G1 X38.034 Y63.925 E3.08997
G1 X39.464 Y64.073 E3.22372
G1 X41.199 Y64.181 E3.38544
G1 X42.876 Y64.216 E3.54147
G1 X44.552 Y64.181 E3.69750
G1 X46.287 Y64.073 E3.85922
G1 X47.717 Y63.925 E3.99297
G1 X50.277 Y63.925 E4.23115
G1 X50.277 Y71.175 E4.90570
G1 X49.614 Y70.512 F11400.000
G1 X36.137 Y70.512 F1080.000 E6.15967
G1 X36.137 Y64.588 E6.71095
G1 X38.000 Y64.588 E6.88432
G1 X39.410 Y64.733 E7.01613
G1 X41.171 Y64.843 E7.18038
G1 X42.876 Y64.879 E7.33898
G1 X44.580 Y64.843 E7.49759
G1 X46.342 Y64.733 E7.66183
G1 X47.751 Y64.588 E7.79365
G1 X49.614 Y64.588 E7.96702
G1 X49.614 Y70.512 E8.51830
G1 X48.952 Y69.850 F11400.000
G1 X36.799 Y69.850 F1080.000 E9.64900
G1 X36.799 Y65.250 E10.07700
G1 X37.966 Y65.250 E10.18556
G1 X39.355 Y65.393 E10.31545
G1 X41.144 Y65.505 E10.48222
G1 X42.876 Y65.542 E10.64339
G1 X44.607 Y65.505 E10.80457
G1 X46.396 Y65.393 E10.97134
G1 X47.785 Y65.250 E11.10123
G1 X48.952 Y65.250 E11.20979
G1 X48.952 Y69.850 E11.63779
G1 F1800.000 E10.83779
G92 E0
G1 X31.613 Y69.068 F11400.000
G1 F1800.000 E0.80000
G1 X29.552 Y70.712 F1080.000 E1.04532
G1 X26.981 Y70.125 E1.29063
G1 X25.837 Y67.750 E1.53595
G1 X26.981 Y65.375 E1.78127
G1 X29.552 Y64.788 E2.02657
G1 X31.613 Y66.432 E2.27190
G1 X31.613 Y69.068 E2.51722
G1 X30.951 Y68.749 F11400.000
G1 X29.388 Y69.995 F1080.000 E2.70317
G1 X27.440 Y69.551 E2.88911
G1 X26.573 Y67.750 E3.07507
G1 X27.440 Y65.949 E3.26102
G1 X29.388 Y65.505 E3.44697
G1 X30.951 Y66.751 E3.63292
G1 X30.951 Y68.749 E3.81887
G1 X27.417 Y71.396 F11400.000
G1 X27.594 Y70.945 F1080.000 E3.86401
G1 X29.715 Y71.429 E4.06646
G1 X32.275 Y69.387 E4.37115
G1 X32.275 Y66.113 E4.67583
G1 X29.715 Y64.071 E4.98052
G1 X27.594 Y64.555 E5.18297
G1 X27.417 Y64.104 E5.22811
G1 X30.324 Y62.425 E5.54050
G1 X34.550 Y62.425 E5.93372
G1 X34.550 Y60.020 E6.15743
G1 X39.396 Y55.175 E6.79504
G1 X46.355 Y55.175 E7.44254
G1 X51.201 Y60.020 E8.08014
G1 X51.201 Y62.425 E8.30386
G1 X55.427 Y62.425 E8.69707
G1 X57.779 Y63.783 E8.94977
G1 X57.736 Y64.066 E8.97644
G1 X54.523 Y64.800 E9.28310
G1 X53.102 Y67.750 E9.58778
G1 X54.523 Y70.700 E9.89247
G1 X57.736 Y71.434 E10.19913
G1 X57.779 Y71.717 E10.22580
G1 X55.427 Y73.075 E10.47850
G1 X51.201 Y73.075 E10.87171
G1 X51.201 Y75.480 E11.09543
G1 X46.355 Y80.325 E11.73303
G1 X39.396 Y80.325 E12.38053
G1 X34.550 Y75.480 E13.01814
G1 X34.550 Y73.075 E13.24185
G1 X30.324 Y73.075 E13.63507
G1 X27.417 Y71.396 E13.94746
G1 F1800.000 E13.14746
G92 E0
G1 X59.214 Y70.233 F11400.000
G1 F1800.000 E0.80000
G1 X60.051 Y69.567 F1080.000 E0.89951
G1 X60.263 Y69.669 E0.92143
G1 X60.263 Y70.283 E0.97857
G1 X59.535 Y70.703 E1.05680
G1 X59.214 Y70.233 E1.10972
G1 F1800.000 E0.30972
G92 E0
G1 X26.389 Y70.423 F11400.000
G1 F1800.000 E0.80000
G1 X26.136 Y70.657 F1080.000 E0.83208
G1 X25.488 Y70.283 E0.90171
G1 X25.488 Y69.475 E0.97690
G1 X25.889 Y69.384 E1.01511
G1 X26.389 Y70.423 E1.12242
G1 X25.889 Y66.116 F11400.000
G1 X25.488 Y66.025 F1080.000 E1.16063
G1 X25.488 Y65.217 E1.23582
G1 X26.136 Y64.843 E1.30545
G1 X26.389 Y65.077 E1.33753
G1 X25.889 Y66.116 E1.44484
G1 F1800.000 E0.64484
G92 E0
G1 X59.214 Y65.267 F11400.000
G1 F1800.000 E0.80000
G1 X59.535 Y64.797 F1080.000 E0.85292
G1 X60.263 Y65.217 E0.93114
G1 X60.263 Y65.831 E0.98828
G1 X60.051 Y65.933 E1.01021
G1 X59.214 Y65.267 E1.10972
G1 X60.925 Y64.835 F11400.000
G1 X60.925 Y70.665 F1080.000 E1.65225
G1 X55.604 Y73.738 E2.22393
G1 X51.863 Y73.738 E2.57203
G1 X51.863 Y75.754 E2.75964
G1 X46.630 Y80.988 E3.44830
G1 X39.122 Y80.988 E4.14686
G1 X33.888 Y75.754 E4.83553
G1 X33.888 Y73.738 E5.02314
G1 X30.147 Y73.738 E5.37123
G1 X24.826 Y70.665 E5.94291
G1 X24.826 Y64.835 E6.48545
G1 X30.147 Y61.762 E7.05713
G1 X33.888 Y61.762 E7.40522
G1 X33.888 Y59.746 E7.59283
G1 X39.122 Y54.512 E8.28150
G1 X46.630 Y54.512 E8.98006
G1 X51.863 Y59.746 E9.66872
G1 X51.863 Y61.762 E9.85633
G1 X55.604 Y61.762 E10.20443
G1 X60.925 Y64.835 E10.77611
G1 X61.588 Y64.793 F11400.000
G1 X61.588 Y71.048 F1080.000 E11.35806
G1 X55.782 Y74.400 E11.98184
G1 X52.526 Y74.400 E12.28481
G1 X52.526 Y76.028 E12.43632
G1 X46.904 Y81.650 E13.17604
G1 X38.847 Y81.650 E13.92567
G1 X33.226 Y76.028 E14.66539
G1 X33.226 Y74.400 E14.81690
G1 X29.969 Y74.400 E15.11987
G1 X24.163 Y71.048 E15.74365
G1 X24.163 Y64.452 E16.35736
G1 X29.969 Y61.100 E16.98114
G1 X33.226 Y61.100 E17.28411
G1 X33.226 Y59.472 E17.43562
G1 X38.847 Y53.850 E18.17534
G1 X46.904 Y53.850 E18.92497
G1 X52.526 Y59.472 E19.66469
G1 X52.526 Y61.100 E19.81620
G1 X55.782 Y61.100 E20.11917
G1 X61.804 Y64.577 E20.76620
G1 X61.588 Y64.793 E20.79467
G1 X60.931 Y64.969 F11400.000
G1 F1800.000 E19.99467
G92 E0
G1 X35.362 Y75.464 F11400.000
G1 F1800.000 E0.80000
G1 X35.064 Y74.947 F1620.000 E0.85399
G1 X35.064 Y73.587 E0.97699
G1 X37.219 Y77.321 E1.36704
G1 X39.077 Y79.178 E1.60466
G1 X35.064 Y72.227 E2.33076
G1 X35.474 Y71.579 E2.40020
G1 X40.291 Y79.921 E3.27162
G1 X41.076 Y79.921 E3.34264
G1 X36.259 Y71.579 E4.21406
G1 X37.044 Y71.579 E4.28508
G1 X41.861 Y79.921 E5.15650
G1 X42.646 Y79.921 E5.22752
G1 X37.829 Y71.579 E6.09895
G1 X38.614 Y71.579 E6.16996
G1 X43.431 Y79.921 E7.04139
G1 X44.216 Y79.921 E7.11240
G1 X39.399 Y71.579 E7.98383
G1 X40.184 Y71.579 E8.05484
G1 X45.000 Y79.921 E8.92627
G1 X45.785 Y79.921 E8.99728
G1 X40.969 Y71.579 E9.86871
G1 X41.754 Y71.579 E9.93973
G1 X46.446 Y79.705 E10.78859
G1 X46.943 Y79.207 E10.85227
G1 X42.539 Y71.579 E11.64914
G1 X43.324 Y71.579 E11.72015
G1 X47.441 Y78.710 E12.46504
G1 X47.939 Y78.212 E12.52871
G1 X44.109 Y71.579 E13.22160
G1 X44.894 Y71.579 E13.29262
G1 X48.436 Y77.714 E13.93353
G1 X48.934 Y77.217 E13.99721
G1 X45.679 Y71.579 E14.58613
G1 X46.464 Y71.579 E14.65715
G1 X49.432 Y76.719 E15.19408
G1 X49.929 Y76.221 E15.25775
G1 X47.249 Y71.579 E15.74270
G1 X48.034 Y71.579 E15.81371
G1 X50.427 Y75.724 E16.24667
G1 X50.687 Y74.815 E16.33219
G1 X48.819 Y71.579 E16.67022
G1 X49.604 Y71.579 E16.74123
G1 X50.687 Y73.455 E16.93722
G1 X50.687 Y72.096 E17.06023
G1 X50.389 Y71.579 E17.11418
G1 F1800.000 E16.31418
G92 E0
G1 X31.566 Y62.829 F11400.000
G1 F1800.000 E0.80000
G1 X34.961 Y68.709 F1620.000 E1.40538
G1 X34.961 Y67.368 E1.52494
G1 X32.340 Y62.829 E1.99227
G1 X33.115 Y62.829 E2.06129
G1 X34.961 Y66.028 E2.39057
G1 X34.961 Y64.687 E2.51013
G1 X33.889 Y62.829 E2.70136
G1 X34.663 Y62.829 E2.77038
G1 X34.961 Y63.346 E2.82356
G1 X32.282 Y65.410 F11400.000
G1 X30.792 Y62.829 F1620.000 E3.08930
G1 X30.102 Y62.974 E3.15219
G1 X30.848 Y64.266 E3.28520
G1 F1800.000 E2.48520
G92 E0
G1 X30.096 Y72.350 F11400.000
G1 F1800.000 E0.80000
G1 X29.797 Y71.834 F1620.000 E0.85318
G1 X30.327 Y71.411 E0.91364
G1 X31.055 Y72.671 E1.04336
G1 X31.829 Y72.671 E1.11238
G1 X30.858 Y70.988 E1.28562
G1 X31.388 Y70.565 E1.34607
G1 X32.603 Y72.671 E1.56284
G1 X33.377 Y72.671 E1.63187
G1 X31.918 Y70.143 E1.89215
G1 X32.448 Y69.720 E1.95260
