; generated by Slic3r 0.9.5 on 2012-12-23 at 14:55:38

; layer_height = 0.33
; perimeters = 3
; top_solid_layers = 3
; bottom_solid_layers = 3
; fill_density = 0.2
; perimeter_speed = 70
; infill_speed = 99
; travel_speed = 180
; scale = 1
; nozzle_diameter = 0.35
; filament_diameter = 1.78
; extrusion_multiplier = .98
; perimeters extrusion width = 0.37mm
; infill extrusion width = 0.37mm
; first layer extrusion width = 0.66mm

G28 ; home all axes
M106; Fan ON
G90 ; use absolute coordinates
G21 ; set units to millimeters
G92 E0
M82 ; use absolute distances for extrusion
G1 F1800.000 E-0.80000
G92 E0
G1 Z0.330 F10800.000
G1 X45.677 Y42.780
G1 F1800.000 E0.80000
G1 X45.677 Y35.960 F1680.000 E1.32601
G1 X45.697 Y35.770 E1.34075
G1 X45.727 Y35.580 E1.35558
G1 X45.767 Y35.390 E1.37056
G1 X45.817 Y35.200 E1.38571
G1 X45.877 Y35.020 E1.40035
G1 X45.947 Y34.840 E1.41524
G1 X46.027 Y34.670 E1.42973
G1 X46.127 Y34.500 E1.44494
G1 X46.227 Y34.340 E1.45950
G1 X46.337 Y34.180 E1.47447
G1 X46.457 Y34.030 E1.48929
G1 X46.587 Y33.890 E1.50402
G1 X46.867 Y33.630 E1.53349
G1 X47.017 Y33.510 E1.54831
G1 X61.717 Y22.890 E2.94702
G1 X61.887 Y22.780 E2.96263
G1 X62.247 Y22.580 E2.99440
G1 X62.437 Y22.500 E3.01030
G1 X62.627 Y22.430 E3.02591
G1 X62.817 Y22.380 E3.04107
G1 X63.017 Y22.330 E3.05697
G1 X63.217 Y22.300 E3.07257
G1 X63.427 Y22.280 E3.08884
G1 X115.877 Y22.280 E7.13419
G1 X116.087 Y22.300 E7.15046
G1 X116.287 Y22.330 E7.16606
G1 X116.487 Y22.380 E7.18196
G1 X116.677 Y22.430 E7.19712
G1 X116.867 Y22.500 E7.21273
G1 X117.057 Y22.580 E7.22863
G1 X117.417 Y22.780 E7.26040
G1 X117.577 Y22.890 E7.27537
G1 X132.287 Y33.510 E8.67470
G1 X132.447 Y33.630 E8.69013
G1 X132.747 Y33.910 E8.72178
G1 X132.877 Y34.060 E8.73709
G1 X132.997 Y34.210 E8.75190
G1 X133.117 Y34.380 E8.76795
G1 X133.217 Y34.550 E8.78317
G1 X133.317 Y34.730 E8.79905
G1 X133.397 Y34.910 E8.81424
G1 X133.467 Y35.100 E8.82986
G1 X133.527 Y35.290 E8.84522
G1 X133.567 Y35.480 E8.86020
G1 X133.607 Y35.680 E8.87593
G1 X133.627 Y35.880 E8.89143
G1 X133.637 Y36.080 E8.90688
G1 X134.317 Y68.170 E11.38247
G1 X134.317 Y109.350 E14.55859
G1 X134.297 Y109.700 E14.58563
G1 X130.597 Y143.590 E17.21503
G1 X130.577 Y143.790 E17.23053
G1 X130.537 Y143.980 E17.24551
G1 X130.487 Y144.160 E17.25991
G1 X130.427 Y144.350 E17.27528
G1 X130.357 Y144.530 E17.29018
G1 X130.267 Y144.710 E17.30570
G1 X130.177 Y144.880 E17.32054
G1 X130.077 Y145.040 E17.33509
G1 X129.967 Y145.200 E17.35006
G1 X129.707 Y145.500 E17.38068
G1 X129.427 Y145.760 E17.41015
G1 X129.267 Y145.880 E17.42558
G1 X114.557 Y156.490 E18.82446
G1 X114.377 Y156.610 E18.84114
G1 X114.187 Y156.720 E18.85808
G1 X113.987 Y156.820 E18.87532
G1 X113.787 Y156.900 E18.89194
G1 X113.577 Y156.970 E18.90901
G1 X113.367 Y157.030 E18.92586
G1 X113.147 Y157.070 E18.94310
G1 X112.927 Y157.090 E18.96014
G1 X112.707 Y157.100 E18.97713
G1 X72.287 Y157.720 E22.09500
G1 X63.977 Y157.720 E22.73593
G1 X63.767 Y157.700 E22.75220
G1 X63.567 Y157.670 E22.76780
G1 X63.367 Y157.620 E22.78370
G1 X63.177 Y157.570 E22.79886
G1 X62.987 Y157.500 E22.81447
G1 X62.797 Y157.420 E22.83037
G1 X62.437 Y157.220 E22.86214
G1 X62.267 Y157.110 E22.87775
G1 X47.567 Y146.490 E24.27646
G1 X47.407 Y146.360 E24.29236
G1 X47.257 Y146.230 E24.30767
G1 X46.977 Y145.930 E24.33932
G1 X46.847 Y145.770 E24.35522
G1 X46.737 Y145.600 E24.37084
G1 X46.637 Y145.430 E24.38605
G1 X46.537 Y145.250 E24.40193
G1 X46.457 Y145.060 E24.41783
G1 X46.387 Y144.870 E24.43345
G1 X46.327 Y144.670 E24.44955
G1 X46.287 Y144.480 E24.46453
G1 X46.247 Y144.270 E24.48102
G1 X46.227 Y144.070 E24.49652
G1 X46.227 Y143.870 E24.51195
G1 X45.677 Y42.780 E32.30892
G1 X46.297 Y42.770 F10800.000
G1 X46.297 Y36.150 F1680.000 E32.81950
G1 X46.307 Y35.970 E32.83341
G1 X46.327 Y35.800 E32.84661
G1 X46.357 Y35.620 E32.86069
G1 X46.397 Y35.450 E32.87416
G1 X46.447 Y35.280 E32.88782
G1 X46.517 Y35.110 E32.90200
G1 X46.587 Y34.950 E32.91547
G1 X46.767 Y34.650 E32.94246
G1 X46.987 Y34.370 E32.96992
G1 X47.247 Y34.130 E32.99721
G1 X47.387 Y34.020 E33.01094
G1 X62.087 Y23.400 E34.40965
G1 X62.237 Y23.300 E34.42355
G1 X62.397 Y23.210 E34.43771
G1 X62.567 Y23.130 E34.45220
G1 X62.737 Y23.060 E34.46638
G1 X62.907 Y23.000 E34.48029
G1 X63.087 Y22.960 E34.49451
G1 X63.267 Y22.930 E34.50858
G1 X63.447 Y22.910 E34.52255
G1 X63.627 Y22.900 E34.53646
G1 X115.677 Y22.900 E38.55096
G1 X115.857 Y22.910 E38.56487
G1 X116.037 Y22.930 E38.57884
G1 X116.217 Y22.960 E38.59291
G1 X116.397 Y23.000 E38.60713
G1 X116.567 Y23.060 E38.62104
G1 X116.737 Y23.130 E38.63522
G1 X116.907 Y23.210 E38.64971
G1 X117.067 Y23.300 E38.66387
G1 X117.217 Y23.400 E38.67777
G1 X131.927 Y34.020 E40.07710
G1 X132.067 Y34.130 E40.09083
G1 X132.207 Y34.260 E40.10557
G1 X132.337 Y34.390 E40.11975
G1 X132.457 Y34.540 E40.13456
G1 X132.567 Y34.690 E40.14891
G1 X132.667 Y34.850 E40.16346
G1 X132.757 Y35.010 E40.17762
G1 X132.827 Y35.180 E40.19180
G1 X132.897 Y35.360 E40.20670
G1 X132.977 Y35.720 E40.23514
G1 X133.007 Y35.910 E40.24998
G1 X133.017 Y36.090 E40.26388
G1 X133.697 Y68.180 E42.73947
G1 X133.697 Y109.350 E45.91483
G1 X133.677 Y109.640 E45.93725
G1 X129.977 Y143.530 E48.56664
G1 X129.917 Y143.890 E48.59479
G1 X129.867 Y144.060 E48.60846
G1 X129.727 Y144.400 E48.63682
G1 X129.637 Y144.560 E48.65098
G1 X129.537 Y144.720 E48.66553
G1 X129.317 Y145.000 E48.69299
G1 X129.187 Y145.140 E48.70773
G1 X129.047 Y145.260 E48.72195
G1 X128.907 Y145.370 E48.73568
G1 X114.197 Y155.980 E50.13456
G1 X114.027 Y156.090 E50.15018
G1 X113.857 Y156.190 E50.16539
G1 X113.667 Y156.270 E50.18129
G1 X113.487 Y156.340 E50.19619
G1 X113.287 Y156.400 E50.21229
G1 X113.097 Y156.440 E50.22727
G1 X112.897 Y156.470 E50.24287
G1 X112.697 Y156.480 E50.25831
G1 X72.277 Y157.100 E53.37619
G1 X64.177 Y157.100 E54.00092
G1 X63.997 Y157.090 E54.01483
G1 X63.817 Y157.070 E54.02880
G1 X63.637 Y157.040 E54.04287
G1 X63.457 Y157.000 E54.05709
G1 X63.287 Y156.940 E54.07100
G1 X63.117 Y156.870 E54.08518
G1 X62.947 Y156.790 E54.09967
G1 X62.787 Y156.700 E54.11383
G1 X62.637 Y156.600 E54.12773
G1 X47.937 Y145.980 E55.52644
G1 X47.797 Y145.870 E55.54017
G1 X47.667 Y145.750 E55.55381
G1 X47.547 Y145.630 E55.56690
G1 X47.427 Y145.490 E55.58112
G1 X47.227 Y145.210 E55.60766
G1 X47.137 Y145.050 E55.62182
G1 X46.997 Y144.730 E55.64876
G1 X46.947 Y144.560 E55.66243
G1 X46.907 Y144.390 E55.67590
G1 X46.877 Y144.220 E55.68921
G1 X46.857 Y144.040 E55.70318
G1 X46.847 Y143.860 E55.71709
G1 X46.297 Y42.770 E63.51406
G1 F1800.000 E62.71406
G92 E0
G1 X56.895 Y104.759 F10800.000
G1 F1800.000 E0.80000
G1 X56.895 Y107.341 F1680.000 E0.99922
G1 X54.876 Y108.952 E1.19843
G1 X52.358 Y108.377 E1.39764
G1 X51.237 Y106.050 E1.59686
G1 X52.358 Y103.723 E1.79607
G1 X54.876 Y103.148 E1.99528
G1 X56.895 Y104.759 E2.19450
G1 X56.268 Y105.060 F10800.000
G1 X56.268 Y107.040 F1680.000 E2.34715
G1 X54.721 Y108.274 E2.49981
G1 X52.791 Y107.833 E2.65246
G1 X51.933 Y106.050 E2.80512
G1 X52.791 Y104.267 E2.95778
G1 X54.721 Y103.826 E3.11043
G1 X56.268 Y105.060 E3.26309
G1 X60.935 Y102.317 F10800.000
G1 X63.398 Y102.317 F1680.000 E3.45311
G1 X64.792 Y102.460 E3.56117
G1 X66.532 Y102.569 E3.69562
G1 X68.213 Y102.605 E3.82535
G1 X69.895 Y102.569 E3.95509
G1 X71.635 Y102.460 E4.08953
G1 X73.028 Y102.317 E4.19759
G1 X75.492 Y102.317 E4.38762
G1 X75.492 Y109.383 E4.93268
G1 X60.935 Y109.383 E6.05548
G1 X60.935 Y102.317 E6.60054
G1 X61.561 Y102.943 F10800.000
G1 X63.366 Y102.943 F1680.000 E6.73973
G1 X64.740 Y103.085 E6.84628
G1 X66.506 Y103.196 E6.98270
G1 X68.213 Y103.231 E7.11446
G1 X69.921 Y103.196 E7.24621
G1 X71.687 Y103.085 E7.38263
G1 X73.061 Y102.943 E7.48918
G1 X74.865 Y102.943 E7.62838
G1 X74.865 Y108.757 E8.07676
G1 X61.561 Y108.757 E9.10288
G1 X61.561 Y102.943 E9.55126
G1 X62.188 Y103.570 F10800.000
G1 X63.334 Y103.570 F1680.000 E9.63963
G1 X64.688 Y103.710 E9.74467
G1 X66.479 Y103.822 E9.88307
G1 X68.213 Y103.858 E10.01684
G1 X69.695 Y103.827 E10.13115
G1 X69.695 Y103.838 E10.13196
G1 X71.738 Y103.710 E10.28985
G1 X73.093 Y103.570 E10.39489
G1 X74.239 Y103.570 E10.48326
G1 X74.239 Y108.130 E10.83496
G1 X62.188 Y108.130 E11.76441
G1 X62.188 Y103.570 E12.11611
G1 F1800.000 E11.31611
G92 E0
G1 X79.237 Y106.050 F10800.000
G1 F1800.000 E0.80000
G1 X80.358 Y103.723 F1680.000 E0.99922
G1 X82.876 Y103.148 E1.19842
G1 X84.895 Y104.759 E1.39764
G1 X84.895 Y107.341 E1.59686
G1 X82.876 Y108.952 E1.79607
G1 X80.358 Y108.377 E1.99528
G1 X79.237 Y106.050 E2.19450
G1 X79.933 Y106.050 F10800.000
G1 X80.791 Y104.267 F1680.000 E2.34716
G1 X82.721 Y103.826 E2.49981
G1 X84.268 Y105.060 E2.65247
G1 X84.268 Y107.040 E2.80512
G1 X82.721 Y108.274 E2.95778
G1 X80.791 Y107.833 E3.11043
G1 X79.933 Y106.050 E3.26309
G1 F1800.000 E2.46309
G92 E0
G1 X64.706 Y118.717 F10800.000
G1 F1800.000 E0.80000
G1 X59.797 Y113.807 F1680.000 E1.33545
G1 X59.797 Y111.467 E1.51601
G1 X55.638 Y111.467 E1.83680
G1 X52.108 Y109.428 E2.15119
G1 X52.275 Y109.001 E2.18659
G1 X55.030 Y109.630 E2.40456
G1 X57.522 Y107.643 E2.65033
G1 X57.522 Y104.457 E2.89611
G1 X55.030 Y102.470 E3.14188
G1 X52.275 Y103.099 E3.35985
G1 X52.108 Y102.672 E3.39525
G1 X55.638 Y100.633 E3.70964
G1 X59.797 Y100.633 E4.03043
G1 X59.797 Y98.293 E4.21098
G1 X64.706 Y93.383 E4.74644
G1 X71.721 Y93.383 E5.28749
G1 X76.630 Y98.293 E5.82294
G1 X76.630 Y100.633 E6.00350
G1 X80.789 Y100.633 E6.32428
G1 X83.382 Y102.131 E6.55524
G1 X83.342 Y102.399 E6.57616
G1 X79.924 Y103.179 E6.84656
G1 X78.541 Y106.050 E7.09234
G1 X79.924 Y108.921 E7.33811
G1 X83.342 Y109.701 E7.60852
G1 X83.382 Y109.969 E7.62943
G1 X80.789 Y111.467 E7.86039
G1 X76.630 Y111.467 E8.18118
G1 X76.630 Y113.807 E8.36173
G1 X71.721 Y118.717 E8.89718
G1 X64.706 Y118.717 E9.43824
G1 F1800.000 E8.63824
G92 E0
G1 X83.381 Y109.351 F10800.000
G1 F1800.000 E0.80000
G1 X85.491 Y107.668 F1680.000 E1.00818
G1 X85.692 Y107.764 E1.02537
G1 X85.692 Y108.636 E1.09258
G1 X83.684 Y109.795 E1.27141
G1 X83.381 Y109.351 E1.31291
G1 F1800.000 E0.51291
G92 E0
G1 X51.952 Y108.978 F10800.000
G1 F1800.000 E0.80000
G1 X51.712 Y109.200 F1680.000 E0.82516
G1 X50.735 Y108.636 E0.91224
G1 X50.735 Y107.325 E1.01336
G1 X51.114 Y107.238 E1.04333
G1 X51.952 Y108.978 E1.19230
G1 X51.114 Y104.862 F10800.000
G1 X50.735 Y104.775 F1680.000 E1.22227
G1 X50.735 Y103.464 E1.32339
G1 X51.712 Y102.900 E1.41047
G1 X51.952 Y103.122 E1.43563
G1 X51.114 Y104.862 E1.58460
G1 F1800.000 E0.78460
G92 E0
G1 X83.381 Y102.749 F10800.000
G1 F1800.000 E0.80000
G1 X83.684 Y102.305 F1680.000 E0.84150
G1 X85.692 Y103.464 E1.02033
G1 X85.692 Y104.336 E1.08754
G1 X85.491 Y104.432 E1.10473
G1 X83.381 Y102.749 E1.31291
G1 X86.319 Y103.102 F10800.000
G1 X86.319 Y108.998 F1680.000 E1.76760
G1 X80.957 Y112.093 E2.24512
G1 X77.257 Y112.093 E2.53052
G1 X77.257 Y114.067 E2.68276
G1 X71.980 Y119.343 E3.25826
G1 X64.446 Y119.343 E3.83936
G1 X59.170 Y114.067 E4.41485
G1 X59.170 Y112.093 E4.56709
G1 X55.470 Y112.093 E4.85249
G1 X50.108 Y108.998 E5.33002
G1 X50.108 Y103.102 E5.78470
G1 X55.470 Y100.007 E6.26223
G1 X59.170 Y100.007 E6.54763
G1 X59.170 Y98.033 E6.69987
G1 X64.446 Y92.757 E7.27536
G1 X71.980 Y92.757 E7.85646
G1 X77.257 Y98.033 E8.43196
G1 X77.257 Y100.007 E8.58420
G1 X80.957 Y100.007 E8.86960
G1 X86.319 Y103.102 E9.34712
G1 X86.946 Y102.741 F10800.000
G1 X86.946 Y109.359 F1680.000 E9.85763
G1 X81.125 Y112.720 E10.37601
G1 X77.883 Y112.720 E10.62603
G1 X77.883 Y114.327 E10.74995
G1 X72.240 Y119.970 E11.36549
G1 X64.187 Y119.970 E11.98663
G1 X58.543 Y114.327 E12.60218
G1 X58.543 Y112.720 E12.72610
G1 X55.302 Y112.720 E12.97611
G1 X49.481 Y109.359 E13.49450
G1 X49.481 Y102.741 E14.00500
G1 X55.302 Y99.380 E14.52338
G1 X58.543 Y99.380 E14.77340
G1 X58.543 Y97.773 E14.89732
G1 X64.187 Y92.130 E15.51287
G1 X72.240 Y92.130 E16.13401
G1 X77.883 Y97.773 E16.74955
G1 X77.883 Y99.380 E16.87347
G1 X81.125 Y99.380 E17.12349
G1 X86.946 Y102.741 E17.64187
G1 X87.263 Y103.291 F10800.000
G1 F1800.000 E16.84187
G92 E0
G1 X80.014 Y102.792 F10800.000
G1 F1800.000 E0.80000
G1 X78.989 Y101.016 F1920.000 E0.96025
G1 X79.722 Y101.016 E1.01758
G1 X80.663 Y102.644 E1.16448
G1 X81.311 Y102.496 E1.21644
G1 X80.456 Y101.016 E1.34999
G1 X81.545 Y101.631 E1.44768
G1 X81.827 Y102.119 E1.49178
G1 F1800.000 E0.69178
G92 E0
G1 X61.292 Y109.766 F10800.000
G1 F1800.000 E0.80000
G1 X66.239 Y118.334 F1920.000 E1.57300
G1 X66.973 Y118.334 E1.63033
G1 X62.026 Y109.766 E2.40333
G1 X62.760 Y109.766 E2.46066
G1 X67.707 Y118.334 E3.23366
G1 X68.441 Y118.334 E3.29100
G1 X63.494 Y109.766 E4.06400
G1 X64.228 Y109.766 E4.12133
G1 X69.174 Y118.334 E4.89433
G1 X69.908 Y118.334 E4.95166
G1 X64.961 Y109.766 E5.72466
G1 X65.695 Y109.766 E5.78199
G1 X70.642 Y118.334 E6.55499
G1 X71.376 Y118.334 E6.61233
G1 X66.429 Y109.766 E7.38534
G1 X67.163 Y109.766 E7.44267
G1 X71.924 Y118.013 E8.18666
G1 X72.389 Y117.547 E8.23806
G1 X67.897 Y109.766 E8.94008
G1 X68.630 Y109.766 E8.99741
G1 X72.854 Y117.082 E9.65746
G1 X73.320 Y116.617 E9.70886
G1 X69.364 Y109.766 E10.32694
G1 X70.098 Y109.766 E10.38428
G1 X73.785 Y116.152 E10.96039
G1 X74.250 Y115.686 E11.01179
G1 X70.832 Y109.766 E11.54593
G1 X71.566 Y109.766 E11.60327
G1 X74.715 Y115.221 E12.09543
G1 X75.181 Y114.756 E12.14683
G1 X72.299 Y109.766 E12.59702
G1 X73.033 Y109.766 E12.65436
G1 X75.646 Y114.291 E13.06257
G1 X76.111 Y113.826 E13.11398
G1 X73.767 Y109.766 E13.48023
G1 X74.501 Y109.766 E13.53756
G1 X76.144 Y112.612 E13.79437
G1 X76.144 Y111.341 E13.89367
G1 X75.235 Y109.766 E14.03581
G1 X75.969 Y109.766 E14.09314
G1 X76.730 Y111.084 E14.21207
G1 X77.463 Y111.084 E14.26941
G1 X75.978 Y108.511 E14.50154
G1 X75.978 Y107.240 E14.60085
G1 X78.197 Y111.084 E14.94766
G1 X78.931 Y111.084 E15.00499
G1 X75.978 Y105.969 E15.46646
G1 X75.978 Y104.698 E15.56577
G1 X79.665 Y111.084 E16.14190
G1 X80.399 Y111.084 E16.19923
G1 X75.978 Y103.427 E16.89003
G1 X75.978 Y102.156 E16.98934
G1 X78.160 Y105.935 E17.33027
G1 X78.493 Y105.242 E17.39036
G1 X76.175 Y101.227 E17.75257
G1 X76.787 Y101.016 E17.80314
G1 X78.827 Y104.549 E18.12190
G1 X79.161 Y103.856 E18.18199
G1 X77.521 Y101.016 E18.43825
G1 X78.255 Y101.016 E18.49558
G1 X79.495 Y103.163 E18.68932
G1 F1800.000 E17.88932
G92 E0
G1 X55.200 Y110.653 F10800.000
G1 F1800.000 E0.80000
G1 X54.918 Y110.165 F1920.000 E0.84409
G1 X55.420 Y109.764 E0.89431
G1 X56.183 Y111.084 E1.01343
G1 X56.917 Y111.084 E1.07076
G1 X55.923 Y109.363 E1.22603
G1 X56.425 Y108.962 E1.27624
G1 X57.650 Y111.084 E1.46766
G1 X58.384 Y111.084 E1.52499
G1 X56.928 Y108.562 E1.75256
G1 X57.430 Y108.161 E1.80277
G1 X59.118 Y111.084 E2.06649
G1 X59.852 Y111.084 E2.12383
G1 X57.933 Y107.760 E2.42370
G1 X58.008 Y106.618 E2.51309
G1 X64.314 Y117.542 E3.49854
G1 X65.505 Y118.334 E3.61034
G1 X60.558 Y109.766 E4.38334
G1 X60.449 Y109.576 F10800.000
G1 X58.008 Y105.347 F1920.000 E4.76484
G1 X58.112 Y104.258 E4.85038
G1 X56.240 Y101.016 E5.14285
G1 X55.546 Y101.084 E5.19736
G1 X56.752 Y103.173 E5.38581
G1 X58.008 Y104.077 E5.50664
G1 X60.449 Y108.305 E5.88815
G1 X60.449 Y107.034 E5.98746
G1 X56.974 Y101.016 E6.53042
G1 X57.708 Y101.016 E6.58775
G1 X60.449 Y105.763 E7.01605
G1 X60.449 Y104.492 E7.11535
G1 X58.442 Y101.016 E7.42899
G1 X59.176 Y101.016 E7.48632
G1 X60.449 Y103.221 E7.68528
G1 X60.251 Y101.608 E7.81228
G1 X59.910 Y101.016 E7.86569
G1 X55.392 Y102.089 F10800.000
G1 X54.996 Y101.402 F1920.000 E7.92764
G1 F1800.000 E7.12764
G92 E0
G1 X62.578 Y115.805 F10800.000
G1 F1800.000 E0.80000
G1 X60.283 Y111.830 F1920.000 E1.15865
G1 X60.282 Y113.101 E1.25797
G1 X60.841 Y114.069 E1.34531
G1 F1800.000 E0.54531
G92 E0
G1 X80.164 Y109.406 F10800.000
G1 F1800.000 E0.80000
