; generated by Slic3r 0.9.6-dev on 2012-11-16 at 11:28:22

; layer_height = 0.33
; perimeters = 3
; top_solid_layers = 3
; bottom_solid_layers = 3
; fill_density = 0.20
; perimeter_speed = 50
; infill_speed = 75
; travel_speed = 160
; scale = 1
; nozzle_diameter = 0.35
; filament_diameter = 1.74
; extrusion_multiplier = 1
; perimeters extrusion width = 0.37mm
; infill extrusion width = 0.37mm
; first layer extrusion width = 0.37mm

G28 ; home all axes
M106;
G90 ; use absolute coordinates
G21 ; set units to millimeters
G92 E0
M82 ; use absolute distances for extrusion
G1 F1200.000 E-1.00000
G92 E0
G1 Z0.330 F9600.000
G1 X48.235 Y37.160
G1 F1200.000 E1.00000
G1 X48.515 Y36.940 F900.000 E1.01798
G1 X63.305 Y26.270 E1.93859
G1 X63.535 Y26.110 E1.95273
G1 X63.775 Y25.960 E1.96702
G1 X64.015 Y25.820 E1.98105
G1 X64.265 Y25.690 E1.99527
G1 X64.525 Y25.570 E2.00973
G1 X64.775 Y25.470 E2.02332
G1 X65.045 Y25.370 E2.03785
G1 X65.305 Y25.280 E2.05174
G1 X65.575 Y25.210 E2.06582
G1 X65.855 Y25.140 E2.08039
G1 X66.125 Y25.090 E2.09425
G1 X66.405 Y25.050 E2.10853
G1 X66.685 Y25.020 E2.12275
G1 X66.965 Y25.000 E2.13692
G1 X75.425 Y25.000 E2.56398
G1 X75.735 Y25.010 E2.57964
G1 X116.155 Y26.860 E4.62219
G1 X116.435 Y26.870 E4.63633
G1 X116.705 Y26.900 E4.65005
G1 X116.985 Y26.950 E4.66440
G1 X117.255 Y27.000 E4.67827
G1 X117.525 Y27.060 E4.69223
G1 X118.065 Y27.220 E4.72066
G1 X118.325 Y27.320 E4.73472
G1 X118.575 Y27.430 E4.74851
G1 X118.835 Y27.550 E4.76296
G1 X119.315 Y27.810 E4.79052
G1 X119.555 Y27.960 E4.80481
G1 X119.785 Y28.120 E4.81895
G1 X134.575 Y38.790 E5.73957
G1 X134.725 Y38.910 E5.74926
G1 X174.815 Y69.610 E8.29824
G1 X175.035 Y69.780 E8.31228
G1 X175.455 Y70.160 E8.34087
G1 X175.645 Y70.360 E8.35480
G1 X175.835 Y70.570 E8.36909
G1 X176.015 Y70.790 E8.38344
G1 X176.185 Y71.010 E8.39748
G1 X176.345 Y71.240 E8.41162
G1 X176.495 Y71.480 E8.42591
G1 X176.635 Y71.720 E8.43993
G1 X176.765 Y71.970 E8.45416
G1 X176.875 Y72.220 E8.46794
G1 X176.985 Y72.480 E8.48219
G1 X177.085 Y72.750 E8.49673
G1 X177.175 Y73.010 E8.51062
G1 X177.245 Y73.280 E8.52470
G1 X177.315 Y73.560 E8.53927
G1 X177.365 Y73.830 E8.55313
G1 X177.405 Y74.110 E8.56741
G1 X177.435 Y74.390 E8.58162
G1 X177.455 Y74.670 E8.59579
G1 X177.455 Y81.940 E8.96278
G1 X176.565 Y112.220 E10.49199
G1 X176.545 Y112.500 E10.50616
G1 X176.525 Y112.770 E10.51983
G1 X176.485 Y113.050 E10.53410
G1 X176.435 Y113.320 E10.54797
G1 X176.375 Y113.600 E10.56242
G1 X176.305 Y113.860 E10.57601
G1 X176.225 Y114.130 E10.59023
G1 X176.135 Y114.390 E10.60412
G1 X176.035 Y114.650 E10.61818
G1 X175.915 Y114.910 E10.63263
G1 X175.795 Y115.150 E10.64618
G1 X175.655 Y115.400 E10.66064
G1 X175.515 Y115.640 E10.67467
G1 X175.355 Y115.870 E10.68881
G1 X175.195 Y116.090 E10.70255
G1 X175.025 Y116.310 E10.71658
G1 X174.835 Y116.520 E10.73088
G1 X174.455 Y116.920 E10.75873
G1 X174.245 Y117.110 E10.77302
G1 X173.805 Y117.450 E10.80109
G1 X133.375 Y147.020 E13.32963
G1 X133.345 Y147.050 E13.33177
G1 X118.555 Y157.720 E14.25239
G1 X118.325 Y157.880 E14.26653
G1 X118.085 Y158.030 E14.28082
G1 X117.845 Y158.170 E14.29485
G1 X117.595 Y158.300 E14.30907
G1 X117.335 Y158.420 E14.32353
G1 X117.085 Y158.520 E14.33712
G1 X116.815 Y158.620 E14.35165
G1 X116.555 Y158.710 E14.36554
G1 X116.285 Y158.780 E14.37962
G1 X116.005 Y158.850 E14.39419
G1 X115.735 Y158.900 E14.40805
G1 X115.455 Y158.940 E14.42233
G1 X115.175 Y158.970 E14.43655
G1 X114.895 Y158.990 E14.45072
G1 X66.355 Y158.990 E16.90103
G1 X66.075 Y158.970 E16.91520
G1 X65.795 Y158.940 E16.92942
G1 X65.515 Y158.900 E16.94369
G1 X65.245 Y158.850 E16.95756
G1 X64.965 Y158.780 E16.97213
G1 X64.695 Y158.710 E16.98621
G1 X64.435 Y158.620 E17.00010
G1 X64.165 Y158.520 E17.01463
G1 X63.915 Y158.420 E17.02822
G1 X63.655 Y158.300 E17.04268
G1 X63.405 Y158.170 E17.05690
G1 X63.165 Y158.030 E17.07093
G1 X62.925 Y157.880 E17.08521
G1 X62.695 Y157.720 E17.09936
G1 X47.905 Y147.050 E18.01997
G1 X47.645 Y146.850 E18.03653
G1 X9.065 Y116.050 E20.52857
G1 X8.855 Y115.870 E20.54253
G1 X8.655 Y115.690 E20.55612
G1 X8.455 Y115.500 E20.57004
G1 X8.265 Y115.300 E20.58397
G1 X8.085 Y115.090 E20.59793
G1 X7.915 Y114.880 E20.61157
G1 X7.755 Y114.660 E20.62530
G1 X7.605 Y114.430 E20.63916
G1 X7.455 Y114.190 E20.65345
G1 X7.195 Y113.710 E20.68101
G1 X7.085 Y113.460 E20.69479
G1 X6.985 Y113.210 E20.70839
G1 X6.885 Y112.950 E20.72245
G1 X6.805 Y112.690 E20.73618
G1 X6.735 Y112.420 E20.75026
G1 X6.675 Y112.150 E20.76422
G1 X6.625 Y111.880 E20.77808
G1 X6.585 Y111.610 E20.79186
G1 X6.555 Y111.340 E20.80558
G1 X6.535 Y111.060 E20.81975
G1 X6.535 Y103.920 E21.18018
G1 X6.875 Y73.640 E22.70882
G1 X6.885 Y73.360 E22.72296
G1 X6.905 Y73.080 E22.73713
G1 X6.935 Y72.800 E22.75134
G1 X7.035 Y72.240 E22.78006
G1 X7.105 Y71.970 E22.79414
G1 X7.185 Y71.700 E22.80836
G1 X7.275 Y71.430 E22.82272
G1 X7.375 Y71.170 E22.83679
G1 X7.485 Y70.910 E22.85104
G1 X7.745 Y70.410 E22.87949
G1 X7.885 Y70.160 E22.89395
G1 X8.205 Y69.700 E22.92224
G1 X8.385 Y69.470 E22.93698
G1 X8.565 Y69.260 E22.95094
G1 X8.755 Y69.050 E22.96524
G1 X8.955 Y68.850 E22.97952
G1 X9.165 Y68.660 E22.99381
G1 X9.385 Y68.480 E23.00816
G1 X48.235 Y37.160 E25.52726
G1 X48.455 Y37.440 F9600.000
G1 X48.735 Y37.240 F900.000 E25.54463
G1 X63.525 Y26.570 E26.46524
G1 X63.755 Y26.410 E26.47939
G1 X63.995 Y26.260 E26.49367
G1 X64.245 Y26.120 E26.50814
G1 X64.495 Y25.990 E26.52236
G1 X64.755 Y25.870 E26.53682
G1 X65.015 Y25.770 E26.55088
G1 X65.285 Y25.670 E26.56541
G1 X65.565 Y25.590 E26.58011
G1 X65.835 Y25.520 E26.59419
G1 X66.395 Y25.420 E26.62291
G1 X66.675 Y25.390 E26.63713
G1 X66.965 Y25.370 E26.65180
G1 X67.245 Y25.360 E26.66594
G1 X75.425 Y25.360 E27.07887
G1 X75.715 Y25.370 E27.09352
G1 X116.135 Y27.220 E29.13607
G1 X116.415 Y27.240 E29.15024
G1 X116.705 Y27.270 E29.16496
G1 X116.985 Y27.320 E29.17932
G1 X117.255 Y27.370 E29.19318
G1 X117.535 Y27.440 E29.20775
G1 X117.805 Y27.520 E29.22196
G1 X118.075 Y27.620 E29.23650
G1 X118.335 Y27.720 E29.25056
G1 X118.595 Y27.840 E29.26501
G1 X118.845 Y27.970 E29.27924
G1 X119.095 Y28.110 E29.29370
G1 X119.335 Y28.260 E29.30799
G1 X119.565 Y28.420 E29.32213
G1 X134.355 Y39.090 E30.24275
G1 X134.505 Y39.200 E30.25214
G1 X174.595 Y69.900 E32.80112
G1 X174.805 Y70.060 E32.81445
G1 X175.005 Y70.240 E32.82803
G1 X175.195 Y70.420 E32.84124
G1 X175.385 Y70.610 E32.85480
G1 X175.725 Y71.010 E32.88131
G1 X175.885 Y71.220 E32.89463
G1 X176.035 Y71.440 E32.90807
G1 X176.315 Y71.900 E32.93526
G1 X176.435 Y72.130 E32.94835
G1 X176.545 Y72.370 E32.96168
G1 X176.645 Y72.620 E32.97527
G1 X176.825 Y73.120 E33.00210
G1 X176.895 Y73.370 E33.01521
G1 X176.955 Y73.630 E33.02868
G1 X177.005 Y73.890 E33.04204
G1 X177.045 Y74.160 E33.05582
G1 X177.085 Y74.680 E33.08215
G1 X177.095 Y74.950 E33.09579
G1 X177.095 Y81.740 E33.43855
G1 X177.085 Y81.930 E33.44815
G1 X176.195 Y112.210 E34.97735
G1 X176.185 Y112.480 E34.99099
G1 X176.155 Y112.760 E35.00521
G1 X176.075 Y113.300 E35.03277
G1 X175.935 Y113.840 E35.06093
G1 X175.855 Y114.100 E35.07466
G1 X175.755 Y114.360 E35.08872
G1 X175.535 Y114.860 E35.11630
G1 X175.405 Y115.110 E35.13052
G1 X175.265 Y115.340 E35.14411
G1 X175.115 Y115.580 E35.15840
G1 X174.955 Y115.800 E35.17213
G1 X174.785 Y116.020 E35.18617
G1 X174.605 Y116.230 E35.20013
G1 X174.425 Y116.430 E35.21371
G1 X174.225 Y116.630 E35.22799
G1 X174.025 Y116.810 E35.24157
G1 X173.815 Y116.990 E35.25553
G1 X173.595 Y117.160 E35.26957
G1 X133.165 Y146.730 E37.79811
G1 X133.125 Y146.750 E37.80037
G1 X118.335 Y157.420 E38.72098
G1 X118.105 Y157.580 E38.73513
G1 X117.865 Y157.730 E38.74941
G1 X117.615 Y157.870 E38.76388
G1 X117.365 Y158.000 E38.77810
G1 X117.105 Y158.120 E38.79256
G1 X116.845 Y158.220 E38.80662
G1 X116.575 Y158.320 E38.82115
G1 X116.295 Y158.400 E38.83585
G1 X116.025 Y158.470 E38.84993
G1 X115.465 Y158.570 E38.87865
G1 X115.185 Y158.600 E38.89287
G1 X114.895 Y158.620 E38.90754
G1 X114.615 Y158.630 E38.92168
G1 X66.635 Y158.630 E41.34373
G1 X66.355 Y158.620 E41.35787
G1 X66.065 Y158.600 E41.37255
G1 X65.785 Y158.570 E41.38676
G1 X65.225 Y158.470 E41.41548
G1 X64.955 Y158.400 E41.42956
G1 X64.675 Y158.320 E41.44426
G1 X64.405 Y158.220 E41.45879
G1 X64.145 Y158.120 E41.47285
G1 X63.885 Y158.000 E41.48731
G1 X63.635 Y157.870 E41.50153
G1 X63.385 Y157.730 E41.51600
G1 X63.145 Y157.580 E41.53028
G1 X62.915 Y157.420 E41.54443
G1 X48.125 Y146.750 E42.46504
G1 X47.875 Y146.560 E42.48090
G1 X9.295 Y115.760 E44.97293
G1 X9.085 Y115.590 E44.98657
G1 X8.885 Y115.410 E45.00016
G1 X8.695 Y115.220 E45.01372
G1 X8.505 Y115.020 E45.02765
G1 X8.325 Y114.810 E45.04161
G1 X8.165 Y114.600 E45.05493
G1 X8.005 Y114.370 E45.06908
G1 X7.855 Y114.150 E45.08252
G1 X7.715 Y113.910 E45.09655
G1 X7.585 Y113.670 E45.11032
G1 X7.475 Y113.430 E45.12365
G1 X7.365 Y113.180 E45.13744
G1 X7.265 Y112.920 E45.15150
G1 X7.185 Y112.670 E45.16475
G1 X7.105 Y112.400 E45.17897
G1 X7.045 Y112.140 E45.19244
G1 X6.995 Y111.870 E45.20630
G1 X6.955 Y111.600 E45.22008
G1 X6.925 Y111.330 E45.23379
G1 X6.905 Y111.060 E45.24746
G1 X6.895 Y110.790 E45.26110
G1 X6.895 Y103.930 E45.60739
G1 X7.235 Y73.650 E47.13603
G1 X7.245 Y73.380 E47.14967
G1 X7.265 Y73.120 E47.16283
G1 X7.295 Y72.850 E47.17655
G1 X7.345 Y72.590 E47.18991
G1 X7.395 Y72.320 E47.20377
G1 X7.455 Y72.070 E47.21675
G1 X7.535 Y71.810 E47.23048
G1 X7.615 Y71.560 E47.24373
G1 X7.715 Y71.310 E47.25733
G1 X7.825 Y71.060 E47.27111
G1 X7.935 Y70.820 E47.28444
G1 X8.065 Y70.590 E47.29778
G1 X8.345 Y70.130 E47.32496
G1 X8.505 Y69.920 E47.33829
G1 X8.665 Y69.700 E47.35202
G1 X8.835 Y69.500 E47.36527
G1 X9.015 Y69.300 E47.37886
G1 X9.205 Y69.120 E47.39207
G1 X9.605 Y68.760 E47.41923
G1 X48.455 Y37.440 E49.93833
G1 F1200.000 E48.93833
G92 E0
G1 X60.347 Y105.953 F9600.000
G1 F1200.000 E1.00000
G1 X60.347 Y108.847 F900.000 E1.14614
G1 X58.084 Y110.652 E1.29227
G1 X55.262 Y110.008 E1.43840
G1 X54.006 Y107.400 E1.58453
G1 X55.262 Y104.792 E1.73067
G1 X58.084 Y104.148 E1.87679
G1 X60.347 Y105.953 E2.02293
G1 X59.982 Y106.129 F9600.000
G1 X59.982 Y108.671 F900.000 E2.15129
G1 X57.994 Y110.257 E2.27965
G1 X55.515 Y109.691 E2.40800
G1 X54.411 Y107.400 E2.53636
G1 X55.515 Y105.109 E2.66471
G1 X57.994 Y104.543 E2.79307
G1 X59.982 Y106.129 E2.92142
G1 X59.616 Y106.305 F9600.000
G1 X59.616 Y108.495 F900.000 E3.03200
G1 X59.465 Y108.615 E3.04173
G1 X59.465 Y108.615 E3.04173
G1 X57.903 Y109.861 E3.14259
G1 X55.768 Y109.374 E3.25316
G1 X54.817 Y107.400 E3.36374
G1 X55.768 Y105.426 E3.47432
G1 X57.903 Y104.939 E3.58490
G1 X59.388 Y106.123 E3.68074
G1 X59.388 Y106.123 E3.68074
G1 X59.616 Y106.305 E3.69548
G1 X59.250 Y106.481 F9600.000
G1 X59.250 Y108.319 F900.000 E3.78829
G1 X57.813 Y109.465 E3.88109
G1 X56.021 Y109.056 E3.97389
G1 X55.223 Y107.400 E4.06669
G1 X56.021 Y105.744 E4.15950
G1 X57.813 Y105.335 E4.25230
G1 X59.250 Y106.481 E4.34510
G1 X64.366 Y103.969 F9600.000
G1 X66.511 Y103.969 F900.000 E4.45340
G1 X67.895 Y104.112 E4.52365
G1 X69.647 Y104.222 E4.61227
G1 X71.342 Y104.257 E4.69782
G1 X73.036 Y104.222 E4.78336
G1 X74.788 Y104.112 E4.87199
G1 X76.172 Y103.969 E4.94223
G1 X78.318 Y103.969 E5.05053
G1 X78.318 Y110.431 E5.37669
G1 X64.366 Y110.431 E6.08099
G1 X64.366 Y103.969 E6.40716
G1 X64.731 Y104.335 F9600.000
G1 X66.492 Y104.335 F900.000 E6.49605
G1 X67.865 Y104.477 E6.56571
G1 X69.632 Y104.587 E6.65509
G1 X71.342 Y104.623 E6.74141
G1 X73.051 Y104.587 E6.82773
G1 X74.818 Y104.477 E6.91711
G1 X76.191 Y104.335 E6.98678
G1 X77.952 Y104.335 E7.07566
G1 X77.952 Y110.065 E7.36492
G1 X64.731 Y110.065 E8.03230
G1 X64.731 Y104.335 E8.32155
G1 X65.097 Y104.701 F9600.000
G1 X66.473 Y104.701 F900.000 E8.39104
G1 X67.835 Y104.841 E8.46013
G1 X69.617 Y104.953 E8.55026
G1 X71.342 Y104.989 E8.63735
G1 X73.067 Y104.953 E8.72444
G1 X74.849 Y104.841 E8.81457
G1 X76.210 Y104.701 E8.88366
G1 X77.586 Y104.701 E8.95315
G1 X77.586 Y109.699 E9.20548
G1 X65.097 Y109.699 E9.83596
G1 X65.097 Y104.701 E10.08829
G1 X65.463 Y105.066 F9600.000
G1 X66.455 Y105.066 F900.000 E10.13837
G1 X67.805 Y105.206 E10.20688
G1 X69.602 Y105.318 E10.29777
G1 X71.342 Y105.355 E10.38563
G1 X73.082 Y105.318 E10.47349
G1 X74.879 Y105.206 E10.56438
G1 X76.229 Y105.066 E10.63289
G1 X77.221 Y105.066 E10.68297
G1 X77.221 Y109.334 E10.89839
G1 X65.463 Y109.334 E11.49195
G1 X65.463 Y105.066 E11.70738
G1 F1200.000 E10.70738
G92 E0
G1 X82.006 Y107.400 F9600.000
G1 F1200.000 E1.00000
G1 X83.262 Y104.792 F900.000 E1.14613
G1 X86.084 Y104.148 E1.29226
G1 X88.347 Y105.953 E1.43840
G1 X88.347 Y108.847 E1.58453
G1 X86.084 Y110.652 E1.73067
G1 X83.262 Y110.008 E1.87680
G1 X82.006 Y107.400 E2.02293
G1 X82.411 Y107.400 F9600.000
G1 X83.515 Y105.109 F900.000 E2.15129
G1 X85.994 Y104.543 E2.27964
G1 X87.982 Y106.129 E2.40800
G1 X87.982 Y108.671 E2.53636
G1 X85.994 Y110.257 E2.66471
G1 X83.515 Y109.691 E2.79307
G1 X82.411 Y107.400 E2.92142
G1 X82.817 Y107.400 F9600.000
G1 X83.768 Y105.426 F900.000 E3.03200
G1 X85.903 Y104.939 E3.14258
G1 X87.616 Y106.305 E3.25316
G1 X87.616 Y108.495 E3.36374
G1 X85.903 Y109.861 E3.47433
G1 X83.768 Y109.374 E3.58490
G1 X82.817 Y107.400 E3.69548
G1 X83.223 Y107.400 F9600.000
G1 X84.021 Y105.744 F900.000 E3.78829
G1 X85.813 Y105.335 E3.88109
G1 X87.250 Y106.481 E3.97389
G1 X87.250 Y108.319 E4.06669
G1 X85.813 Y109.465 E4.15950
G1 X84.021 Y109.056 E4.25230
G1 X83.223 Y107.400 E4.34510
G1 F1200.000 E3.34510
G92 E0
G1 X89.123 Y110.161 F9600.000
G1 F1200.000 E1.00000
G1 X83.999 Y113.119 F900.000 E1.29872
G1 X80.061 Y113.119 E1.49748
G1 X80.061 Y115.283 E1.60670
G1 X74.975 Y120.369 E1.96982
G1 X67.709 Y120.369 E2.33660
G1 X62.622 Y115.283 E2.69973
G1 X62.622 Y113.119 E2.80894
G1 X58.685 Y113.119 E3.00771
G1 X53.560 Y110.161 E3.30643
G1 X53.560 Y104.639 E3.58514
G1 X58.685 Y101.681 E3.88386
G1 X62.622 Y101.681 E4.08262
G1 X62.622 Y99.517 E4.19184
G1 X67.709 Y94.431 E4.55496
G1 X74.975 Y94.431 E4.92175
G1 X80.061 Y99.517 E5.28487
G1 X80.061 Y101.681 E5.39408
G1 X83.999 Y101.681 E5.59285
G1 X89.123 Y104.639 E5.89157
G1 X89.123 Y110.161 E6.17028
G1 X89.489 Y110.372 F9600.000
G1 X84.096 Y113.485 F900.000 E6.48460
G1 X80.427 Y113.485 E6.66985
G1 X80.427 Y115.434 E6.76826
G1 X75.126 Y120.735 E7.14667
G1 X67.557 Y120.735 E7.52874
G1 X62.257 Y115.434 E7.90716
G1 X62.257 Y113.485 E8.00556
G1 X58.587 Y113.485 E8.19081
G1 X53.194 Y110.372 E8.50513
G1 X53.194 Y104.428 E8.80516
G1 X58.587 Y101.315 E9.11948
G1 X62.257 Y101.315 E9.30473
G1 X62.257 Y99.366 E9.40314
G1 X67.557 Y94.065 E9.78155
G1 X75.126 Y94.065 E10.16362
G1 X80.427 Y99.366 E10.54204
G1 X80.427 Y101.315 E10.64044
G1 X84.096 Y101.315 E10.82569
G1 X89.489 Y104.428 E11.14001
G1 X89.489 Y110.372 E11.44004
G1 X89.854 Y110.583 F9600.000
G1 X84.194 Y113.851 F900.000 E11.76996
G1 X80.792 Y113.851 E11.94170
G1 X80.792 Y115.586 E12.02930
G1 X75.277 Y121.101 E12.42300
G1 X67.406 Y121.101 E12.82036
G1 X61.891 Y115.586 E13.21406
G1 X61.891 Y113.851 E13.30166
G1 X58.489 Y113.851 E13.47340
G1 X52.829 Y110.583 E13.80332
G1 X52.829 Y104.217 E14.12466
G1 X58.489 Y100.949 E14.45458
G1 X61.891 Y100.949 E14.62632
G1 X61.891 Y99.214 E14.71392
G1 X67.406 Y93.699 E15.10762
G1 X75.277 Y93.699 E15.50498
G1 X80.792 Y99.214 E15.89868
G1 X80.792 Y100.949 E15.98628
G1 X84.194 Y100.949 E16.15802
G1 X89.854 Y104.217 E16.48794
G1 X89.854 Y110.583 E16.80928
G1 F1200.000 E15.80928
G92 E0
G1 X84.292 Y114.216 F9600.000
G1 F1200.000 E1.00000
G1 X81.158 Y114.216 F900.000 E1.15823
G1 X81.158 Y115.737 E1.23501
G1 X75.429 Y121.466 E1.64400
G1 X67.254 Y121.466 E2.05666
G1 X61.525 Y115.737 E2.46565
G1 X61.525 Y114.216 E2.54243
G1 X58.391 Y114.216 E2.70066
G1 X52.463 Y110.794 E3.04618
