; generated by Slic3r 0.9.3 on 2012-11-07 at 18:55:17

; layer_height = 0.33
; perimeters = 3
; solid_layers = 3
; fill_density = 0.20
; perimeter_speed = 50
; infill_speed = 75
; travel_speed = 160
; scale = 1
; nozzle_diameter = 0.35
; filament_diameter = 1.74
; extrusion_multiplier = 1
; single wall width = 0.37mm

G28 ; home all axes
M106;
G90 ; use absolute coordinates
G21 ; set units to millimeters
G92 E0
M82 ; use absolute distances for extrusion
G1 F1200.000 E-1.00000
G92 E0
G1 Z0.330 F9600.000
G1 X51.780 Y54.764
G1 F1200.000 E1.00000
G1 X52.250 Y54.334 F900.000 E1.03216
G1 X52.750 Y53.954 E1.06386
G1 X54.700 Y52.754 E1.17944
G1 X55.000 Y52.594 E1.19661
G1 X55.300 Y52.454 E1.21332
G1 X57.490 Y51.734 E1.32969
G1 X58.520 Y51.494 E1.38308
G1 X60.340 Y51.224 E1.47596
G1 X61.280 Y51.154 E1.52354
G1 X120.500 Y50.734 E4.51306
G1 X121.470 Y50.794 E4.56212
G1 X123.700 Y51.104 E4.67577
G1 X124.480 Y51.294 E4.71630
G1 X126.840 Y52.124 E4.84258
G1 X127.550 Y52.454 E4.88211
G1 X129.710 Y53.734 E5.00885
G1 X130.180 Y54.054 E5.03756
G1 X132.250 Y55.934 E5.17871
G1 X132.610 Y56.314 E5.20514
G1 X134.260 Y58.544 E5.34517
G1 X134.550 Y59.014 E5.37305
G1 X135.730 Y61.544 E5.51397
G1 X135.920 Y62.064 E5.54192
G1 X136.600 Y65.024 E5.69524
G1 X136.660 Y65.544 E5.72166
G1 X136.730 Y68.054 E5.84841
G1 X136.700 Y68.604 E5.87622
G1 X136.240 Y71.354 E6.01697
G1 X136.180 Y71.614 E6.03044
G1 X136.020 Y72.134 E6.05790
G1 X135.110 Y74.454 E6.18370
G1 X134.890 Y74.914 E6.20944
G1 X101.910 Y126.984 E9.32084
G1 X101.380 Y127.654 E9.36396
G1 X99.250 Y129.664 E9.51180
G1 X98.800 Y130.014 E9.54058
G1 X96.310 Y131.524 E9.68758
G1 X95.810 Y131.774 E9.71580
G1 X95.290 Y131.984 E9.74411
G1 X93.340 Y132.654 E9.84819
G1 X92.780 Y132.814 E9.87759
G1 X92.220 Y132.934 E9.90651
G1 X89.320 Y133.254 E10.05379
G1 X88.760 Y133.244 E10.08206
G1 X86.140 Y133.004 E10.21487
G1 X85.870 Y132.964 E10.22865
G1 X85.320 Y132.844 E10.25707
G1 X82.800 Y132.064 E10.39023
G1 X82.270 Y131.844 E10.41920
G1 X79.950 Y130.564 E10.55296
G1 X79.250 Y130.104 E10.59524
G1 X77.050 Y128.184 E10.74264
G1 X76.850 Y127.984 E10.75692
G1 X76.470 Y127.544 E10.78627
G1 X66.860 Y113.474 E11.64639
G1 X65.900 Y111.894 E11.73971
G1 X65.440 Y110.994 E11.79074
G1 X47.960 Y69.184 E14.07835
G1 X47.780 Y68.634 E14.10756
G1 X47.710 Y68.344 E14.12262
G1 X47.280 Y65.804 E14.25267
G1 X47.260 Y65.484 E14.26885
G1 X47.400 Y62.894 E14.39979
G1 X47.440 Y62.574 E14.41607
G1 X47.570 Y61.954 E14.44805
G1 X48.240 Y59.774 E14.56317
G1 X48.490 Y59.174 E14.59599
G1 X49.810 Y56.924 E14.72767
G1 X50.200 Y56.404 E14.76048
G1 X51.522 Y55.025 E14.85689
G1 X52.040 Y55.024 F9600.000
G1 X52.480 Y54.614 F900.000 E14.88725
G1 X52.960 Y54.254 E14.91754
G1 X54.880 Y53.074 E15.03130
G1 X55.160 Y52.924 E15.04734
G1 X55.740 Y52.674 E15.07922
G1 X57.600 Y52.084 E15.17772
G1 X58.580 Y51.854 E15.22854
G1 X60.400 Y51.584 E15.32142
G1 X61.280 Y51.514 E15.36598
G1 X120.500 Y51.094 E18.35550
G1 X121.420 Y51.154 E18.40204
G1 X123.630 Y51.464 E18.51469
G1 X124.130 Y51.574 E18.54054
G1 X126.700 Y52.464 E18.67783
G1 X127.370 Y52.774 E18.71510
G1 X129.520 Y54.034 E18.84089
G1 X129.740 Y54.184 E18.85434
G1 X130.160 Y54.514 E18.88130
G1 X131.990 Y56.194 E19.00670
G1 X132.330 Y56.554 E19.03170
G1 X132.490 Y56.744 E19.04424
G1 X133.960 Y58.744 E19.16954
G1 X134.230 Y59.184 E19.19560
G1 X135.390 Y61.684 E19.33472
G1 X135.570 Y62.174 E19.36107
G1 X136.200 Y64.834 E19.49906
G1 X136.270 Y65.324 E19.52405
G1 X136.370 Y68.054 E19.66195
G1 X136.340 Y68.564 E19.68774
G1 X135.880 Y71.274 E19.82650
G1 X135.750 Y71.774 E19.85258
G1 X134.770 Y74.304 E19.98954
G1 X134.670 Y74.524 E20.00174
G1 X134.450 Y74.944 E20.02568
G1 X101.610 Y126.774 E23.12305
G1 X101.280 Y127.204 E23.15041
G1 X100.920 Y127.604 E23.17758
G1 X98.810 Y129.554 E23.32261
G1 X98.590 Y129.724 E23.33665
G1 X96.140 Y131.204 E23.48114
G1 X95.660 Y131.444 E23.50823
G1 X92.700 Y132.464 E23.66627
G1 X92.430 Y132.524 E23.68024
G1 X89.580 Y132.874 E23.82519
G1 X89.050 Y132.894 E23.85196
G1 X86.190 Y132.644 E23.99688
G1 X85.670 Y132.554 E24.02352
G1 X82.670 Y131.624 E24.18207
G1 X82.170 Y131.394 E24.20986
G1 X79.680 Y129.964 E24.35481
G1 X79.050 Y129.474 E24.39510
G1 X77.300 Y127.924 E24.51311
G1 X76.930 Y127.524 E24.54061
G1 X67.170 Y113.284 E25.41209
G1 X66.210 Y111.704 E25.50542
G1 X65.780 Y110.854 E25.55350
G1 X48.310 Y69.064 E27.83999
G1 X48.140 Y68.534 E27.86809
G1 X48.070 Y68.264 E27.88217
G1 X47.680 Y66.084 E27.99396
G1 X47.620 Y65.164 E28.04050
G1 X47.760 Y62.934 E28.15329
G1 X47.800 Y62.634 E28.16857
G1 X47.920 Y62.044 E28.19897
G1 X48.580 Y59.904 E28.31201
G1 X48.820 Y59.334 E28.34323
G1 X49.110 Y58.784 E28.37462
G1 X49.950 Y57.384 E28.45704
G1 X50.290 Y56.884 E28.48756
G1 X50.480 Y56.634 E28.50341
G1 X51.782 Y55.285 E28.59803
G1 F1200.000 E27.59803
G92 E0
G1 X57.905 Y63.706 F9600.000
G1 F1200.000 E1.00000
G1 X60.146 Y62.043 F900.000 E1.14086
G1 X62.843 Y62.759 E1.28172
G1 X63.966 Y65.313 E1.42258
G1 X62.668 Y67.784 E1.56343
G1 X59.928 Y68.309 E1.70429
G1 X57.808 Y66.494 E1.84515
G1 X57.893 Y64.073 E1.96746
G1 X58.265 Y63.894 F9600.000
G1 X60.223 Y62.442 F900.000 E2.09054
G1 X62.579 Y63.067 E2.21362
G1 X63.560 Y65.299 E2.33670
G1 X62.426 Y67.458 E2.45978
G1 X60.032 Y67.917 E2.58287
G1 X58.180 Y66.331 E2.70595
G1 X58.252 Y64.262 E2.81048
G1 X58.624 Y64.083 F9600.000
G1 X60.299 Y62.840 F900.000 E2.91578
G1 X62.316 Y63.375 E3.02109
G1 X63.155 Y65.285 E3.12640
G1 X62.184 Y67.132 E3.23170
G1 X60.136 Y67.525 E3.33701
G1 X58.551 Y66.168 E3.44231
G1 X58.611 Y64.450 E3.52906
G1 F1200.000 E2.52906
G92 E0
G1 X73.201 Y68.343 F9600.000
G1 F1200.000 E1.00000
G1 X80.401 Y68.343 F900.000 E1.36346
G1 X80.401 Y67.773 E1.39223
G1 X75.601 Y67.773 E1.63454
G1 X75.601 Y64.343 E1.80768
G1 X80.401 Y64.343 E2.04999
G1 X80.401 Y59.943 E2.27210
G1 X84.431 Y59.943 E2.47554
G1 X84.431 Y71.773 E3.07272
G1 X73.201 Y71.773 E3.63961
G1 X73.201 Y68.710 E3.79421
G1 X73.567 Y68.708 F9600.000
G1 X80.767 Y68.708 F900.000 E4.15767
G1 X80.767 Y67.407 E4.22335
G1 X75.967 Y67.407 E4.46566
G1 X75.967 Y64.708 E4.60189
G1 X80.767 Y64.708 E4.84420
G1 X80.767 Y60.308 E5.06631
G1 X84.066 Y60.308 E5.23283
G1 X84.066 Y71.407 E5.79310
G1 X73.567 Y71.407 E6.32308
G1 X73.567 Y69.076 E6.44076
G1 X73.932 Y69.074 F9600.000
G1 X81.132 Y69.074 F900.000 E6.80422
G1 X81.132 Y67.042 E6.90682
G1 X76.332 Y67.042 E7.14913
G1 X76.332 Y65.074 E7.24845
G1 X81.132 Y65.074 E7.49075
G1 X81.132 Y60.674 E7.71287
G1 X83.700 Y60.674 E7.84248
G1 X83.700 Y71.042 E8.36583
G1 X73.932 Y71.042 E8.85890
G1 X73.932 Y69.442 E8.93966
G1 F1200.000 E7.93966
G92 E0
G1 X115.224 Y67.594 F9600.000
G1 F1200.000 E1.00000
G1 X115.293 Y65.615 F900.000 E1.09996
G1 X116.114 Y63.813 E1.19992
G1 X116.267 Y63.671 E1.21045
G1 X116.267 Y63.671 E1.21045
G1 X117.283 Y62.723 E1.28057
G1 X117.283 Y62.567 E1.28846
G1 X118.869 Y61.974 E1.37395
G1 X118.869 Y61.750 E1.38526
G1 X121.396 Y61.838 E1.51292
G1 X123.198 Y62.659 E1.61288
G1 X124.549 Y64.108 E1.71284
G1 X125.242 Y65.962 E1.81279
G1 X125.173 Y67.941 E1.91275
G1 X124.352 Y69.743 E2.01272
G1 X122.904 Y71.094 E2.11267
G1 X121.049 Y71.787 E2.21263
G1 X119.070 Y71.718 E2.31259
G1 X117.268 Y70.897 E2.41255
G1 X115.918 Y69.449 E2.51251
G1 X115.353 Y67.938 E2.59392
G1 X115.640 Y67.661 F9600.000
G1 X115.592 Y67.534 F900.000 E2.60078
G1 X115.656 Y65.700 E2.69339
G1 X116.417 Y64.031 E2.78601
G1 X117.649 Y62.882 E2.87102
G1 X117.649 Y62.821 E2.87413
G1 X119.235 Y62.228 E2.95962
G1 X119.235 Y62.128 E2.96462
G1 X121.311 Y62.201 E3.06949
G1 X121.328 Y62.209 E3.07042
G1 X121.328 Y62.209 E3.07042
G1 X122.981 Y62.962 E3.16211
G1 X124.232 Y64.304 E3.25473
G1 X124.874 Y66.022 E3.34734
G1 X124.810 Y67.856 E3.43996
G1 X124.049 Y69.525 E3.53258
G1 X122.708 Y70.777 E3.62519
G1 X120.989 Y71.419 E3.71781
G1 X119.155 Y71.355 E3.81043
G1 X117.486 Y70.594 E3.90304
G1 X116.235 Y69.252 E3.99566
G1 X115.768 Y68.005 E4.06286
G1 X115.982 Y67.533 F9600.000
G1 X115.960 Y67.474 F900.000 E4.06605
G1 X116.019 Y65.786 E4.15133
G1 X116.720 Y64.249 E4.23660
G1 X117.955 Y63.096 E4.32188
G1 X118.014 Y63.074 E4.32507
G1 X118.014 Y63.074 E4.32507
G1 X119.537 Y62.505 E4.40715
G1 X119.600 Y62.507 E4.41034
G1 X119.600 Y62.507 E4.41034
G1 X121.226 Y62.564 E4.49243
G1 X122.763 Y63.264 E4.57770
G1 X123.915 Y64.500 E4.66298
G1 X124.506 Y66.082 E4.74825
G1 X124.447 Y67.770 E4.83352
G1 X123.747 Y69.308 E4.91880
G1 X122.511 Y70.460 E5.00407
G1 X120.929 Y71.051 E5.08935
G1 X119.241 Y70.992 E5.17462
G1 X117.704 Y70.292 E5.25990
G1 X116.552 Y69.056 E5.34517
G1 X116.111 Y67.877 E5.40870
G1 F1200.000 E4.40870
G92 E0
G1 X107.114 Y68.793 F9600.000
G1 F1200.000 E1.00000
G1 X103.711 Y73.388 F900.000 E1.28866
G1 X100.773 Y69.321 E1.54191
G1 X97.761 Y73.388 E1.79741
G1 X95.013 Y69.584 E2.03430
G1 X95.013 Y69.584 E2.03430
G1 X94.437 Y68.786 E2.08398
G1 X94.773 Y68.128 E2.12128
G1 X96.307 Y68.128 E2.19869
G1 X96.307 Y62.297 E2.49305
G1 X94.697 Y62.297 E2.57433
G1 X94.697 Y59.308 E2.72520
G1 X106.786 Y59.308 E3.33544
G1 X106.786 Y62.297 E3.48631
G1 X105.316 Y62.297 E3.56052
G1 X105.316 Y68.128 E3.85488
G1 X106.779 Y68.128 E3.92877
G1 X106.949 Y68.465 E3.94781
G1 X106.686 Y68.757 F9600.000
G1 X103.714 Y72.769 F900.000 E4.19986
G1 X101.419 Y69.591 E4.39773
G1 X101.419 Y69.591 E4.39774
G1 X100.777 Y68.702 E4.45312
G1 X97.764 Y72.769 E4.70862
G1 X95.469 Y69.591 E4.90649
G1 X95.469 Y69.591 E4.90649
G1 X94.864 Y68.754 E4.95866
G1 X94.997 Y68.494 E4.97337
G1 X96.672 Y68.494 E5.05795
G1 X96.672 Y61.932 E5.38923
G1 X95.062 Y61.932 E5.47050
G1 X95.062 Y59.674 E5.58446
G1 X106.420 Y59.674 E6.15779
G1 X106.420 Y61.932 E6.27175
G1 X104.950 Y61.932 E6.34595
G1 X104.950 Y68.494 E6.67723
G1 X106.481 Y68.494 E6.75450
G1 F1200.000 E5.75450
G92 E0
G1 X91.459 Y74.264 F9600.000
G1 F1200.000 E1.00000
G1 X92.582 Y76.819 F900.000 E1.14086
G1 X91.284 Y79.289 E1.28172
G1 X88.543 Y79.815 E1.42258
G1 X86.424 Y78.000 E1.56343
G1 X86.521 Y75.211 E1.70429
G1 X88.762 Y73.549 E1.84515
G1 X91.104 Y74.170 E1.96746
G1 X91.195 Y74.573 F9600.000
G1 X92.176 Y76.805 F900.000 E2.09054
G1 X91.042 Y78.963 E2.21362
G1 X88.647 Y79.423 E2.33670
G1 X86.795 Y77.837 E2.45979
G1 X86.880 Y75.400 E2.58287
G1 X88.839 Y73.947 E2.70595
G1 X90.840 Y74.478 E2.81048
G1 X90.931 Y74.881 F9600.000
G1 X91.770 Y76.791 F900.000 E2.91578
G1 X90.800 Y78.638 E3.02109
G1 X88.752 Y79.030 E3.12640
G1 X87.167 Y77.674 E3.23170
G1 X87.240 Y75.589 E3.33701
G1 X88.915 Y74.346 E3.44231
G1 X90.576 Y74.787 E3.52907
G1 F1200.000 E2.52907
G92 E0
G1 X79.947 Y103.080 F9600.000
G1 F1200.000 E1.00000
G1 X81.069 Y105.635 F900.000 E1.14086
G1 X79.771 Y108.105 E1.28172
G1 X77.031 Y108.631 E1.42258
G1 X74.911 Y106.816 E1.56343
G1 X75.009 Y104.027 E1.70429
G1 X77.250 Y102.365 E1.84515
G1 X79.591 Y102.986 E1.96746
G1 X79.683 Y103.388 F9600.000
G1 X80.663 Y105.621 F900.000 E2.09054
G1 X79.529 Y107.779 E2.21362
G1 X77.135 Y108.238 E2.33670
G1 X75.283 Y106.653 E2.45978
G1 X75.368 Y104.216 E2.58287
G1 X77.326 Y102.763 E2.70595
G1 X79.327 Y103.294 E2.81048
G1 X79.419 Y103.697 F9600.000
G1 X80.258 Y105.607 F900.000 E2.91578
G1 X79.288 Y107.453 E3.02109
G1 X77.239 Y107.846 E3.12639
G1 X75.654 Y106.489 E3.23170
G1 X75.727 Y104.405 E3.33701
G1 X77.402 Y103.162 E3.44231
G1 X79.064 Y103.602 E3.52906
G1 F1200.000 E2.52906
G92 E0
G1 X86.119 Y112.560 F9600.000
G1 F1200.000 E1.00000
G1 X88.254 Y111.762 F900.000 E1.11503
G1 X90.233 Y111.831 E1.21499
G1 X92.035 Y112.652 E1.31495
G1 X93.385 Y114.100 E1.41491
G1 X93.827 Y115.283 E1.47866
G1 X93.827 Y115.283 E1.47866
G1 X94.079 Y115.955 E1.51488
G1 X94.009 Y117.934 E1.61484
G1 X93.080 Y119.974 E1.72801
G1 X92.933 Y119.974 E1.73542
G1 X91.740 Y121.086 E1.81775
G1 X89.885 Y121.780 E1.91771
G1 X88.493 Y121.731 E1.98803
G1 X88.493 Y121.731 E1.98803
G1 X87.906 Y121.711 E2.01767
G1 X86.104 Y120.890 E2.11763
G1 X84.754 Y119.441 E2.21759
G1 X84.060 Y117.587 E2.31755
G1 X84.062 Y117.554 E2.31918
G1 X84.062 Y117.554 E2.31918
G1 X84.130 Y115.608 E2.41751
G1 X84.951 Y113.806 E2.51747
G1 X85.103 Y113.664 E2.52800
G1 X85.103 Y113.664 E2.52801
G1 X85.965 Y112.860 E2.58746
G1 X86.485 Y112.875 F9600.000
G1 X86.485 Y112.814 F900.000 E2.59057
G1 X88.314 Y112.130 E2.68913
G1 X90.147 Y112.194 E2.78175
G1 X91.817 Y112.955 E2.87436
G1 X92.039 Y113.193 E2.89078
G1 X92.039 Y113.193 E2.89078
G1 X93.068 Y114.296 E2.96698
G1 X93.300 Y114.917 E3.00045
G1 X93.300 Y114.917 E3.00045
G1 X93.711 Y116.015 E3.05960
G1 X93.647 Y117.849 E3.15222
G1 X92.845 Y119.608 E3.24984
G1 X92.789 Y119.608 E3.25265
G1 X91.544 Y120.769 E3.33859
G1 X89.825 Y121.412 E3.43120
G1 X88.128 Y121.353 E3.51696
G1 X88.128 Y121.353 E3.51696
G1 X87.992 Y121.348 E3.52382
G1 X86.322 Y120.587 E3.61644
G1 X85.327 Y119.520 E3.69009
G1 X85.327 Y119.520 E3.69009
G1 X85.071 Y119.245 E3.70906
G1 X84.432 Y117.535 E3.80121
G1 X84.432 Y117.535 E3.80121
G1 X84.428 Y117.527 E3.80167
G1 X84.492 Y115.693 E3.89429
G1 X85.253 Y114.024 E3.98691
G1 X86.216 Y113.126 E4.05336
G1 X86.791 Y113.089 F9600.000
G1 X86.851 Y113.067 F900.000 E4.05656
G1 X86.851 Y113.067 E4.05656
G1 X88.374 Y112.498 E4.13864
G1 X90.062 Y112.557 E4.22391
G1 X91.599 Y113.257 E4.30919
G1 X92.751 Y114.493 E4.39446
G1 X92.773 Y114.552 E4.39765
G1 X92.773 Y114.552 E4.39765
G1 X93.343 Y116.075 E4.47974
G1 X93.284 Y117.763 E4.56501
G1 X92.609 Y119.243 E4.64710
G1 X92.609 Y119.243 E4.64710
G1 X92.583 Y119.300 E4.65029
G1 X91.348 Y120.452 E4.73556
G1 X89.765 Y121.044 E4.82084
G1 X88.077 Y120.985 E4.90611
G1 X86.540 Y120.285 E4.99138
G1 X85.388 Y119.049 E5.07666
G1 X84.796 Y117.467 E5.16193
G1 X84.855 Y115.779 E5.24721
G1 X85.556 Y114.241 E5.33248
G1 X86.523 Y113.340 E5.39921
G1 F1200.000 E4.39921
G92 E0
G1 X57.023 Y60.083 F9600.000
G1 F1200.000 E1.00000
G1 X58.266 Y59.322 F900.000 E1.07357
G1 X59.655 Y58.879 E1.14714
G1 X62.069 Y58.712 E1.26930
G1 X62.069 Y58.621 E1.27391
G1 X94.331 Y58.618 E2.90251
G1 X94.331 Y62.663 E3.10671
G1 X95.941 Y62.663 E3.18799
G1 X95.941 Y67.763 E3.44544
G1 X94.550 Y67.763 E3.51569
G1 X94.009 Y68.819 E3.57557
G1 X94.647 Y69.702 E3.63057
G1 X94.647 Y69.702 E3.63057
G1 X97.757 Y74.008 E3.89866
G1 X100.769 Y69.941 E4.15416
G1 X103.707 Y74.008 E4.40741
G1 X107.542 Y68.830 E4.73268
G1 X107.004 Y67.763 E4.79300
G1 X105.681 Y67.763 E4.85980
G1 X105.681 Y62.663 E5.11725
G1 X107.151 Y62.663 E5.19146
G1 X107.151 Y58.616 E5.39572
G1 X117.345 Y58.615 E5.91033
G1 X117.345 Y58.640 E5.91158
G1 X117.448 Y58.615 E5.91689
G1 X117.448 Y58.615 E5.91689
G1 X118.563 Y58.345 E5.97480
G1 X119.544 Y58.219 E6.02475
G1 X120.512 Y58.200 E6.07361
G1 X122.339 Y58.449 E6.16669
G1 X124.058 Y59.050 E6.25865
G1 X125.623 Y59.983 E6.35063
G1 X126.971 Y61.210 E6.44264
G1 X128.047 Y62.681 E6.53462
G1 X128.807 Y64.337 E6.62659
G1 X129.221 Y66.111 E6.71857
G1 X129.272 Y67.933 E6.81056
G1 X128.959 Y69.727 E6.90252
G1 X128.295 Y71.424 E6.99451
G1 X127.304 Y72.954 E7.08652
G1 X126.028 Y74.254 E7.17847
G1 X124.518 Y75.275 E7.27048
G1 X122.834 Y75.973 E7.36247
G1 X121.046 Y76.320 E7.45444
G1 X119.224 Y76.304 E7.54643
G1 X117.360 Y75.907 E7.64262
G1 X116.375 Y75.516 E7.69613
G1 X114.301 Y74.873 E7.80570
G1 X112.150 Y74.450 E7.91639
G1 X112.150 Y74.450 E7.91640
G1 X112.013 Y74.424 E7.92342
G1 X112.013 Y74.438 E7.92417
G1 X110.049 Y74.265 E8.02371
G1 X110.049 Y74.265 E8.02371
G1 X109.955 Y74.257 E8.02844
G1 X106.828 Y74.386 E8.18647
G1 X104.038 Y74.932 E8.32994
G1 X104.038 Y74.932 E8.32994
G1 X103.745 Y74.989 E8.34504
G1 X100.789 Y76.052 E8.50359
G1 X100.789 Y76.052 E8.50359
G1 X100.781 Y76.055 E8.50406
G1 X100.781 Y76.057 E8.50414
G1 X98.029 Y77.552 E8.66221
G1 X95.550 Y79.434 E8.81934
G1 X94.149 Y80.799 E8.91806
G1 X93.391 Y81.656 E8.97584
