; generated by Slic3r 0.9.3 on 2012-11-07 at 16:06:59

; layer_height = 0.33
; perimeters = 3
; solid_layers = 3
; fill_density = 0.20
; perimeter_speed = 50
; infill_speed = 75
; travel_speed = 160
; scale = 1
; nozzle_diameter = 0.35
; filament_diameter = 1.74
; extrusion_multiplier = 1
; single wall width = 0.37mm

G28 ; home all axes
M106;
G90 ; use absolute coordinates
G21 ; set units to millimeters
G92 E0
M82 ; use absolute distances for extrusion
G1 F1200.000 E-1.00000
G92 E0
G1 Z0.330 F9600.000
G1 X10.591 Y54.764
G1 F1200.000 E1.00000
G1 X11.061 Y54.334 F900.000 E1.03216
G1 X11.561 Y53.954 E1.06386
G1 X13.511 Y52.754 E1.17944
G1 X13.811 Y52.594 E1.19661
G1 X14.111 Y52.454 E1.21332
G1 X16.301 Y51.734 E1.32969
G1 X17.331 Y51.494 E1.38308
G1 X19.151 Y51.224 E1.47596
G1 X20.091 Y51.154 E1.52354
G1 X79.311 Y50.734 E4.51306
G1 X161.741 Y50.734 E8.67415
G1 X162.661 Y50.794 E8.72069
G1 X164.881 Y51.104 E8.83384
G1 X165.661 Y51.294 E8.87437
G1 X168.271 Y52.224 E9.01424
G1 X168.511 Y52.334 E9.02757
G1 X170.901 Y53.734 E9.16739
G1 X171.571 Y54.224 E9.20929
G1 X173.431 Y55.924 E9.33649
G1 X173.801 Y56.324 E9.36400
G1 X175.451 Y58.554 E9.50403
G1 X175.731 Y59.004 E9.53079
G1 X176.911 Y61.524 E9.67125
G1 X177.101 Y62.044 E9.69920
G1 X177.791 Y65.024 E9.85361
G1 X177.851 Y65.544 E9.88004
G1 X177.921 Y68.054 E10.00679
G1 X177.891 Y68.604 E10.03460
G1 X177.431 Y71.354 E10.17535
G1 X177.371 Y71.614 E10.18882
G1 X177.211 Y72.134 E10.21628
G1 X176.301 Y74.454 E10.34208
G1 X176.081 Y74.914 E10.36782
G1 X143.101 Y126.984 E13.47921
G1 X142.571 Y127.654 E13.52234
G1 X140.441 Y129.664 E13.67018
G1 X139.991 Y130.014 E13.69896
G1 X137.501 Y131.524 E13.84596
G1 X137.001 Y131.774 E13.87418
G1 X136.481 Y131.984 E13.90249
G1 X134.531 Y132.654 E14.00657
G1 X133.971 Y132.814 E14.03597
G1 X133.411 Y132.934 E14.06488
G1 X131.071 Y133.214 E14.18385
G1 X130.291 Y133.254 E14.22328
G1 X47.291 Y133.224 E18.41314
G1 X44.951 Y133.004 E18.53179
G1 X44.681 Y132.964 E18.54556
G1 X44.131 Y132.844 E18.57398
G1 X41.611 Y132.064 E18.70715
G1 X41.081 Y131.844 E18.73611
G1 X38.761 Y130.564 E18.86987
G1 X38.061 Y130.104 E18.91215
G1 X35.861 Y128.184 E19.05956
G1 X35.661 Y127.984 E19.07383
G1 X35.281 Y127.544 E19.10318
G1 X25.671 Y113.474 E19.96330
G1 X24.711 Y111.894 E20.05663
G1 X24.251 Y110.994 E20.10765
G1 X6.771 Y69.184 E22.39526
G1 X6.591 Y68.634 E22.42448
G1 X6.521 Y68.344 E22.43954
G1 X6.091 Y65.804 E22.56958
G1 X6.071 Y65.484 E22.58577
G1 X6.211 Y62.894 E22.71670
G1 X6.251 Y62.574 E22.73298
G1 X6.381 Y61.954 E22.76496
G1 X7.051 Y59.774 E22.88009
G1 X7.301 Y59.174 E22.91290
G1 X8.621 Y56.924 E23.04458
G1 X9.011 Y56.404 E23.07739
G1 X10.332 Y55.025 E23.17380
G1 X10.851 Y55.024 F9600.000
G1 X11.291 Y54.614 F900.000 E23.20416
G1 X11.771 Y54.254 E23.23445
G1 X13.691 Y53.074 E23.34821
G1 X13.971 Y52.924 E23.36425
G1 X14.551 Y52.674 E23.39613
G1 X16.411 Y52.084 E23.49464
G1 X17.391 Y51.854 E23.54545
G1 X19.211 Y51.584 E23.63833
G1 X20.091 Y51.514 E23.68289
G1 X79.311 Y51.094 E26.67241
G1 X161.741 Y51.094 E30.83350
G1 X162.611 Y51.154 E30.87753
G1 X164.811 Y51.464 E30.98968
G1 X165.311 Y51.574 E31.01552
G1 X167.891 Y52.464 E31.15329
G1 X168.351 Y52.664 E31.17861
G1 X170.921 Y54.184 E31.32934
G1 X171.531 Y54.674 E31.36884
G1 X173.351 Y56.364 E31.49421
G1 X173.691 Y56.754 E31.52033
G1 X175.151 Y58.754 E31.64533
G1 X175.531 Y59.404 E31.68334
G1 X176.671 Y61.904 E31.82204
G1 X176.831 Y62.414 E31.84902
G1 X177.391 Y64.834 E31.97442
G1 X177.461 Y65.324 E31.99940
G1 X177.561 Y68.054 E32.13731
G1 X177.531 Y68.564 E32.16309
G1 X177.071 Y71.274 E32.30185
G1 X176.941 Y71.774 E32.32793
G1 X175.961 Y74.304 E32.46489
G1 X175.861 Y74.524 E32.47709
G1 X175.641 Y74.944 E32.50103
G1 X142.801 Y126.774 E35.59840
G1 X142.471 Y127.204 E35.62576
G1 X142.111 Y127.604 E35.65293
G1 X140.001 Y129.554 E35.79796
G1 X139.781 Y129.724 E35.81200
G1 X137.331 Y131.204 E35.95649
G1 X136.851 Y131.444 E35.98358
G1 X133.891 Y132.464 E36.14162
G1 X133.621 Y132.524 E36.15559
G1 X131.031 Y132.844 E36.28733
G1 X130.291 Y132.894 E36.32477
G1 X47.331 Y132.864 E40.51261
G1 X45.001 Y132.644 E40.63075
G1 X44.481 Y132.554 E40.65739
G1 X41.481 Y131.624 E40.81595
G1 X40.981 Y131.394 E40.84373
G1 X38.491 Y129.964 E40.98868
G1 X37.861 Y129.474 E41.02897
G1 X36.111 Y127.924 E41.14698
G1 X35.741 Y127.524 E41.17448
G1 X25.981 Y113.284 E42.04596
G1 X25.021 Y111.704 E42.13929
G1 X24.591 Y110.854 E42.18737
G1 X7.121 Y69.064 E44.47386
G1 X6.951 Y68.534 E44.50196
G1 X6.881 Y68.264 E44.51604
G1 X6.491 Y66.084 E44.62783
G1 X6.431 Y65.164 E44.67437
G1 X6.571 Y62.934 E44.78716
G1 X6.611 Y62.634 E44.80244
G1 X6.731 Y62.044 E44.83284
G1 X7.391 Y59.904 E44.94588
G1 X7.631 Y59.334 E44.97711
G1 X7.921 Y58.784 E45.00849
G1 X8.761 Y57.384 E45.09091
G1 X9.101 Y56.884 E45.12143
G1 X9.291 Y56.634 E45.13728
G1 X10.592 Y55.285 E45.23190
G1 F1200.000 E44.23190
G92 E0
G1 X99.095 Y63.706 F9600.000
G1 F1200.000 E1.00000
G1 X101.336 Y62.043 F900.000 E1.14086
G1 X104.033 Y62.759 E1.28172
G1 X105.155 Y65.313 E1.42258
G1 X103.858 Y67.784 E1.56343
G1 X101.117 Y68.309 E1.70429
G1 X98.998 Y66.494 E1.84515
G1 X99.082 Y64.073 E1.96746
G1 X99.454 Y63.894 F9600.000
G1 X101.412 Y62.442 F900.000 E2.09054
G1 X103.769 Y63.067 E2.21362
G1 X104.750 Y65.299 E2.33670
G1 X103.616 Y67.458 E2.45978
G1 X101.221 Y67.917 E2.58287
G1 X99.369 Y66.331 E2.70595
G1 X99.441 Y64.262 E2.81048
G1 X99.814 Y64.083 F9600.000
G1 X101.489 Y62.840 F900.000 E2.91578
G1 X103.505 Y63.375 E3.02109
G1 X104.344 Y65.285 E3.12640
G1 X103.374 Y67.132 E3.23170
G1 X101.325 Y67.525 E3.33701
G1 X99.741 Y66.168 E3.44231
G1 X99.801 Y64.450 E3.52906
G1 F1200.000 E2.52906
G92 E0
G1 X114.391 Y68.343 F9600.000
G1 F1200.000 E1.00000
G1 X121.591 Y68.343 F900.000 E1.36346
G1 X121.591 Y67.773 E1.39223
G1 X116.791 Y67.773 E1.63454
G1 X116.791 Y64.343 E1.80768
G1 X121.591 Y64.343 E2.04999
G1 X121.591 Y59.943 E2.27210
G1 X125.621 Y59.943 E2.47554
G1 X125.621 Y71.773 E3.07272
G1 X114.391 Y71.773 E3.63961
G1 X114.391 Y68.710 E3.79421
G1 X114.756 Y68.708 F9600.000
G1 X121.956 Y68.708 F900.000 E4.15767
G1 X121.956 Y67.407 E4.22335
G1 X117.156 Y67.407 E4.46566
G1 X117.156 Y64.708 E4.60189
G1 X121.956 Y64.708 E4.84420
G1 X121.956 Y60.308 E5.06631
G1 X125.255 Y60.308 E5.23283
G1 X125.255 Y71.407 E5.79310
G1 X114.756 Y71.407 E6.32308
G1 X114.756 Y69.076 E6.44076
G1 X115.122 Y69.074 F9600.000
G1 X122.322 Y69.074 F900.000 E6.80422
G1 X122.322 Y67.042 E6.90682
G1 X117.522 Y67.042 E7.14913
G1 X117.522 Y65.074 E7.24845
G1 X122.322 Y65.074 E7.49075
G1 X122.322 Y60.674 E7.71287
G1 X124.890 Y60.674 E7.84248
G1 X124.890 Y71.042 E8.36583
G1 X115.122 Y71.042 E8.85890
G1 X115.122 Y69.442 E8.93966
G1 F1200.000 E7.93966
G92 E0
G1 X156.414 Y67.594 F9600.000
G1 F1200.000 E1.00000
G1 X156.483 Y65.615 F900.000 E1.09996
G1 X157.304 Y63.813 E1.19992
G1 X157.457 Y63.671 E1.21045
G1 X157.457 Y63.671 E1.21045
G1 X158.473 Y62.723 E1.28057
G1 X158.473 Y62.567 E1.28846
G1 X160.059 Y61.974 E1.37395
G1 X160.059 Y61.750 E1.38526
G1 X162.586 Y61.838 E1.51292
G1 X164.388 Y62.659 E1.61288
G1 X165.738 Y64.108 E1.71284
G1 X166.432 Y65.962 E1.81279
G1 X166.363 Y67.941 E1.91275
G1 X165.542 Y69.743 E2.01272
G1 X164.093 Y71.094 E2.11267
G1 X162.239 Y71.787 E2.21263
G1 X160.260 Y71.718 E2.31259
G1 X158.458 Y70.897 E2.41255
G1 X157.107 Y69.449 E2.51251
G1 X156.543 Y67.938 E2.59392
G1 X156.829 Y67.661 F9600.000
G1 X156.782 Y67.534 F900.000 E2.60078
G1 X156.846 Y65.700 E2.69339
G1 X157.607 Y64.031 E2.78601
G1 X158.838 Y62.882 E2.87102
G1 X158.838 Y62.821 E2.87413
G1 X160.425 Y62.228 E2.95962
G1 X160.425 Y62.128 E2.96462
G1 X162.501 Y62.201 E3.06949
G1 X162.517 Y62.209 E3.07042
G1 X162.517 Y62.209 E3.07042
G1 X164.170 Y62.962 E3.16211
G1 X165.421 Y64.304 E3.25473
G1 X166.064 Y66.022 E3.34734
G1 X166.000 Y67.856 E3.43996
G1 X165.239 Y69.525 E3.53258
G1 X163.897 Y70.777 E3.62519
G1 X162.179 Y71.419 E3.71781
G1 X160.345 Y71.355 E3.81043
G1 X158.676 Y70.594 E3.90304
G1 X157.424 Y69.252 E3.99566
G1 X156.958 Y68.005 E4.06286
G1 X157.172 Y67.533 F9600.000
G1 X157.150 Y67.474 F900.000 E4.06605
G1 X157.209 Y65.786 E4.15133
G1 X157.909 Y64.249 E4.23660
G1 X159.145 Y63.096 E4.32188
G1 X159.204 Y63.074 E4.32507
G1 X159.204 Y63.074 E4.32507
G1 X160.727 Y62.505 E4.40715
G1 X160.790 Y62.507 E4.41034
G1 X160.790 Y62.507 E4.41034
G1 X162.415 Y62.564 E4.49243
G1 X163.952 Y63.264 E4.57770
G1 X165.104 Y64.500 E4.66298
G1 X165.696 Y66.082 E4.74825
G1 X165.637 Y67.770 E4.83352
G1 X164.937 Y69.308 E4.91880
G1 X163.701 Y70.460 E5.00407
G1 X162.119 Y71.051 E5.08935
G1 X160.431 Y70.992 E5.17462
G1 X158.893 Y70.292 E5.25990
G1 X157.741 Y69.056 E5.34517
G1 X157.301 Y67.877 E5.40870
G1 F1200.000 E4.40870
G92 E0
G1 X148.304 Y68.793 F9600.000
G1 F1200.000 E1.00000
G1 X144.900 Y73.388 F900.000 E1.28866
G1 X141.963 Y69.321 E1.54191
G1 X138.950 Y73.388 E1.79741
G1 X136.203 Y69.584 E2.03430
G1 X136.203 Y69.584 E2.03430
G1 X135.627 Y68.786 E2.08398
G1 X135.963 Y68.128 E2.12128
G1 X137.496 Y68.128 E2.19869
G1 X137.496 Y62.297 E2.49305
G1 X135.886 Y62.297 E2.57433
G1 X135.886 Y59.308 E2.72520
G1 X147.975 Y59.308 E3.33544
G1 X147.975 Y62.297 E3.48631
G1 X146.505 Y62.297 E3.56052
G1 X146.505 Y68.128 E3.85488
G1 X147.969 Y68.128 E3.92877
G1 X148.139 Y68.465 E3.94781
G1 X147.876 Y68.757 F9600.000
G1 X144.904 Y72.769 F900.000 E4.19986
G1 X142.609 Y69.591 E4.39773
G1 X142.609 Y69.591 E4.39774
G1 X141.967 Y68.702 E4.45312
G1 X138.954 Y72.769 E4.70862
G1 X136.659 Y69.591 E4.90649
G1 X136.659 Y69.591 E4.90649
G1 X136.054 Y68.754 E4.95866
G1 X136.187 Y68.494 E4.97337
G1 X137.862 Y68.494 E5.05795
G1 X137.862 Y61.932 E5.38923
G1 X136.252 Y61.932 E5.47050
G1 X136.252 Y59.674 E5.58446
G1 X147.610 Y59.674 E6.15779
G1 X147.610 Y61.932 E6.27175
G1 X146.140 Y61.932 E6.34595
G1 X146.140 Y68.494 E6.67723
G1 X147.670 Y68.494 E6.75450
G1 F1200.000 E5.75450
G92 E0
G1 X132.649 Y74.264 F9600.000
G1 F1200.000 E1.00000
G1 X133.771 Y76.819 F900.000 E1.14086
G1 X132.474 Y79.289 E1.28172
G1 X129.733 Y79.815 E1.42258
G1 X127.614 Y78.000 E1.56343
G1 X127.711 Y75.211 E1.70429
G1 X129.952 Y73.549 E1.84515
G1 X132.294 Y74.170 E1.96746
G1 X132.385 Y74.573 F9600.000
G1 X133.366 Y76.805 F900.000 E2.09054
G1 X132.232 Y78.963 E2.21362
G1 X129.837 Y79.423 E2.33670
G1 X127.985 Y77.837 E2.45979
G1 X128.070 Y75.400 E2.58287
G1 X130.028 Y73.947 E2.70595
G1 X132.030 Y74.478 E2.81048
G1 X132.121 Y74.881 F9600.000
G1 X132.960 Y76.791 F900.000 E2.91578
G1 X131.990 Y78.638 E3.02109
G1 X129.941 Y79.030 E3.12640
G1 X128.357 Y77.674 E3.23170
G1 X128.429 Y75.589 E3.33701
G1 X130.105 Y74.346 E3.44231
G1 X131.766 Y74.787 E3.52907
G1 F1200.000 E2.52907
G92 E0
G1 X121.136 Y103.080 F9600.000
G1 F1200.000 E1.00000
G1 X122.259 Y105.635 F900.000 E1.14086
G1 X120.961 Y108.105 E1.28172
G1 X118.220 Y108.631 E1.42258
G1 X116.101 Y106.816 E1.56343
G1 X116.198 Y104.027 E1.70429
G1 X118.439 Y102.365 E1.84515
G1 X120.781 Y102.986 E1.96746
G1 X120.872 Y103.388 F9600.000
G1 X121.853 Y105.621 F900.000 E2.09054
G1 X120.719 Y107.779 E2.21362
G1 X118.324 Y108.238 E2.33670
G1 X116.472 Y106.653 E2.45978
G1 X116.558 Y104.216 E2.58287
G1 X118.516 Y102.763 E2.70595
G1 X120.517 Y103.294 E2.81048
G1 X120.608 Y103.697 F9600.000
G1 X121.447 Y105.607 F900.000 E2.91578
G1 X120.477 Y107.453 E3.02109
G1 X118.429 Y107.846 E3.12639
G1 X116.844 Y106.489 E3.23170
G1 X116.917 Y104.405 E3.33701
G1 X118.592 Y103.162 E3.44231
G1 X120.253 Y103.602 E3.52906
G1 F1200.000 E2.52906
G92 E0
G1 X127.309 Y112.560 F9600.000
G1 F1200.000 E1.00000
G1 X129.443 Y111.762 F900.000 E1.11503
G1 X131.422 Y111.831 E1.21499
G1 X133.224 Y112.652 E1.31495
G1 X134.575 Y114.100 E1.41491
G1 X135.017 Y115.283 E1.47866
G1 X135.017 Y115.283 E1.47866
G1 X135.268 Y115.955 E1.51488
G1 X135.199 Y117.934 E1.61484
G1 X134.269 Y119.974 E1.72801
G1 X134.123 Y119.974 E1.73542
G1 X132.930 Y121.086 E1.81775
G1 X131.075 Y121.780 E1.91771
G1 X129.683 Y121.731 E1.98803
G1 X129.683 Y121.731 E1.98803
G1 X129.096 Y121.711 E2.01767
G1 X127.294 Y120.890 E2.11763
G1 X125.944 Y119.441 E2.21759
G1 X125.250 Y117.587 E2.31755
G1 X125.251 Y117.554 E2.31918
G1 X125.251 Y117.554 E2.31918
G1 X125.319 Y115.608 E2.41751
G1 X126.140 Y113.806 E2.51747
G1 X126.293 Y113.664 E2.52800
G1 X126.293 Y113.664 E2.52801
G1 X127.154 Y112.860 E2.58746
G1 X127.675 Y112.875 F9600.000
G1 X127.675 Y112.814 F900.000 E2.59057
G1 X129.503 Y112.130 E2.68913
G1 X131.337 Y112.194 E2.78175
G1 X133.006 Y112.955 E2.87436
G1 X133.228 Y113.193 E2.89078
G1 X133.228 Y113.193 E2.89078
G1 X134.258 Y114.296 E2.96698
G1 X134.490 Y114.917 E3.00045
G1 X134.490 Y114.917 E3.00045
G1 X134.900 Y116.015 E3.05960
G1 X134.836 Y117.849 E3.15222
G1 X134.034 Y119.608 E3.24984
G1 X133.979 Y119.608 E3.25265
G1 X132.734 Y120.769 E3.33859
G1 X131.015 Y121.412 E3.43120
G1 X129.317 Y121.353 E3.51696
G1 X129.317 Y121.353 E3.51696
G1 X129.181 Y121.348 E3.52382
G1 X127.512 Y120.587 E3.61644
G1 X126.517 Y119.520 E3.69009
G1 X126.517 Y119.520 E3.69009
G1 X126.261 Y119.245 E3.70906
G1 X125.621 Y117.535 E3.80121
G1 X125.621 Y117.535 E3.80121
G1 X125.618 Y117.527 E3.80167
G1 X125.682 Y115.693 E3.89429
G1 X126.443 Y114.024 E3.98691
G1 X127.406 Y113.126 E4.05336
G1 X127.981 Y113.089 F9600.000
G1 X128.040 Y113.067 F900.000 E4.05656
G1 X128.040 Y113.067 E4.05656
G1 X129.563 Y112.498 E4.13864
G1 X131.252 Y112.557 E4.22391
G1 X132.789 Y113.257 E4.30919
G1 X133.941 Y114.493 E4.39446
G1 X133.963 Y114.552 E4.39765
G1 X133.963 Y114.552 E4.39765
G1 X134.532 Y116.075 E4.47974
G1 X134.473 Y117.763 E4.56501
G1 X133.799 Y119.243 E4.64710
G1 X133.799 Y119.243 E4.64710
G1 X133.773 Y119.300 E4.65029
G1 X132.537 Y120.452 E4.73556
G1 X130.955 Y121.044 E4.82084
G1 X129.267 Y120.985 E4.90611
G1 X127.730 Y120.285 E4.99138
G1 X126.578 Y119.049 E5.07666
G1 X125.986 Y117.467 E5.16193
G1 X126.045 Y115.779 E5.24721
G1 X126.746 Y114.241 E5.33248
G1 X127.712 Y113.340 E5.39921
G1 F1200.000 E4.39921
G92 E0
G1 X161.701 Y58.200 F9600.000
G1 F1200.000 E1.00000
G1 X163.528 Y58.449 F900.000 E1.09308
G1 X165.248 Y59.050 E1.18504
G1 X166.813 Y59.983 E1.27702
G1 X168.161 Y61.210 E1.36903
G1 X169.236 Y62.681 E1.46101
G1 X169.996 Y64.337 E1.55298
G1 X170.410 Y66.111 E1.64496
G1 X170.462 Y67.933 E1.73695
G1 X170.149 Y69.727 E1.82891
G1 X169.484 Y71.424 E1.92090
G1 X168.493 Y72.954 E2.01291
G1 X167.218 Y74.254 E2.10486
G1 X165.707 Y75.275 E2.19687
G1 X164.024 Y75.973 E2.28887
G1 X162.236 Y76.320 E2.38083
G1 X160.413 Y76.304 E2.47282
G1 X158.549 Y75.907 E2.56901
G1 X157.564 Y75.516 E2.62252
G1 X155.491 Y74.873 E2.73209
G1 X153.339 Y74.450 E2.84278
G1 X153.339 Y74.450 E2.84279
G1 X153.203 Y74.424 E2.84981
G1 X153.203 Y74.438 E2.85056
G1 X151.238 Y74.265 E2.95010
G1 X151.238 Y74.265 E2.95010
G1 X151.145 Y74.257 E2.95483
G1 X148.017 Y74.386 E3.11286
G1 X145.228 Y74.932 E3.25634
G1 X145.228 Y74.932 E3.25634
G1 X144.934 Y74.989 E3.27143
G1 X141.979 Y76.052 E3.42998
G1 X141.979 Y76.052 E3.42998
G1 X141.970 Y76.055 E3.43045
G1 X141.970 Y76.057 E3.43053
G1 X139.219 Y77.552 E3.58860
G1 X136.740 Y79.434 E3.74573
G1 X135.339 Y80.799 E3.84445
G1 X134.580 Y81.656 E3.90223
G1 X134.580 Y81.656 E3.90224
G1 X132.781 Y84.164 E4.05808
G1 X131.522 Y86.634 E4.19802
G1 X131.522 Y86.634 E4.19802
G1 X131.367 Y86.939 E4.21529
G1 X130.368 Y89.947 E4.37527
G1 X130.368 Y89.947 E4.37527
G1 X130.022 Y90.986 E4.43057
G1 X130.198 Y90.986 E4.43943
G1 X129.931 Y92.546 E4.51928
G1 X129.931 Y92.546 E4.51928
G1 X129.859 Y92.966 E4.54081
G1 X129.800 Y96.082 E4.69813
G1 X130.245 Y99.334 E4.86384
G1 X130.439 Y99.972 E4.89750
G1 X130.439 Y99.972 E4.89750
G1 X130.915 Y101.537 E4.98004
G1 X130.741 Y101.537 E4.98879
