; generated by Slic3r 0.9.5 on 2012-11-15 at 11:52:08

; layer_height = 0.25
; perimeters = 3
; top_solid_layers = 3
; bottom_solid_layers = 3
; fill_density = 0.2
; perimeter_speed = 50
; infill_speed = 85
; travel_speed = 180
; scale = 1
; nozzle_diameter = 0.35
; filament_diameter = 1.73
; extrusion_multiplier = 1
; perimeters extrusion width = 0.39mm
; infill extrusion width = 0.39mm
; first layer extrusion width = 0.68mm

G28 ; home all axes
G90 ; use absolute coordinates
G21 ; set units to millimeters
G92 E0
M82 ; use absolute distances for extrusion
G1 F1800.000 E-0.80000
G1 Z0.740 F10800.000
G92 E0
G1 X71.420 Y52.854
G1 Z0.340
G1 F1800.000 E0.80000
G1 X71.620 Y52.654 F900.000 E0.82492
G1 X71.720 Y52.564 E0.83678
G1 X71.940 Y52.384 E0.86182
G1 X73.240 Y51.444 E1.00318
G1 X73.350 Y51.374 E1.01467
G1 X73.470 Y51.294 E1.02738
G1 X73.590 Y51.234 E1.03920
G1 X73.710 Y51.164 E1.05144
G1 X73.830 Y51.114 E1.06289
G1 X75.290 Y50.464 E1.20371
G1 X75.420 Y50.404 E1.21633
G1 X75.550 Y50.354 E1.22860
G1 X75.810 Y50.274 E1.25257
G1 X75.950 Y50.244 E1.26519
G1 X77.510 Y49.914 E1.40569
G1 X77.640 Y49.894 E1.41728
G1 X77.920 Y49.854 E1.44220
G1 X78.050 Y49.844 E1.45369
G1 X101.940 Y49.844 E3.55872
G1 X102.070 Y49.854 E3.57021
G1 X102.350 Y49.894 E3.59513
G1 X102.480 Y49.914 E3.60672
G1 X104.040 Y50.244 E3.74722
G1 X104.180 Y50.274 E3.75984
G1 X104.440 Y50.354 E3.78381
G1 X104.570 Y50.404 E3.79608
G1 X104.700 Y50.464 E3.80870
G1 X106.160 Y51.114 E3.94952
G1 X106.280 Y51.164 E3.96097
G1 X106.400 Y51.234 E3.97321
G1 X106.520 Y51.294 E3.98503
G1 X106.640 Y51.374 E3.99774
G1 X106.750 Y51.444 E4.00923
G1 X108.050 Y52.384 E4.15059
G1 X108.270 Y52.564 E4.17563
G1 X108.370 Y52.654 E4.18749
G1 X108.570 Y52.854 E4.21241
G1 X109.640 Y54.044 E4.35342
G1 X109.730 Y54.154 E4.36594
G1 X109.810 Y54.254 E4.37723
G1 X109.890 Y54.374 E4.38993
G1 X109.970 Y54.484 E4.40192
G1 X110.040 Y54.604 E4.41416
G1 X110.840 Y55.994 E4.55548
G1 X110.910 Y56.114 E4.56772
G1 X110.970 Y56.234 E4.57954
G1 X111.020 Y56.354 E4.59099
G1 X111.070 Y56.484 E4.60327
G1 X111.110 Y56.604 E4.61441
G1 X111.610 Y58.124 E4.75540
G1 X111.650 Y58.234 E4.76572
G1 X111.680 Y58.344 E4.77576
G1 X111.700 Y58.454 E4.78562
G1 X111.730 Y58.574 E4.79651
G1 X111.750 Y58.684 E4.80637
G1 X111.920 Y59.864 E4.91141
G1 X111.950 Y60.334 E4.95291
G1 X111.950 Y119.654 E10.17982
G1 X111.920 Y120.124 E10.22131
G1 X111.750 Y121.304 E10.32636
G1 X111.620 Y121.854 E10.37616
G1 X111.120 Y123.384 E10.51799
G1 X111.020 Y123.644 E10.54254
G1 X110.960 Y123.774 E10.55515
G1 X110.840 Y124.014 E10.57879
G1 X110.040 Y125.394 E10.71935
G1 X109.960 Y125.514 E10.73205
G1 X109.890 Y125.624 E10.74354
G1 X109.810 Y125.734 E10.75553
G1 X109.720 Y125.844 E10.76805
G1 X109.640 Y125.944 E10.77934
G1 X108.570 Y127.134 E10.92034
G1 X108.370 Y127.334 E10.94527
G1 X108.270 Y127.424 E10.95712
G1 X108.050 Y127.604 E10.98217
G1 X106.750 Y128.544 E11.12352
G1 X106.640 Y128.614 E11.13501
G1 X106.520 Y128.694 E11.14772
G1 X106.400 Y128.754 E11.15954
G1 X106.280 Y128.824 E11.17178
G1 X106.160 Y128.874 E11.18324
G1 X104.700 Y129.524 E11.32406
G1 X104.570 Y129.584 E11.33667
G1 X104.450 Y129.624 E11.34782
G1 X104.320 Y129.674 E11.36009
G1 X104.060 Y129.734 E11.38360
G1 X102.500 Y130.074 E11.52429
G1 X102.360 Y130.104 E11.53690
G1 X102.080 Y130.144 E11.56183
G1 X101.940 Y130.154 E11.57419
G1 X78.050 Y130.154 E13.67923
G1 X77.910 Y130.144 E13.69160
G1 X77.630 Y130.104 E13.71652
G1 X77.490 Y130.074 E13.72914
G1 X75.930 Y129.734 E13.86982
G1 X75.670 Y129.674 E13.89333
G1 X75.540 Y129.624 E13.90560
G1 X75.420 Y129.584 E13.91675
G1 X75.290 Y129.524 E13.92937
G1 X73.830 Y128.874 E14.07019
G1 X73.710 Y128.824 E14.08164
G1 X73.590 Y128.754 E14.09388
G1 X73.470 Y128.694 E14.10570
G1 X73.350 Y128.614 E14.11841
G1 X73.240 Y128.544 E14.12990
G1 X71.940 Y127.604 E14.27126
G1 X71.720 Y127.424 E14.29630
G1 X71.620 Y127.334 E14.30816
G1 X71.420 Y127.134 E14.33308
G1 X70.350 Y125.944 E14.47409
G1 X70.270 Y125.844 E14.48537
G1 X70.180 Y125.734 E14.49790
G1 X70.100 Y125.624 E14.50988
G1 X70.030 Y125.514 E14.52137
G1 X69.950 Y125.394 E14.53408
G1 X69.150 Y124.014 E14.67463
G1 X69.030 Y123.774 E14.69827
G1 X68.970 Y123.644 E14.71089
G1 X68.870 Y123.384 E14.73543
G1 X68.370 Y121.854 E14.87726
G1 X68.340 Y121.744 E14.88731
G1 X68.310 Y121.624 E14.89821
G1 X68.280 Y121.514 E14.90826
G1 X68.240 Y121.274 E14.92969
G1 X68.080 Y120.094 E15.03462
G1 X68.050 Y119.654 E15.07348
G1 X68.050 Y60.334 E20.30039
G1 X68.080 Y59.894 E20.33925
G1 X68.240 Y58.714 E20.44417
G1 X68.280 Y58.474 E20.46561
G1 X68.310 Y58.354 E20.47651
G1 X68.340 Y58.244 E20.48656
G1 X68.380 Y58.124 E20.49770
G1 X68.880 Y56.604 E20.63869
G1 X68.920 Y56.484 E20.64984
G1 X68.970 Y56.354 E20.66211
G1 X69.020 Y56.234 E20.67357
G1 X69.080 Y56.114 E20.68539
G1 X69.150 Y55.994 E20.69763
G1 X69.950 Y54.604 E20.83894
G1 X70.020 Y54.484 E20.85119
G1 X70.100 Y54.374 E20.86317
G1 X70.180 Y54.254 E20.87588
G1 X70.260 Y54.154 E20.88716
G1 X70.350 Y54.044 E20.89969
G1 X71.420 Y52.854 E21.04070
G1 X71.900 Y53.284 F10800.000
G1 X72.060 Y53.124 F900.000 E21.06063
G1 X72.140 Y53.054 E21.07000
G1 X72.230 Y52.974 E21.08061
G1 X72.320 Y52.914 E21.09014
G1 X73.620 Y51.974 E21.23150
G1 X73.710 Y51.904 E21.24154
G1 X73.800 Y51.854 E21.25062
G1 X73.900 Y51.794 E21.26089
G1 X74.000 Y51.744 E21.27074
G1 X74.090 Y51.694 E21.27981
G1 X75.550 Y51.044 E21.42063
G1 X75.660 Y51.004 E21.43095
G1 X75.760 Y50.964 E21.44044
G1 X75.870 Y50.934 E21.45048
G1 X75.970 Y50.904 E21.45968
G1 X76.080 Y50.874 E21.46973
G1 X77.640 Y50.544 E21.61023
G1 X77.750 Y50.524 E21.62008
G1 X77.860 Y50.514 E21.62981
G1 X77.970 Y50.494 E21.63966
G1 X102.020 Y50.494 E23.75880
G1 X102.130 Y50.514 E23.76865
G1 X102.240 Y50.524 E23.77838
G1 X102.350 Y50.544 E23.78823
G1 X103.910 Y50.874 E23.92873
G1 X104.020 Y50.904 E23.93878
G1 X104.120 Y50.934 E23.94798
G1 X104.230 Y50.964 E23.95803
G1 X104.330 Y51.004 E23.96752
G1 X104.440 Y51.044 E23.97783
G1 X105.900 Y51.694 E24.11865
G1 X105.990 Y51.744 E24.12772
G1 X106.090 Y51.794 E24.13757
G1 X106.190 Y51.854 E24.14785
G1 X106.280 Y51.904 E24.15692
G1 X106.370 Y51.974 E24.16697
G1 X107.670 Y52.914 E24.30832
G1 X107.760 Y52.974 E24.31785
G1 X107.850 Y53.054 E24.32846
G1 X107.930 Y53.124 E24.33783
G1 X108.090 Y53.284 E24.35777
G1 X109.160 Y54.474 E24.49878
G1 X109.230 Y54.564 E24.50882
G1 X109.300 Y54.644 E24.51819
G1 X109.360 Y54.734 E24.52772
G1 X109.420 Y54.834 E24.53800
G1 X109.480 Y54.924 E24.54753
G1 X110.280 Y56.314 E24.68884
G1 X110.330 Y56.414 E24.69869
G1 X110.380 Y56.504 E24.70777
G1 X110.430 Y56.604 E24.71762
G1 X110.470 Y56.704 E24.72711
G1 X110.500 Y56.804 E24.73631
G1 X111.000 Y58.324 E24.87730
G1 X111.030 Y58.414 E24.88566
G1 X111.110 Y58.774 E24.91815
G1 X111.280 Y59.954 E25.02320
G1 X111.300 Y60.334 E25.05673
G1 X111.300 Y119.654 E30.28364
G1 X111.280 Y120.034 E30.31717
G1 X111.110 Y121.214 E30.42221
G1 X111.000 Y121.654 E30.46218
G1 X110.500 Y123.184 E30.60401
G1 X110.470 Y123.294 E30.61405
G1 X110.430 Y123.394 E30.62354
G1 X110.280 Y123.694 E30.65310
G1 X109.480 Y125.074 E30.79365
G1 X109.300 Y125.344 E30.82224
G1 X109.230 Y125.434 E30.83229
G1 X109.160 Y125.514 E30.84165
G1 X108.090 Y126.704 E30.98266
G1 X107.930 Y126.864 E31.00260
G1 X107.850 Y126.934 E31.01197
G1 X107.760 Y127.014 E31.02258
G1 X107.670 Y127.074 E31.03211
G1 X106.370 Y128.014 E31.17347
G1 X106.280 Y128.084 E31.18351
G1 X106.190 Y128.134 E31.19258
G1 X106.090 Y128.194 E31.20286
G1 X105.990 Y128.244 E31.21271
G1 X105.900 Y128.294 E31.22178
G1 X104.440 Y128.944 E31.36260
G1 X104.340 Y128.984 E31.37209
G1 X104.230 Y129.024 E31.38241
G1 X104.030 Y129.084 E31.40080
G1 X103.920 Y129.104 E31.41066
G1 X102.360 Y129.444 E31.55134
G1 X102.250 Y129.474 E31.56139
G1 X102.030 Y129.494 E31.58085
G1 X101.910 Y129.504 E31.59146
G1 X78.080 Y129.504 E33.69121
G1 X77.960 Y129.494 E33.70182
G1 X77.740 Y129.474 E33.72129
G1 X77.630 Y129.444 E33.73133
G1 X76.070 Y129.104 E33.87202
G1 X75.960 Y129.084 E33.88187
G1 X75.760 Y129.024 E33.90027
G1 X75.650 Y128.984 E33.91058
G1 X75.550 Y128.944 E33.92007
G1 X74.090 Y128.294 E34.06089
G1 X74.000 Y128.244 E34.06996
G1 X73.900 Y128.194 E34.07981
G1 X73.800 Y128.134 E34.09009
G1 X73.710 Y128.084 E34.09916
G1 X73.620 Y128.014 E34.10921
G1 X72.320 Y127.074 E34.25056
G1 X72.230 Y127.014 E34.26009
G1 X72.140 Y126.934 E34.27071
G1 X72.060 Y126.864 E34.28007
G1 X71.900 Y126.704 E34.30001
G1 X70.830 Y125.514 E34.44102
G1 X70.760 Y125.434 E34.45039
G1 X70.690 Y125.344 E34.46043
G1 X70.510 Y125.074 E34.48903
G1 X69.710 Y123.694 E34.62958
G1 X69.560 Y123.394 E34.65913
G1 X69.520 Y123.294 E34.66862
G1 X69.490 Y123.184 E34.67867
G1 X68.990 Y121.654 E34.82050
G1 X68.930 Y121.474 E34.83722
G1 X68.910 Y121.374 E34.84620
G1 X68.890 Y121.284 E34.85433
G1 X68.880 Y121.194 E34.86230
G1 X68.720 Y120.014 E34.96723
G1 X68.700 Y119.654 E34.99900
G1 X68.700 Y60.334 E40.22591
G1 X68.720 Y59.974 E40.25768
G1 X68.880 Y58.794 E40.36260
G1 X68.890 Y58.704 E40.37058
G1 X68.910 Y58.604 E40.37957
G1 X68.930 Y58.514 E40.38769
G1 X68.960 Y58.424 E40.39605
G1 X68.990 Y58.324 E40.40525
G1 X69.490 Y56.804 E40.54624
G1 X69.520 Y56.704 E40.55544
G1 X69.560 Y56.604 E40.56493
G1 X69.610 Y56.504 E40.57478
G1 X69.660 Y56.414 E40.58385
G1 X69.710 Y56.314 E40.59370
G1 X70.510 Y54.924 E40.73502
G1 X70.570 Y54.834 E40.74455
G1 X70.630 Y54.734 E40.75483
G1 X70.690 Y54.644 E40.76436
G1 X70.760 Y54.564 E40.77372
G1 X70.830 Y54.474 E40.78377
G1 X71.900 Y53.284 E40.92478
G1 F1800.000 E40.12478
G1 Z0.740 F10800.000
G92 E0
G1 X99.827 Y114.110
G1 Z0.340
G1 F1800.000 E0.80000
G1 X102.173 Y114.110 F900.000 E1.00675
G1 X104.287 Y115.128 E1.21350
G1 X105.750 Y116.962 E1.42026
G1 X106.245 Y119.130 E1.61615
G1 X106.300 Y119.130 E1.62098
G1 X106.272 Y119.250 E1.63184
G1 X106.272 Y119.250 E1.63185
G1 X105.750 Y121.538 E1.83860
G1 X104.287 Y123.372 E2.04536
G1 X102.173 Y124.390 E2.25211
G1 X99.827 Y124.390 E2.45886
G1 X97.713 Y123.372 E2.66561
G1 X96.250 Y121.538 E2.87237
G1 X95.728 Y119.250 E3.07912
G1 X96.250 Y116.962 E3.28587
G1 X97.713 Y115.128 E3.49263
G1 X99.827 Y114.110 E3.69938
G1 X99.974 Y114.754 F10800.000
G1 X102.026 Y114.754 F900.000 E3.88021
G1 X103.875 Y115.645 E4.06103
G1 X105.155 Y117.249 E4.24187
G1 X105.611 Y119.250 E4.42269
G1 X105.492 Y119.774 E4.47009
G1 X105.492 Y119.774 E4.47009
G1 X105.155 Y121.251 E4.60351
G1 X103.875 Y122.855 E4.78435
G1 X102.026 Y123.746 E4.96517
G1 X99.974 Y123.746 E5.14600
G1 X98.125 Y122.855 E5.32682
G1 X96.845 Y121.251 E5.50765
G1 X96.389 Y119.250 E5.68848
G1 X96.845 Y117.249 E5.86930
G1 X98.125 Y115.645 E6.05013
G1 X99.974 Y114.754 E6.23096
G1 F1800.000 E5.43096
G1 Z0.740 F10800.000
G92 E0
G1 X94.629 Y118.881
G1 Z0.340
G1 F1800.000 E0.80000
G1 X94.629 Y95.724 F900.000 E2.84048
G1 X97.646 Y95.724 E3.10629
G1 X97.646 Y98.615 E3.36106
G1 X100.172 Y100.630 E3.64572
G1 X103.321 Y99.911 E3.93037
G1 X104.723 Y97.000 E4.21504
G1 X104.108 Y95.724 E4.33984
G1 X107.371 Y95.724 E4.62731
G1 X107.371 Y118.485 E6.63290
G1 X106.759 Y118.485 E6.68681
G1 X106.346 Y116.676 E6.85037
G1 X104.699 Y114.611 E7.08306
G1 X102.320 Y113.465 E7.31573
G1 X99.680 Y113.465 E7.54840
G1 X97.301 Y114.611 E7.78108
G1 X95.654 Y116.676 E8.01378
G1 X95.138 Y118.939 E8.21830
G1 X94.629 Y118.881 E8.26338
G1 X93.985 Y119.198 F10800.000
G1 X93.985 Y95.079 F900.000 E10.38860
G1 X98.599 Y95.079 E10.79518
G1 X98.700 Y95.368 E10.82217
G1 X98.290 Y95.695 E10.86835
G1 X98.290 Y98.305 E11.09830
G1 X100.331 Y99.932 E11.32825
G1 X102.875 Y99.351 E11.55821
G1 X104.007 Y97.000 E11.78816
G1 X103.082 Y95.079 E11.97601
G1 X108.015 Y95.079 E12.41067
G1 X108.015 Y119.198 E14.53589
G1 X107.857 Y120.707 E14.66959
G1 X107.404 Y122.101 E14.79872
G1 X106.671 Y123.370 E14.92785
G1 X105.691 Y124.459 E15.05698
G1 X104.505 Y125.321 E15.18611
G1 X103.166 Y125.917 E15.31524
G1 X101.733 Y126.222 E15.44437
G1 X100.267 Y126.222 E15.57350
G1 X98.834 Y125.917 E15.70263
G1 X97.495 Y125.321 E15.83176
G1 X96.309 Y124.459 E15.96089
G1 X95.329 Y123.370 E16.09002
G1 X94.596 Y122.101 E16.21915
G1 X94.143 Y120.707 E16.34828
G1 X93.985 Y119.198 E16.48198
G1 X93.385 Y119.660 F10800.000
G1 X93.340 Y119.660 F900.000 E16.48594
G1 X93.340 Y94.435 E18.70864
G1 X100.416 Y94.435 E19.33210
G1 X100.522 Y94.740 E19.36057
G1 X98.935 Y96.006 E19.53946
G1 X98.935 Y97.994 E19.71471
G1 X100.490 Y99.235 E19.88996
G1 X102.429 Y98.792 E20.06521
G1 X103.292 Y97.000 E20.24046
G1 X102.429 Y95.208 E20.41571
G1 X101.390 Y94.971 E20.50960
G1 X101.451 Y94.435 E20.55715
G1 X108.660 Y94.435 E21.19240
G1 X108.660 Y119.660 E23.41509
G1 X108.615 Y119.660 E23.41906
G1 X108.491 Y120.842 E23.52380
G1 X107.996 Y122.365 E23.66487
G1 X107.196 Y123.751 E23.80594
G1 X106.124 Y124.941 E23.94701
G1 X104.829 Y125.882 E24.08808
G1 X103.367 Y126.533 E24.22914
G1 X101.800 Y126.866 E24.37021
G1 X100.200 Y126.866 E24.51128
G1 X98.633 Y126.533 E24.65235
G1 X97.171 Y125.882 E24.79342
G1 X95.876 Y124.941 E24.93449
G1 X94.804 Y123.751 E25.07556
G1 X94.004 Y122.365 E25.21663
G1 X93.509 Y120.842 E25.35770
G1 X93.385 Y119.660 E25.46244
G1 X93.647 Y119.071 F10800.000
G1 F1800.000 E24.66244
G1 Z0.740 F10800.000
G92 E0
G1 X99.827 Y65.890
G1 Z0.340
G1 F1800.000 E0.80000
G1 X97.713 Y64.872 F900.000 E1.00675
G1 X96.250 Y63.038 E1.21351
G1 X95.728 Y60.750 E1.42026
G1 X96.250 Y58.462 E1.62702
G1 X97.713 Y56.628 E1.83377
G1 X99.827 Y55.610 E2.04053
G1 X102.173 Y55.610 E2.24727
G1 X104.287 Y56.628 E2.45403
G1 X105.750 Y58.462 E2.66079
G1 X106.272 Y60.750 E2.86754
G1 X105.750 Y63.038 E3.07429
G1 X104.287 Y64.872 E3.28105
G1 X102.173 Y65.890 E3.48780
G1 X99.827 Y65.890 E3.69455
G1 X99.974 Y65.246 F10800.000
G1 X98.125 Y64.355 F900.000 E3.87538
G1 X96.845 Y62.751 E4.05621
G1 X96.389 Y60.750 E4.23703
G1 X96.845 Y58.749 E4.41786
G1 X98.125 Y57.145 E4.59869
G1 X99.974 Y56.254 E4.77951
G1 X102.026 Y56.254 E4.96034
G1 X103.875 Y57.145 E5.14116
G1 X105.155 Y58.749 E5.32199
G1 X105.611 Y60.750 E5.50282
G1 X105.155 Y62.751 E5.68364
G1 X103.875 Y64.355 E5.86447
G1 X102.026 Y65.246 E6.04530
G1 X99.974 Y65.246 E6.22612
G1 F1800.000 E5.42612
G1 Z0.740 F10800.000
G92 E0
G1 X106.862 Y61.061
G1 Z0.340
G1 F1800.000 E0.80000
G1 X107.371 Y61.119 F900.000 E0.84507
G1 X107.371 Y84.276 E2.88556
G1 X104.108 Y84.276 E3.17303
G1 X104.723 Y83.000 E3.29783
G1 X103.321 Y80.089 E3.58248
G1 X100.172 Y79.370 E3.86715
G1 X97.646 Y81.385 E4.15180
G1 X97.646 Y84.276 E4.40658
G1 X94.629 Y84.276 E4.67238
G1 X94.629 Y61.119 E6.71287
G1 X95.138 Y61.061 E6.75794
G1 X95.654 Y63.324 E6.96247
G1 X97.300 Y65.389 E7.19516
G1 X99.680 Y66.535 E7.42784
G1 X102.320 Y66.535 E7.66051
G1 X104.700 Y65.389 E7.89319
G1 X106.346 Y63.324 E8.12588
G1 X106.862 Y61.061 E8.33041
G1 X108.015 Y60.802 F10800.000
G1 X108.015 Y84.921 F900.000 E10.45563
G1 X103.082 Y84.921 E10.89029
G1 X104.007 Y83.000 E11.07813
G1 X102.875 Y80.649 E11.30808
G1 X100.331 Y80.068 E11.53804
G1 X98.290 Y81.695 E11.76799
G1 X98.290 Y84.305 E11.99795
G1 X98.700 Y84.632 E12.04412
G1 X98.599 Y84.921 E12.07111
G1 X93.985 Y84.921 E12.47770
G1 X93.985 Y60.802 E14.60292
G1 X94.143 Y59.293 E14.73662
G1 X94.596 Y57.899 E14.86575
G1 X95.329 Y56.630 E14.99488
G1 X96.309 Y55.541 E15.12401
G1 X97.495 Y54.679 E15.25314
G1 X98.834 Y54.083 E15.38227
G1 X100.267 Y53.778 E15.51140
G1 X101.733 Y53.778 E15.64053
G1 X103.166 Y54.083 E15.76966
G1 X104.505 Y54.679 E15.89879
G1 X105.691 Y55.541 E16.02792
G1 X106.671 Y56.630 E16.15705
G1 X107.404 Y57.899 E16.28618
G1 X107.857 Y59.293 E16.41531
G1 X108.015 Y60.802 E16.54901
G1 X108.615 Y60.340 F10800.000
G1 X108.660 Y60.340 F900.000 E16.55298
G1 X108.660 Y85.565 E18.77567
