; generated by Slic3r 0.9.3 on 2012-11-01 at 14:46:36

; layer_height = 0.33
; perimeters = 3
; solid_layers = 3
; fill_density = 0.20
; perimeter_speed = 50
; infill_speed = 75
; travel_speed = 160
; scale = 1
; nozzle_diameter = 0.35
; filament_diameter = 1.74
; extrusion_multiplier = 1
; single wall width = 0.37mm

G28 ; home all axes
M106;
G90 ; use absolute coordinates
G21 ; set units to millimeters
G92 E0
M82 ; use absolute distances for extrusion
G1 F1200.000 E-1.00000
G1 Z0.730 F9600.000
G92 E0
G1 X78.748 Y48.098
G1 Z0.330
G1 F1200.000 E1.00000
G1 X79.528 Y48.058 F900.000 E1.03943
G1 X104.618 Y48.338 E2.30606
G1 X107.138 Y48.578 E2.43384
G1 X107.978 Y48.758 E2.47721
G1 X110.338 Y49.548 E2.60284
G1 X110.858 Y49.788 E2.63175
G1 X112.748 Y50.888 E2.74214
G1 X113.408 Y51.368 E2.78334
G1 X115.248 Y53.038 E2.90877
G1 X115.618 Y53.468 E2.93741
G1 X116.918 Y55.248 E3.04868
G1 X117.208 Y55.738 E3.07742
G1 X118.228 Y57.998 E3.20259
G1 X118.418 Y58.538 E3.23148
G1 X118.988 Y61.168 E3.36733
G1 X119.058 Y61.718 E3.39532
G1 X119.078 Y61.998 E3.40949
G1 X119.078 Y122.278 E6.45244
G1 X119.028 Y122.838 E6.48082
G1 X118.558 Y125.188 E6.60180
G1 X118.418 Y125.728 E6.62996
G1 X118.238 Y126.248 E6.65774
G1 X117.218 Y128.528 E6.78383
G1 X116.918 Y129.018 E6.81283
G1 X115.618 Y130.808 E6.92450
G1 X115.248 Y131.238 E6.95314
G1 X113.408 Y132.908 E7.07858
G1 X112.748 Y133.388 E7.11977
G1 X110.848 Y134.488 E7.23060
G1 X110.318 Y134.738 E7.26018
G1 X110.048 Y134.848 E7.27490
G1 X107.948 Y135.518 E7.38617
G1 X107.678 Y135.588 E7.40025
G1 X107.138 Y135.688 E7.42798
G1 X105.238 Y135.888 E7.52442
G1 X104.458 Y135.928 E7.56384
G1 X79.368 Y135.648 E8.83047
G1 X76.838 Y135.408 E8.95876
G1 X75.998 Y135.228 E9.00213
G1 X73.918 Y134.538 E9.11275
G1 X73.418 Y134.338 E9.13994
G1 X71.518 Y133.278 E9.24977
G1 X70.788 Y132.788 E9.29415
G1 X68.918 Y131.118 E9.42071
G1 X68.368 Y130.508 E9.46217
G1 X66.938 Y128.508 E9.58629
G1 X66.668 Y128.018 E9.61453
G1 X65.768 Y126.008 E9.72570
G1 X65.578 Y125.468 E9.75460
G1 X64.998 Y122.818 E9.89154
G1 X64.928 Y122.268 E9.91953
G1 X64.908 Y121.988 E9.93370
G1 X64.908 Y61.708 E12.97665
G1 X64.958 Y61.148 E13.00503
G1 X65.498 Y58.518 E13.14056
G1 X65.668 Y57.968 E13.16962
G1 X66.668 Y55.688 E13.29530
G1 X66.938 Y55.198 E13.32354
G1 X68.368 Y53.198 E13.44766
G1 X68.918 Y52.588 E13.48912
G1 X70.548 Y51.108 E13.60026
G1 X70.788 Y50.918 E13.61571
G1 X71.518 Y50.428 E13.66009
G1 X73.418 Y49.368 E13.76992
G1 X75.998 Y48.478 E13.90769
G1 X76.838 Y48.298 E13.95106
G1 X78.383 Y48.137 E14.02945
G1 X78.788 Y48.458 F9600.000
G1 X79.518 Y48.418 F900.000 E14.06636
G1 X104.608 Y48.698 E15.33299
G1 X107.088 Y48.938 E15.45876
G1 X107.618 Y49.038 E15.48599
G1 X109.948 Y49.788 E15.60955
G1 X110.448 Y49.998 E15.63693
G1 X112.548 Y51.198 E15.75902
G1 X112.758 Y51.338 E15.77177
G1 X113.368 Y51.818 E15.81095
G1 X114.978 Y53.288 E15.92100
G1 X115.498 Y53.918 E15.96224
G1 X116.758 Y55.688 E16.07192
G1 X117.018 Y56.158 E16.09903
G1 X117.988 Y58.388 E16.22179
G1 X118.138 Y58.898 E16.24863
G1 X118.628 Y61.228 E16.36882
G1 X118.668 Y61.488 E16.38210
G1 X118.718 Y62.278 E16.42206
G1 X118.708 Y122.258 E19.44986
G1 X118.668 Y122.788 E19.47670
G1 X118.138 Y125.368 E19.60965
G1 X117.988 Y125.868 E19.63601
G1 X117.018 Y128.108 E19.75923
G1 X116.898 Y128.348 E19.77277
G1 X116.458 Y129.038 E19.81408
G1 X115.158 Y130.788 E19.92413
G1 X114.978 Y130.988 E19.93772
G1 X113.178 Y132.618 E20.06030
G1 X112.758 Y132.938 E20.08695
G1 X112.548 Y133.078 E20.09969
G1 X110.678 Y134.168 E20.20896
G1 X110.178 Y134.398 E20.23674
G1 X107.848 Y135.168 E20.36062
G1 X107.078 Y135.328 E20.40032
G1 X104.468 Y135.568 E20.53263
G1 X79.378 Y135.288 E21.79926
G1 X76.898 Y135.048 E21.92503
G1 X76.098 Y134.878 E21.96632
G1 X73.808 Y134.108 E22.08828
G1 X73.348 Y133.888 E22.11402
G1 X71.468 Y132.818 E22.22321
G1 X71.008 Y132.498 E22.25150
G1 X69.178 Y130.858 E22.37555
G1 X68.998 Y130.678 E22.38840
G1 X68.818 Y130.478 E22.40198
G1 X67.388 Y128.538 E22.52364
G1 X67.118 Y128.088 E22.55013
G1 X66.208 Y126.128 E22.65922
G1 X66.008 Y125.618 E22.68687
G1 X65.848 Y125.098 E22.71434
G1 X65.358 Y122.758 E22.83502
G1 X65.318 Y122.498 E22.84830
G1 X65.268 Y121.708 E22.88826
G1 X65.278 Y61.728 E25.91607
G1 X65.318 Y61.198 E25.94290
G1 X65.848 Y58.608 E26.07636
G1 X66.008 Y58.088 E26.10382
G1 X66.878 Y56.088 E26.21392
G1 X67.248 Y55.388 E26.25389
G1 X67.388 Y55.168 E26.26705
G1 X68.818 Y53.228 E26.38871
G1 X68.998 Y53.028 E26.40230
G1 X70.788 Y51.388 E26.52485
G1 X71.008 Y51.208 E26.53920
G1 X71.468 Y50.888 E26.56748
G1 X73.348 Y49.818 E26.67668
G1 X73.808 Y49.598 E26.70242
G1 X76.098 Y48.828 E26.82438
G1 X76.898 Y48.658 E26.86567
G1 X78.423 Y48.497 E26.94305
G1 F1200.000 E25.94305
G1 Z0.730 F9600.000
G92 E0
G1 X79.930 Y100.924
G1 Z0.330
G1 F1200.000 E1.00000
G1 X78.137 Y100.515 F900.000 E1.09280
G1 X77.340 Y98.858 E1.18561
G1 X78.137 Y97.202 E1.27841
G1 X79.930 Y96.793 E1.37121
G1 X81.367 Y97.939 E1.46402
G1 X81.367 Y99.778 E1.55682
G1 X80.217 Y100.695 E1.63107
G1 F1200.000 E0.63107
G1 Z0.730 F9600.000
G92 E0
G1 X80.418 Y116.097
G1 Z0.330
G1 F1200.000 E1.00000
G1 X80.418 Y116.275 F900.000 E1.00900
G1 X82.301 Y116.989 E1.11070
G1 X83.890 Y118.782 E1.23162
G1 X84.175 Y119.940 E1.29183
G1 X84.175 Y119.940 E1.29184
G1 X84.463 Y121.108 E1.35256
G1 X83.890 Y123.434 E1.47348
G1 X82.301 Y125.227 E1.59441
G1 X80.062 Y126.077 E1.71533
G1 X77.684 Y125.788 E1.83626
G1 X76.558 Y125.011 E1.90529
G1 X76.558 Y125.011 E1.90529
G1 X75.712 Y124.427 E1.95718
G1 X74.438 Y122.000 E2.09555
G1 X74.599 Y122.000 E2.10366
G1 X74.599 Y119.911 E2.20914
G1 X75.712 Y117.789 E2.33006
G1 X77.109 Y116.825 E2.41575
G1 X77.109 Y116.825 E2.41575
G1 X77.684 Y116.429 E2.45099
G1 X80.053 Y116.141 E2.57147
G1 X80.052 Y116.509 F9600.000
G1 X80.052 Y116.527 F900.000 E2.57237
G1 X82.088 Y117.299 E2.68227
G1 X83.556 Y118.957 E2.79409
G1 X83.709 Y119.575 E2.82619
G1 X83.709 Y119.575 E2.82619
G1 X84.087 Y121.108 E2.90592
G1 X83.556 Y123.259 E3.01775
G1 X82.087 Y124.917 E3.12958
G1 X80.016 Y125.703 E3.24140
G1 X77.817 Y125.436 E3.35323
G1 X76.574 Y124.578 E3.42947
G1 X76.574 Y124.578 E3.42947
G1 X75.994 Y124.177 E3.46506
G1 X75.043 Y122.366 E3.56834
G1 X75.043 Y122.366 E3.56834
G1 X74.965 Y122.216 E3.57688
G1 X74.965 Y120.001 E3.68871
G1 X75.994 Y118.039 E3.80054
G1 X77.678 Y116.877 E3.90382
G1 X77.678 Y116.877 E3.90382
G1 X77.817 Y116.781 E3.91236
G1 X79.687 Y116.554 E4.00746
G1 X79.686 Y116.922 F9600.000
G1 X79.686 Y116.922 F900.000 E4.00746
G1 X79.971 Y116.888 E4.02192
G1 X81.874 Y117.609 E4.12465
G1 X83.223 Y119.132 E4.22738
G1 X83.242 Y119.209 E4.23137
G1 X83.242 Y119.209 E4.23137
G1 X83.710 Y121.108 E4.33011
G1 X83.223 Y123.084 E4.43284
G1 X81.874 Y124.607 E4.53557
G1 X79.971 Y125.329 E4.63830
G1 X77.951 Y125.084 E4.74102
G1 X76.604 Y124.154 E4.82362
G1 X76.604 Y124.154 E4.82362
G1 X76.276 Y123.928 E4.84375
G1 X75.330 Y122.126 E4.94648
G1 X75.330 Y120.091 E5.04921
G1 X76.276 Y118.289 E5.15194
G1 X77.951 Y117.133 E5.25467
G1 X79.322 Y116.966 E5.32438
G1 F1200.000 E4.32438
G1 Z0.730 F9600.000
G92 E0
G1 X86.543 Y96.936
G1 Z0.330
G1 F1200.000 E1.00000
G1 X86.543 Y121.642 F900.000 E2.24719
G1 X86.192 Y123.296 E2.33255
G1 X85.590 Y124.648 E2.40727
G1 X84.720 Y125.846 E2.48198
G1 X83.620 Y126.836 E2.55670
G1 X82.338 Y127.576 E2.63142
G1 X80.930 Y128.034 E2.70613
G1 X79.458 Y128.188 E2.78085
G1 X77.986 Y128.034 E2.85557
G1 X76.579 Y127.576 E2.93028
G1 X75.297 Y126.836 E3.00500
G1 X74.197 Y125.846 E3.07972
G1 X73.327 Y124.648 E3.15443
G1 X72.725 Y123.296 E3.22915
G1 X72.373 Y121.642 E3.31451
G1 X72.373 Y96.936 E4.56170
G1 X77.454 Y96.936 E4.81818
G1 X76.528 Y98.858 E4.92590
G1 X77.631 Y101.149 E5.05426
G1 X80.110 Y101.715 E5.18262
G1 X82.098 Y100.130 E5.31097
G1 X82.098 Y97.587 E5.43933
G1 X81.487 Y97.100 E5.47879
G1 X81.545 Y96.936 E5.48756
G1 X86.176 Y96.936 E5.72134
G1 X86.909 Y96.570 F9600.000
G1 X86.909 Y121.681 F900.000 E6.98893
G1 X86.541 Y123.410 E7.07817
G1 X85.908 Y124.832 E7.15677
G1 X84.993 Y126.092 E7.23536
G1 X83.836 Y127.134 E7.31396
G1 X82.488 Y127.912 E7.39256
G1 X81.007 Y128.393 E7.47115
G1 X79.458 Y128.556 E7.54975
G1 X77.910 Y128.393 E7.62835
G1 X76.429 Y127.912 E7.70694
G1 X75.081 Y127.134 E7.78554
G1 X73.924 Y126.092 E7.86414
G1 X73.009 Y124.832 E7.94273
G1 X72.375 Y123.410 E8.02133
G1 X72.008 Y121.681 E8.11057
G1 X72.008 Y96.570 E9.37816
G1 X78.036 Y96.570 E9.68246
G1 X76.934 Y98.858 E9.81068
G1 X77.884 Y100.832 E9.92126
G1 X80.020 Y101.319 E10.03184
G1 X81.733 Y99.954 E10.14241
G1 X81.733 Y97.763 E10.25300
G1 X80.442 Y96.734 E10.33631
G1 X80.500 Y96.570 E10.34508
G1 X86.541 Y96.570 E10.65007
G1 X87.275 Y96.204 F9600.000
G1 X87.275 Y121.719 F900.000 E11.93805
G1 X86.891 Y123.523 E12.03117
G1 X86.227 Y125.016 E12.11365
G1 X85.266 Y126.338 E12.19612
G1 X84.052 Y127.431 E12.27860
G1 X82.637 Y128.248 E12.36108
G1 X81.083 Y128.753 E12.44355
G1 X79.458 Y128.924 E12.52603
G1 X77.833 Y128.753 E12.60851
G1 X76.280 Y128.248 E12.69098
G1 X74.865 Y127.431 E12.77346
G1 X73.650 Y126.338 E12.85594
G1 X72.690 Y125.016 E12.93841
G1 X72.026 Y123.523 E13.02089
G1 X71.641 Y121.713 E13.11433
G1 X71.642 Y121.713 E13.11439
G1 X71.642 Y96.204 E14.40207
G1 X86.907 Y96.204 E15.17265
G1 F1200.000 E14.17265
G1 Z0.730 F9600.000
G92 E0
G1 X80.062 Y67.577
G1 Z0.330
G1 F1200.000 E1.00000
G1 X77.684 Y67.288 F900.000 E1.12093
G1 X75.712 Y65.927 E1.24185
G1 X74.925 Y64.427 E1.32737
G1 X74.925 Y64.427 E1.32737
G1 X74.599 Y63.806 E1.36278
G1 X74.599 Y61.411 E1.48370
G1 X75.712 Y59.289 E1.60463
G1 X77.109 Y58.325 E1.69032
G1 X77.109 Y58.325 E1.69032
G1 X77.684 Y57.929 E1.72555
G1 X79.065 Y57.761 E1.79578
G1 X79.065 Y57.262 E1.82098
G1 X80.052 Y57.636 E1.87430
G1 X80.052 Y57.636 E1.87431
G1 X82.301 Y58.489 E1.99573
G1 X83.890 Y60.282 E2.11666
G1 X84.463 Y62.608 E2.23758
G1 X83.890 Y64.934 E2.35851
G1 X82.650 Y66.334 E2.45293
G1 X82.650 Y66.595 E2.46610
G1 X82.303 Y66.727 E2.48479
G1 X82.303 Y66.727 E2.48479
G1 X80.405 Y67.446 E2.58727
G1 X80.016 Y67.203 F9600.000
G1 X77.817 Y66.936 F900.000 E2.69910
G1 X75.994 Y65.677 E2.81092
G1 X75.146 Y64.061 E2.90305
G1 X75.146 Y64.061 E2.90305
G1 X74.965 Y63.716 E2.92275
G1 X74.965 Y61.501 E3.03458
G1 X75.994 Y59.539 E3.14640
G1 X77.678 Y58.377 E3.24969
G1 X77.678 Y58.377 E3.24969
G1 X77.817 Y58.281 E3.25823
G1 X79.430 Y58.085 E3.34026
G1 X79.430 Y57.792 E3.35507
G1 X80.013 Y58.012 E3.38652
G1 X80.013 Y58.012 E3.38652
G1 X82.088 Y58.799 E3.49853
G1 X83.557 Y60.457 E3.61036
G1 X84.087 Y62.608 E3.72219
G1 X83.556 Y64.759 E3.83401
G1 X82.284 Y66.196 E3.93089
G1 X82.284 Y66.343 E3.93832
G1 X82.087 Y66.418 E3.94897
G1 X82.087 Y66.418 E3.94897
G1 X80.360 Y67.073 E4.04220
G1 X79.971 Y66.829 F9600.000
G1 X77.951 Y66.584 F900.000 E4.14493
G1 X76.276 Y65.428 E4.24766
G1 X75.367 Y63.696 E4.34639
G1 X75.367 Y63.696 E4.34639
G1 X75.330 Y63.626 E4.35039
G1 X75.330 Y61.591 E4.45311
G1 X76.276 Y59.789 E4.55584
G1 X77.951 Y58.633 E4.65857
G1 X79.796 Y58.409 E4.75240
G1 X79.796 Y58.321 E4.75682
G1 X79.971 Y58.388 E4.76629
G1 X79.971 Y58.388 E4.76629
G1 X81.874 Y59.109 E4.86900
G1 X83.223 Y60.632 E4.97173
G1 X83.710 Y62.608 E5.07446
G1 X83.223 Y64.584 E5.17718
G1 X81.918 Y66.057 E5.27651
G1 X81.918 Y66.091 E5.27820
G1 X81.873 Y66.108 E5.28064
G1 X81.873 Y66.108 E5.28064
G1 X80.314 Y66.699 E5.36479
G1 F1200.000 E4.36479
G1 Z0.730 F9600.000
G92 E0
G1 X79.930 Y82.793
G1 Z0.330
G1 F1200.000 E1.00000
G1 X81.367 Y83.939 F900.000 E1.09280
G1 X81.367 Y85.778 E1.18561
G1 X79.930 Y86.924 E1.27841
G1 X78.137 Y86.515 E1.37122
G1 X77.340 Y84.858 E1.46402
G1 X78.137 Y83.202 E1.55682
G1 X79.571 Y82.875 E1.63107
G1 F1200.000 E0.63107
G1 Z0.730 F9600.000
G92 E0
G1 X82.338 Y56.140
G1 Z0.330
G1 F1200.000 E1.00000
G1 X83.620 Y56.881 F900.000 E1.07472
G1 X84.720 Y57.871 E1.14943
G1 X85.590 Y59.068 E1.22415
G1 X86.192 Y60.421 E1.29887
G1 X86.543 Y62.074 E1.38422
G1 X86.543 Y86.781 E2.63142
G1 X81.545 Y86.781 E2.88375
G1 X81.487 Y86.617 E2.89252
G1 X82.098 Y86.130 E2.93198
G1 X82.098 Y83.587 E3.06034
G1 X80.110 Y82.002 E3.18870
G1 X77.631 Y82.567 E3.31705
G1 X76.528 Y84.858 E3.44541
G1 X77.454 Y86.781 E3.55313
G1 X72.373 Y86.781 E3.80961
G1 X72.373 Y62.074 E5.05680
G1 X72.725 Y60.421 E5.14216
G1 X73.327 Y59.068 E5.21688
G1 X74.197 Y57.871 E5.29160
G1 X75.297 Y56.881 E5.36631
G1 X76.579 Y56.140 E5.44103
G1 X77.986 Y55.683 E5.51575
G1 X79.458 Y55.528 E5.59046
G1 X80.930 Y55.683 E5.66518
G1 X81.989 Y56.027 E5.72134
G1 X82.488 Y55.805 F9600.000
G1 X83.836 Y56.583 F900.000 E5.79994
G1 X84.993 Y57.625 E5.87854
G1 X85.908 Y58.885 E5.95713
G1 X86.541 Y60.307 E6.03573
G1 X86.909 Y62.036 E6.12497
G1 X86.909 Y87.147 E7.39256
G1 X80.500 Y87.147 E7.71610
G1 X80.442 Y86.983 E7.72487
G1 X81.733 Y85.954 E7.80818
G1 X81.733 Y83.763 E7.91876
G1 X80.020 Y82.397 E8.02934
G1 X77.884 Y82.885 E8.13992
G1 X76.934 Y84.858 E8.25050
G1 X78.036 Y87.147 E8.37871
G1 X72.008 Y87.147 E8.68302
G1 X72.008 Y62.036 E9.95061
G1 X72.375 Y60.307 E10.03985
G1 X73.009 Y58.885 E10.11844
G1 X73.924 Y57.625 E10.19704
G1 X75.081 Y56.583 E10.27564
G1 X76.429 Y55.805 E10.35423
G1 X77.910 Y55.323 E10.43283
G1 X79.458 Y55.161 E10.51143
G1 X81.007 Y55.323 E10.59002
G1 X82.138 Y55.691 E10.65007
G1 X82.637 Y55.469 F9600.000
G1 X84.052 Y56.286 F900.000 E10.73254
G1 X85.266 Y57.379 E10.81502
G1 X86.227 Y58.701 E10.89750
G1 X86.891 Y60.193 E10.97997
G1 X87.275 Y61.998 E11.07309
G1 X87.275 Y87.512 E12.36108
G1 X71.642 Y87.512 E13.15021
G1 X71.642 Y61.998 E14.43820
G1 X72.026 Y60.193 E14.53131
G1 X72.690 Y58.701 E14.61379
G1 X73.650 Y57.379 E14.69627
G1 X74.865 Y56.286 E14.77874
G1 X76.280 Y55.469 E14.86122
G1 X77.833 Y54.964 E14.94369
G1 X79.458 Y54.793 E15.02617
G1 X81.083 Y54.964 E15.10865
G1 X82.288 Y55.355 E15.17257
G1 F1200.000 E14.17257
G1 Z0.730 F9600.000
G92 E0
G1 X82.574 Y96.983
G1 Z0.330
G1 F1200.000 E1.00000
G1 X86.361 Y103.543 F1350.000 E1.38666
G1 X86.361 Y102.803 F9600.000
G1 X83.001 Y96.983 F1350.000 E1.72969
G1 X83.429 Y96.983 F9600.000
G1 X86.362 Y102.062 F1350.000 E2.02907
G1 X86.362 Y101.322 F9600.000
G1 X83.857 Y96.983 F1350.000 E2.28481
G1 X84.284 Y96.983 F9600.000
G1 X86.362 Y100.582 F1350.000 E2.49691
G1 X86.361 Y99.841 F9600.000
G1 X84.711 Y96.983 F1350.000 E2.66536
G1 X85.139 Y96.983 F9600.000
G1 X86.362 Y99.100 F1350.000 E2.79018
G1 X86.362 Y98.360 F9600.000
G1 X85.567 Y96.983 F1350.000 E2.87135
G1 X85.994 Y96.983 F9600.000
G1 X86.362 Y97.620 F1350.000 E2.90888
G1 X82.280 Y97.955 F9600.000
G1 X86.362 Y105.024 F1350.000 E3.32554
G1 X86.362 Y104.284 F9600.000
G1 X82.280 Y97.214 F1350.000 E3.74221
G1 X82.280 Y98.696 F9600.000
G1 X86.361 Y105.765 F1350.000 E4.15887
G1 X86.361 Y106.505 F9600.000
G1 X82.280 Y99.436 F1350.000 E4.57553
G1 X82.205 Y100.047 F9600.000
G1 X86.362 Y107.246 F1350.000 E4.99980
G1 X86.362 Y107.986 F9600.000
G1 X81.913 Y100.280 F1350.000 E5.45394
G1 X81.620 Y100.514 F9600.000
G1 X86.362 Y108.727 F1350.000 E5.93800
G1 X86.361 Y109.467 F9600.000
G1 X81.327 Y100.747 F1350.000 E6.45194
G1 X81.034 Y100.981 F9600.000
G1 X86.361 Y110.207 F1350.000 E6.99575
G1 X86.362 Y110.948 F9600.000
G1 X80.742 Y101.214 F1350.000 E7.56943
G1 X80.449 Y101.447 F9600.000
G1 X86.362 Y111.689 F1350.000 E8.17303
G1 X86.361 Y112.429 F9600.000
G1 X80.156 Y101.681 F1350.000 E8.80650
G1 X79.759 Y101.734 F9600.000
G1 X86.361 Y113.169 F1350.000 E9.48051
G1 X86.361 Y113.909 F9600.000
G1 X79.267 Y101.621 F1350.000 E10.20477
G1 X78.775 Y101.509 F9600.000
G1 X86.362 Y114.650 F1350.000 E10.97934
G1 X86.362 Y115.390 F9600.000
G1 X78.282 Y101.396 F1350.000 E11.80415
G1 X77.789 Y101.284 F9600.000
G1 X86.361 Y116.131 F1350.000 E12.67922
